RehabEngGroup/ob-ik-opensim-plugin/test_data/out_data/simulated/trial06.csv
time,shoulder_pan,shoulder_lift,elbow
0.0080,-0.1638,0.0078,-0.0103
0.0160,-0.7604,0.0361,-0.0476
0.0240,-0.9910,0.0470,-0.0621
0.0320,-1.0632,0.0504,-0.0666
0.0400,-1.0773,0.0511,-0.0675
0.0480,-1.0638,0.0504,-0.0667
0.0560,-1.0404,0.0493,-0.0652
0.0640,-1.0184,0.0483,-0.0638
0.0720,-1.0033,0.0476,-0.0629
0.0800,-0.9962,0.0472,-0.0624
0.0880,-0.9956,0.0472,-0.0624
0.0960,-0.9988,0.0474,-0.0626
0.1040,-1.0035,0.0476,-0.0629
0.1120,-1.0078,0.0478,-0.0631
0.1200,-1.0109,0.0479,-0.0633
0.1280,-1.0125,0.0480,-0.0634
0.1360,-1.0129,0.0480,-0.0635
0.1440,-1.0126,0.0480,-0.0634
0.1520,-1.0119,0.0480,-0.0634
0.1600,-1.0111,0.0479,-0.0634
0.1680,-1.0106,0.0479,-0.0633
0.1760,-1.0103,0.0479,-0.0633
0.1840,-1.0102,0.0479,-0.0633
0.1920,-1.0102,0.0479,-0.0633
0.2000,-1.0103,0.0479,-0.0633
0.2080,-1.0104,0.0479,-0.0633
0.2160,-1.0105,0.0479,-0.0633
0.2240,-1.0106,0.0479,-0.0633
0.2320,-1.0106,0.0479,-0.0633
0.2400,-1.0106,0.0479,-0.0633
0.2480,-1.0106,0.0479,-0.0633
0.2560,-1.0106,0.0479,-0.0633
0.2640,-1.0106,0.0479,-0.0633
0.2720,-1.0106,0.0479,-0.0633
0.2800,-1.0106,0.0479,-0.0633
0.2880,-1.0106,0.0479,-0.0633
0.2960,-1.0106,0.0479,-0.0633
0.3040,-1.0106,0.0479,-0.0633
0.3120,-1.0106,0.0479,-0.0633
0.3200,-1.0106,0.0479,-0.0633
0.3280,-1.0106,0.0479,-0.0633
0.3360,-1.0106,0.0479,-0.0633
0.3440,-1.0106,0.0479,-0.0633
0.3520,-1.0106,0.0479,-0.0633
0.3600,-1.0106,0.0479,-0.0633
0.3680,-1.0106,0.0479,-0.0633
0.3760,-1.0106,0.0479,-0.0633
0.3840,-1.0106,0.0479,-0.0633
0.3920,-1.0105,0.0479,-0.0633
0.4000,-1.0105,0.0479,-0.0633
0.4080,-1.0106,0.0479,-0.0633
0.4160,-1.0106,0.0479,-0.0633
0.4240,-1.0106,0.0479,-0.0633
0.4320,-1.0106,0.0479,-0.0633
0.4400,-1.0106,0.0479,-0.0633
0.4480,-1.0106,0.0479,-0.0633
0.4560,-1.0106,0.0479,-0.0633
0.4640,-1.0106,0.0479,-0.0633
0.4720,-1.0105,0.0479,-0.0633
0.4800,-1.0104,0.0479,-0.0634
0.4880,-1.0102,0.0479,-0.0634
0.4960,-1.0100,0.0479,-0.0635
0.5040,-1.0098,0.0479,-0.0635
0.5120,-1.0096,0.0479,-0.0636
0.5200,-1.0094,0.0479,-0.0636
0.5270,-1.0093,0.0479,-0.0636
0.5350,-1.0092,0.0479,-0.0637
0.5430,-1.0092,0.0479,-0.0637
0.5510,-1.0092,0.0479,-0.0637
0.5590,-1.0092,0.0479,-0.0637
0.5670,-1.0093,0.0479,-0.0637
0.5750,-1.0093,0.0479,-0.0637
0.5830,-1.0093,0.0479,-0.0637
0.5910,-1.0093,0.0479,-0.0636
0.5990,-1.0093,0.0479,-0.0636
0.6070,-1.0093,0.0479,-0.0636
0.6150,-1.0093,0.0479,-0.0636
0.6230,-1.0093,0.0479,-0.0637
0.6310,-1.0093,0.0479,-0.0637
0.6390,-1.0093,0.0479,-0.0637
0.6470,-1.0093,0.0479,-0.0637
0.6550,-1.0093,0.0479,-0.0637
0.6630,-1.0093,0.0479,-0.0637
0.6710,-1.0093,0.0479,-0.0637
0.6790,-1.0093,0.0479,-0.0637
0.6870,-1.0093,0.0479,-0.0637
0.6950,-1.0093,0.0479,-0.0637
0.7030,-1.0093,0.0479,-0.0637
0.7110,-1.0093,0.0479,-0.0637
0.7190,-1.0093,0.0479,-0.0637
0.7270,-1.0093,0.0479,-0.0637
0.7350,-1.0093,0.0479,-0.0637
0.7430,-1.0093,0.0479,-0.0637
0.7510,-1.0093,0.0479,-0.0637
0.7590,-1.0093,0.0479,-0.0637
0.7670,-1.0093,0.0479,-0.0637
0.7750,-1.0093,0.0479,-0.0637
0.7830,-1.0093,0.0479,-0.0637
0.7910,-1.0093,0.0479,-0.0637
0.7990,-1.0093,0.0479,-0.0637
0.8070,-1.0093,0.0479,-0.0637
0.8150,-1.0093,0.0479,-0.0637
0.8230,-1.0093,0.0479,-0.0637
0.8310,-1.0093,0.0479,-0.0637
0.8390,-1.0093,0.0479,-0.0637
0.8470,-1.0093,0.0479,-0.0636
0.8550,-1.0093,0.0479,-0.0636
0.8630,-1.0093,0.0479,-0.0636
0.8710,-1.0093,0.0479,-0.0636
0.8790,-1.0093,0.0479,-0.0636
0.8870,-1.0093,0.0479,-0.0636
0.8950,-1.0093,0.0479,-0.0637
0.9030,-1.0093,0.0479,-0.0637
0.9110,-1.0093,0.0480,-0.0637
0.9190,-1.0093,0.0480,-0.0637
0.9270,-1.0093,0.0480,-0.0637
0.9350,-1.0093,0.0479,-0.0637
0.9430,-1.0093,0.0479,-0.0636
0.9510,-1.0093,0.0478,-0.0635
0.9590,-1.0092,0.0477,-0.0633
0.9670,-1.0092,0.0477,-0.0632
0.9750,-1.0092,0.0476,-0.0632
0.9830,-1.0092,0.0477,-0.0633
0.9910,-1.0093,0.0479,-0.0636
0.9990,-1.0094,0.0482,-0.0641
1.0070,-1.0095,0.0486,-0.0647
1.0150,-1.0096,0.0489,-0.0654
1.0230,-1.0096,0.0491,-0.0658
1.0310,-1.0096,0.0490,-0.0657
1.0390,-1.0094,0.0483,-0.0647
1.0470,-1.0090,0.0471,-0.0627
1.0550,-1.0085,0.0452,-0.0595
1.0630,-1.0078,0.0427,-0.0551
1.0710,-1.0070,0.0399,-0.0501
1.0790,-1.0063,0.0370,-0.0449
1.0870,-1.0055,0.0344,-0.0404
1.0950,-1.0049,0.0326,-0.0372
1.1030,-1.0045,0.0316,-0.0361
1.1110,-1.0042,0.0316,-0.0376
1.1190,-1.0041,0.0326,-0.0417
1.1270,-1.0041,0.0346,-0.0483
1.1350,-1.0042,0.0372,-0.0565
1.1430,-1.0043,0.0402,-0.0655
1.1510,-1.0045,0.0432,-0.0738
1.1590,-1.0047,0.0461,-0.0803
1.1670,-1.0049,0.0485,-0.0838
1.1750,-1.0050,0.0503,-0.0837
1.1830,-1.0052,0.0514,-0.0799
1.1910,-1.0053,0.0518,-0.0731
1.1990,-1.0055,0.0516,-0.0645
1.2070,-1.0056,0.0511,-0.0556
1.2150,-1.0058,0.0505,-0.0477
1.2230,-1.0059,0.0501,-0.0419
1.2310,-1.0061,0.0500,-0.0385
1.2390,-1.0063,0.0504,-0.0372
1.2470,-1.0065,0.0510,-0.0372
1.2550,-1.0066,0.0518,-0.0375
1.2630,-1.0068,0.0524,-0.0374
1.2710,-1.0069,0.0528,-0.0364
1.2790,-1.0069,0.0528,-0.0346
1.2870,-1.0070,0.0524,-0.0323
1.2950,-1.0070,0.0518,-0.0303
1.3030,-1.0070,0.0512,-0.0292
1.3110,-1.0069,0.0508,-0.0297
1.3190,-1.0069,0.0506,-0.0319
1.3270,-1.0069,0.0507,-0.0358
1.3350,-1.0069,0.0512,-0.0409
1.3430,-1.0069,0.0518,-0.0464
1.3510,-1.0069,0.0525,-0.0515
1.3590,-1.0069,0.0530,-0.0554
1.3670,-1.0069,0.0533,-0.0574
1.3750,-1.0069,0.0533,-0.0575
1.3830,-1.0069,0.0530,-0.0557
1.3910,-1.0069,0.0525,-0.0525
1.3990,-1.0069,0.0521,-0.0487
1.4070,-1.0069,0.0519,-0.0452
1.4150,-1.0069,0.0520,-0.0427
1.4230,-1.0069,0.0524,-0.0418
1.4310,-1.0069,0.0529,-0.0427
1.4390,-1.0069,0.0534,-0.0452
1.4470,-1.0069,0.0537,-0.0489
1.4550,-1.0069,0.0536,-0.0533
1.4630,-1.0069,0.0531,-0.0578
1.4710,-1.0069,0.0524,-0.0621
1.4790,-1.0069,0.0518,-0.0660
1.4870,-1.0069,0.0518,-0.0697
1.4950,-1.0069,0.0526,-0.0732
1.5030,-1.0069,0.0544,-0.0770
1.5110,-1.0069,0.0573,-0.0809
1.5190,-1.0069,0.0609,-0.0849
1.5270,-1.0070,0.0647,-0.0885
1.5350,-1.0070,0.0681,-0.0913
1.5430,-1.0070,0.0705,-0.0925
1.5510,-1.0070,0.0715,-0.0920
1.5590,-1.0070,0.0711,-0.0896
1.5670,-1.0070,0.0693,-0.0854
1.5750,-1.0070,0.0666,-0.0801
1.5820,-1.0070,0.0634,-0.0742
1.5900,-1.0070,0.0603,-0.0687
1.5980,-1.0070,0.0576,-0.0640
1.6060,-1.0070,0.0557,-0.0606
1.6140,-1.0070,0.0545,-0.0586
1.6220,-1.0070,0.0540,-0.0577
1.6300,-1.0070,0.0541,-0.0578
1.6380,-1.0070,0.0545,-0.0584
1.6460,-1.0070,0.0549,-0.0591
1.6540,-1.0070,0.0554,-0.0599
1.6620,-1.0070,0.0557,-0.0604
1.6700,-1.0070,0.0558,-0.0607
1.6780,-1.0070,0.0559,-0.0608
1.6860,-1.0070,0.0558,-0.0607
1.6940,-1.0070,0.0557,-0.0605
1.7020,-1.0070,0.0556,-0.0603
1.7100,-1.0070,0.0555,-0.0602
1.7180,-1.0070,0.0555,-0.0601
1.7260,-1.0070,0.0554,-0.0601
1.7340,-1.0070,0.0554,-0.0601
1.7420,-1.0070,0.0554,-0.0601
1.7500,-1.0070,0.0555,-0.0601
1.7580,-1.0070,0.0555,-0.0602
1.7660,-1.0070,0.0556,-0.0602
1.7740,-1.0070,0.0556,-0.0603
1.7820,-1.0070,0.0557,-0.0604
1.7900,-1.0070,0.0557,-0.0604
1.7980,-1.0070,0.0558,-0.0604
1.8060,-1.0070,0.0557,-0.0604
1.8140,-1.0070,0.0556,-0.0602
1.8220,-1.0070,0.0553,-0.0600
1.8300,-1.0070,0.0550,-0.0597
1.8380,-1.0070,0.0547,-0.0594
1.8460,-1.0070,0.0545,-0.0592
1.8540,-1.0070,0.0546,-0.0593
1.8620,-1.0070,0.0550,-0.0597
1.8700,-1.0070,0.0560,-0.0607
1.8780,-1.0070,0.0575,-0.0622
1.8860,-1.0070,0.0595,-0.0642
1.8940,-1.0070,0.0619,-0.0666
1.9020,-1.0070,0.0644,-0.0691
1.9100,-1.0070,0.0668,-0.0714
1.9180,-1.0070,0.0688,-0.0735
1.9260,-1.0070,0.0704,-0.0750
1.9340,-1.0070,0.0714,-0.0760
1.9420,-1.0070,0.0718,-0.0765
1.9500,-1.0070,0.0719,-0.0766
1.9580,-1.0070,0.0718,-0.0764
1.9660,-1.0070,0.0715,-0.0761
1.9740,-1.0069,0.0712,-0.0758
1.9820,-1.0069,0.0710,-0.0756
1.9900,-1.0069,0.0708,-0.0755
1.9980,-1.0069,0.0708,-0.0754
2.0060,-1.0070,0.0707,-0.0754
2.0140,-1.0070,0.0707,-0.0754
2.0220,-1.0070,0.0707,-0.0754
2.0300,-1.0070,0.0706,-0.0754
2.0380,-1.0070,0.0706,-0.0754
2.0460,-1.0070,0.0706,-0.0754
2.0540,-1.0070,0.0708,-0.0756
2.0620,-1.0069,0.0711,-0.0758
2.0700,-1.0069,0.0716,-0.0761
2.0780,-1.0068,0.0721,-0.0765
2.0860,-1.0068,0.0726,-0.0767
2.0940,-1.0068,0.0727,-0.0767
2.1020,-1.0069,0.0723,-0.0763
2.1100,-1.0070,0.0710,-0.0753
2.1180,-1.0072,0.0687,-0.0737
2.1260,-1.0075,0.0656,-0.0715
2.1340,-1.0079,0.0618,-0.0690
2.1420,-1.0083,0.0577,-0.0665
2.1500,-1.0087,0.0539,-0.0644
2.1580,-1.0090,0.0509,-0.0629
2.1660,-1.0093,0.0490,-0.0624
2.1740,-1.0094,0.0484,-0.0628
2.1820,-1.0095,0.0489,-0.0640
2.1900,-1.0096,0.0502,-0.0656
2.1980,-1.0095,0.0517,-0.0672
2.2060,-1.0095,0.0531,-0.0685
2.2140,-1.0095,0.0538,-0.0691
2.2220,-1.0094,0.0538,-0.0691
2.2300,-1.0094,0.0530,-0.0684
2.2380,-1.0094,0.0516,-0.0673
2.2460,-1.0094,0.0499,-0.0661
2.2540,-1.0094,0.0483,-0.0650
2.2620,-1.0094,0.0469,-0.0643
2.2700,-1.0094,0.0460,-0.0640
2.2780,-1.0094,0.0455,-0.0643
2.2860,-1.0094,0.0456,-0.0652
2.2940,-1.0094,0.0461,-0.0665
2.3020,-1.0094,0.0470,-0.0685
2.3100,-1.0095,0.0481,-0.0709
2.3180,-1.0095,0.0493,-0.0737
2.3260,-1.0095,0.0505,-0.0768
2.3340,-1.0095,0.0515,-0.0799
2.3420,-1.0095,0.0522,-0.0827
2.3500,-1.0095,0.0523,-0.0850
2.3580,-1.0094,0.0520,-0.0865
2.3660,-1.0092,0.0511,-0.0870
2.3740,-1.0091,0.0499,-0.0868
2.3820,-1.0090,0.0485,-0.0858
2.3900,-1.0089,0.0472,-0.0847
2.3980,-1.0090,0.0465,-0.0840
2.4060,-1.0093,0.0466,-0.0844
2.4140,-1.0097,0.0479,-0.0867
2.4220,-1.0103,0.0508,-0.0916
2.4300,-1.0108,0.0555,-0.0997
2.4380,-1.0110,0.0622,-0.1114
2.4460,-1.0103,0.0709,-0.1270
2.4540,-1.0082,0.0814,-0.1467
2.4620,-1.0042,0.0937,-0.1707
2.4700,-0.9976,0.1074,-0.1994
2.4780,-0.9878,0.1225,-0.2334
2.4860,-0.9742,0.1386,-0.2735
2.4940,-0.9563,0.1556,-0.3200
2.5020,-0.9339,0.1732,-0.3729
2.5100,-0.9065,0.1912,-0.4314
2.5180,-0.8736,0.2089,-0.4939
2.5260,-0.8348,0.2256,-0.5580
2.5340,-0.7895,0.2403,-0.6207
2.5420,-0.7370,0.2519,-0.6791
2.5500,-0.6770,0.2593,-0.7305
2.5580,-0.6094,0.2614,-0.7729
2.5660,-0.5343,0.2578,-0.8051
2.5740,-0.4528,0.2482,-0.8269
2.5820,-0.3658,0.2328,-0.8391
2.5900,-0.2749,0.2125,-0.8434
2.5980,-0.1812,0.1883,-0.8419
2.6060,-0.0854,0.1615,-0.8372
2.6140,0.0122,0.1332,-0.8318
2.6220,0.1123,0.1043,-0.8279
2.6300,0.2161,0.0754,-0.8266
2.6370,0.3250,0.0465,-0.8281
2.6450,0.4408,0.0172,-0.8314
2.6530,0.5650,-0.0131,-0.8348
2.6610,0.6984,-0.0457,-0.8358
2.6690,0.8413,-0.0814,-0.8319
2.6770,0.9931,-0.1212,-0.8211
2.6850,1.1524,-0.1657,-0.8020
2.6930,1.3176,-0.2150,-0.7745
2.7010,1.4866,-0.2686,-0.7396
2.7090,1.6575,-0.3257,-0.6992
2.7170,1.8284,-0.3850,-0.6559
2.7250,1.9985,-0.4454,-0.6124
2.7330,2.1673,-0.5058,-0.5709
2.7410,2.3357,-0.5659,-0.5328
2.7490,2.5053,-0.6260,-0.4985
2.7570,2.6789,-0.6872,-0.4670
2.7650,2.8595,-0.7508,-0.4366
2.7730,3.0501,-0.8183,-0.4053
2.7810,3.2527,-0.8909,-0.3710
2.7890,3.4680,-0.9689,-0.3321
2.7970,3.6951,-1.0520,-0.2877
2.8050,3.9319,-1.1393,-0.2374
2.8130,4.1755,-1.2295,-0.1812
2.8210,4.4230,-1.3213,-0.1195
2.8290,4.6725,-1.4138,-0.0526
2.8370,4.9230,-1.5066,0.0193
2.8450,5.1750,-1.5999,0.0960
2.8530,5.4301,-1.6944,0.1773
2.8610,5.6906,-1.7912,0.2630
2.8690,5.9582,-1.8913,0.3525
2.8770,6.2340,-1.9951,0.4449
2.8850,6.5175,-2.1024,0.5387
2.8930,6.8071,-2.2122,0.6327
2.9010,7.1004,-2.3235,0.7258
2.9090,7.3952,-2.4350,0.8178
2.9170,7.6897,-2.5461,0.9094
2.9250,7.9837,-2.6569,1.0025
2.9330,8.2783,-2.7683,1.0996
2.9410,8.5757,-2.8819,1.2035
2.9490,8.8792,-2.9993,1.3163
2.9570,9.1915,-3.1222,1.4391
2.9650,9.5148,-3.2515,1.5715
2.9730,9.8500,-3.3872,1.7116
2.9810,10.1961,-3.5283,1.8563
2.9890,10.5510,-3.6732,2.0023
2.9970,10.9116,-3.8201,2.1464
3.0050,11.2748,-3.9673,2.2866
3.0130,11.6378,-4.1131,2.4222
3.0210,11.9989,-4.2568,2.5540
3.0290,12.3576,-4.3983,2.6841
3.0370,12.7149,-4.5381,2.8155
3.0450,13.0731,-4.6775,2.9516
3.0530,13.4354,-4.8184,3.0952
3.0610,13.8054,-4.9629,3.2486
3.0690,14.1861,-5.1131,3.4129
3.0770,14.5795,-5.2704,3.5874
3.0850,14.9857,-5.4350,3.7703
3.0930,15.4028,-5.6063,3.9587
3.1010,15.8280,-5.7825,4.1494
3.1090,16.2574,-5.9613,4.3391
3.1170,16.6877,-6.1402,4.5253
3.1250,17.1165,-6.3172,4.7067
3.1330,17.5431,-6.4913,4.8830
3.1410,17.9684,-6.6624,5.0550
3.1490,18.3944,-6.8317,5.2248
3.1570,18.8239,-7.0011,5.3953
3.1650,19.2589,-7.1730,5.5699
3.1730,19.7005,-7.3496,5.7519
3.1810,20.1481,-7.5329,5.9445
3.1890,20.5999,-7.7239,6.1502
3.1970,21.0536,-7.9231,6.3702
3.2050,21.5075,-8.1307,6.6051
3.2130,21.9613,-8.3465,6.8541
3.2210,22.4162,-8.5700,7.1158
3.2290,22.8743,-8.8003,7.3876
3.2370,23.3376,-9.0358,7.6664
3.2450,23.8072,-9.2744,7.9486
3.2530,24.2826,-9.5132,8.2306
3.2610,24.7622,-9.7495,8.5092
3.2690,25.2436,-9.9809,8.7823
3.2770,25.7244,-10.2062,9.0490
3.2850,26.2028,-10.4251,9.3094
3.2930,26.6771,-10.6385,9.5649
3.3010,27.1463,-10.8479,9.8170
3.3090,27.6093,-11.0554,10.0673
3.3170,28.0658,-11.2625,10.3171
3.3250,28.5160,-11.4707,10.5669
3.3330,28.9615,-11.6809,10.8170
3.3410,29.4053,-11.8934,11.0675
3.3490,29.8518,-12.1085,11.3188
3.3570,30.3059,-12.3262,11.5711
3.3650,30.7712,-12.5461,11.8251
3.3730,31.2482,-12.7675,12.0805
3.3810,31.7328,-12.9884,12.3356
3.3890,32.2151,-13.2058,12.5871
3.3970,32.6807,-13.4158,12.8300
3.4050,33.1132,-13.6140,13.0585
3.4130,33.4988,-13.7970,13.2676
3.4210,33.8304,-13.9632,13.4545
3.4290,34.1116,-14.1140,13.6206
3.4370,34.3585,-14.2540,13.7713
3.4450,34.5974,-14.3910,13.9164
3.4530,34.8606,-14.5340,14.0680
3.4610,35.1797,-14.6921,14.2379
3.4690,35.5773,-14.8718,14.4353
3.4770,36.0618,-15.0759,14.6639
3.4850,36.6250,-15.3024,14.9216
3.4930,37.2447,-15.5458,15.2014
3.5010,37.8911,-15.7987,15.4941
3.5090,38.5360,-16.0547,15.7911
3.5170,39.1588,-16.3100,16.0870
3.5250,39.7502,-16.5638,16.3800
3.5330,40.3107,-16.8175,16.6710
3.5410,40.8474,-17.0725,16.9613
3.5490,41.3683,-17.3291,17.2514
3.5570,41.8795,-17.5856,17.5394
3.5650,42.3828,-17.8384,17.8220
3.5730,42.8759,-18.0825,18.0946
3.5810,43.3538,-18.3136,18.3531
3.5890,43.8110,-18.5284,18.5946
3.5970,44.2439,-18.7261,18.8184
3.6050,44.6528,-18.9087,19.0266
3.6130,45.0426,-19.0808,19.2239
3.6210,45.4235,-19.2492,19.4175
3.6290,45.8087,-19.4214,19.6153
3.6370,46.2124,-19.6046,19.8250
3.6450,46.6456,-19.8039,20.0521
3.6530,47.1144,-20.0214,20.2990
3.6610,47.6177,-20.2559,20.5641
3.6690,48.1482,-20.5034,20.8426
3.6770,48.6950,-20.7583,21.1280
3.6850,49.2461,-21.0146,21.4132
3.6920,49.7913,-21.2676,21.6925
3.7000,50.3234,-21.5137,21.9622
3.7080,50.8389,-21.7513,22.2204
3.7160,51.3371,-21.9800,22.4675
3.7240,51.8194,-22.2005,22.7046
3.7320,52.2884,-22.4141,22.9335
3.7400,52.7472,-22.6223,23.1561
3.7480,53.1988,-22.8265,23.3742
3.7560,53.6467,-23.0285,23.5895
3.7640,54.0945,-23.2298,23.8040
3.7720,54.5461,-23.4320,24.0200
3.7800,55.0048,-23.6369,24.2397
3.7880,55.4733,-23.8458,24.4652
3.7960,55.9526,-24.0596,24.6974
3.8040,56.4414,-24.2782,24.9359
3.8120,56.9366,-24.5006,25.1787
3.8200,57.4337,-24.7249,25.4225
3.8280,57.9281,-24.9489,25.6631
3.8360,58.4160,-25.1705,25.8970
3.8440,58.8955,-25.3879,26.1215
3.8520,59.3666,-25.6005,26.3359
3.8600,59.8314,-25.8090,26.5412
3.8680,60.2935,-26.0147,26.7400
3.8760,60.7571,-26.2198,26.9361
3.8840,61.2261,-26.4264,27.1333
3.8920,61.7029,-26.6362,27.3350
3.9000,62.1882,-26.8502,27.5432
3.9080,62.6804,-27.0683,27.7590
3.9160,63.1764,-27.2899,27.9819
3.9240,63.6722,-27.5137,28.2106
3.9320,64.1637,-27.7385,28.4430
3.9400,64.6481,-27.9627,28.6772
3.9480,65.1238,-28.1854,28.9112
3.9560,65.5915,-28.4058,29.1439
3.9640,66.0536,-28.6242,29.3753
3.9720,66.5140,-28.8418,29.6066
3.9800,66.9769,-29.0608,29.8407
3.9880,67.4465,-29.2841,30.0812
3.9960,67.9248,-29.5147,30.3316
4.0040,68.4118,-29.7548,30.5953
4.0120,68.9052,-30.0059,30.8739
4.0200,69.4007,-30.2680,31.1675
4.0280,69.8936,-30.5395,31.4748
4.0360,70.3792,-30.8183,31.7927
4.0440,70.8543,-31.1014,32.1174
4.0520,71.3174,-31.3859,32.4443
4.0600,71.7684,-31.6688,32.7684
4.0680,72.2085,-31.9478,33.0849
4.0760,72.6395,-32.2210,33.3898
4.0840,73.0635,-32.4870,33.6800
4.0920,73.4822,-32.7452,33.9543
4.1000,73.8969,-32.9953,34.2134
4.1080,74.3082,-33.2379,34.4598
4.1160,74.7158,-33.4739,34.6976
4.1240,75.1190,-33.7044,34.9310
4.1320,75.5167,-33.9310,35.1639
4.1400,75.9075,-34.1551,35.3987
4.1480,76.2903,-34.3778,35.6362
4.1560,76.6648,-34.6002,35.8752
4.1640,77.0312,-34.8227,36.1137
4.1720,77.3911,-35.0459,36.3491
4.1800,77.7465,-35.2699,36.5794
4.1880,78.0998,-35.4946,36.8034
4.1960,78.4528,-35.7198,37.0209
4.2040,78.8064,-35.9447,37.2321
4.2120,79.1599,-36.1683,37.4379
4.2200,79.5116,-36.3895,37.6387
4.2280,79.8590,-36.6069,37.8347
4.2360,80.1996,-36.8198,38.0257
4.2440,80.5315,-37.0274,38.2113
4.2520,80.8535,-37.2298,38.3911
4.2600,81.1657,-37.4271,38.5650
4.2680,81.4692,-37.6198,38.7339
4.2760,81.7657,-37.8085,38.8990
4.2840,82.0574,-37.9941,39.0625
4.2920,82.3465,-38.1774,39.2265
4.3000,82.6348,-38.3592,39.3928
4.3080,82.9230,-38.5398,39.5624
4.3160,83.2108,-38.7196,39.7347
4.3240,83.4968,-38.8985,39.9083
4.3320,83.7790,-39.0763,40.0806
4.3400,84.0556,-39.2530,40.2492
4.3480,84.3249,-39.4286,40.4120
4.3560,84.5860,-39.6034,40.5679
4.3640,84.8388,-39.7775,40.7168
4.3720,85.0837,-39.9508,40.8595
4.3800,85.3215,-40.1228,40.9973
4.3880,85.5533,-40.2929,41.1318
4.3960,85.7800,-40.4598,41.2640
4.4040,86.0025,-40.6225,41.3947
4.4120,86.2212,-40.7799,41.5241
4.4200,86.4362,-40.9311,41.6519
4.4280,86.6474,-41.0758,41.7774
4.4360,86.8538,-41.2141,41.8997
4.4440,87.0543,-41.3468,42.0178
4.4520,87.2478,-41.4750,42.1307
4.4600,87.4336,-41.5999,42.2378
4.4680,87.6114,-41.7233,42.3387
4.4760,87.7820,-41.8468,42.4336
4.4840,87.9468,-41.9719,42.5235
4.4920,88.1076,-42.0995,42.6096
4.5000,88.2664,-42.2304,42.6934
4.5080,88.4242,-42.3641,42.7764
4.5160,88.5812,-42.4996,42.8596
4.5240,88.7367,-42.6349,42.9435
4.5320,88.8888,-42.7679,43.0277
4.5400,89.0356,-42.8963,43.1112
4.5480,89.1754,-43.0182,43.1928
4.5560,89.3070,-43.1326,43.2710
4.5640,89.4299,-43.2390,43.3448
4.5720,89.5445,-43.3378,43.4137
4.5800,89.6516,-43.4303,43.4778
4.5880,89.7524,-43.5178,43.5377
4.5960,89.8482,-43.6021,43.5947
4.6040,89.9398,-43.6850,43.6498
4.6120,90.0278,-43.7677,43.7040
4.6200,90.1123,-43.8510,43.7575
4.6280,90.1932,-43.9350,43.8098
4.6360,90.2697,-44.0193,43.8604
4.6440,90.3413,-44.1031,43.9083
4.6520,90.4075,-44.1855,43.9526
4.6600,90.4678,-44.2658,43.9931
4.6680,90.5220,-44.3435,44.0297
4.6760,90.5702,-44.4183,44.0628
4.6840,90.6126,-44.4905,44.0929
4.6920,90.6492,-44.5599,44.1205
4.7000,90.6805,-44.6266,44.1460
4.7080,90.7065,-44.6903,44.1695
4.7160,90.7275,-44.7507,44.1910
4.7240,90.7436,-44.8071,44.2102
4.7320,90.7549,-44.8589,44.2269
4.7400,90.7615,-44.9057,44.2409
4.7470,90.7636,-44.9472,44.2521
4.7550,90.7612,-44.9833,44.2603
4.7630,90.7543,-45.0146,44.2657
4.7710,90.7429,-45.0418,44.2683
4.7790,90.7268,-45.0658,44.2683
4.7870,90.7058,-45.0875,44.2659
4.7950,90.6796,-45.1081,44.2614
4.8030,90.6478,-45.1283,44.2551
4.8110,90.6102,-45.1487,44.2473
4.8190,90.5668,-45.1693,44.2384
4.8270,90.5174,-45.1901,44.2286
4.8350,90.4623,-45.2107,44.2180
4.8430,90.4017,-45.2303,44.2065
4.8510,90.3360,-45.2480,44.1937
4.8590,90.2651,-45.2631,44.1790
4.8670,90.1893,-45.2746,44.1621
4.8750,90.1086,-45.2816,44.1422
4.8830,90.0229,-45.2836,44.1191
4.8910,89.9320,-45.2799,44.0925
4.8990,89.8359,-45.2706,44.0624
4.9070,89.7345,-45.2555,44.0290
4.9150,89.6279,-45.2350,43.9925
4.9230,89.5164,-45.2098,43.9533
4.9310,89.4002,-45.1806,43.9115
4.9390,89.2799,-45.1486,43.8674
4.9470,89.1559,-45.1146,43.8212
4.9550,89.0286,-45.0797,43.7730
4.9630,88.8982,-45.0447,43.7230
4.9710,88.7645,-45.0101,43.6714
4.9790,88.6269,-44.9760,43.6182
4.9870,88.4841,-44.9419,43.5633
4.9950,88.3349,-44.9069,43.5065
5.0030,88.1778,-44.8697,43.4476
5.0110,88.0120,-44.8292,43.3864
5.0190,87.8369,-44.7838,43.3228
5.0270,87.6530,-44.7326,43.2570
5.0350,87.4617,-44.6750,43.1893
5.0430,87.2649,-44.6107,43.1198
5.0510,87.0645,-44.5402,43.0488
5.0590,86.8623,-44.4641,42.9761
5.0670,86.6596,-44.3833,42.9016
5.0750,86.4565,-44.2991,42.8247
5.0830,86.2524,-44.2122,42.7449
5.0910,86.0460,-44.1237,42.6617
5.0990,85.8351,-44.0340,42.5744
5.1070,85.6177,-43.9437,42.4829
5.1150,85.3917,-43.8528,42.3870
5.1230,85.1561,-43.7617,42.2871
5.1310,84.9103,-43.6704,42.1837
5.1390,84.6552,-43.5789,42.0778
5.1470,84.3921,-43.4869,41.9707
5.1550,84.1230,-43.3936,41.8636
5.1630,83.8503,-43.2979,41.7574
5.1710,83.5760,-43.1983,41.6528
5.1790,83.3020,-43.0929,41.5499
5.1870,83.0292,-42.9803,41.4484
5.1950,82.7573,-42.8595,41.3473
5.2030,82.4850,-42.7304,41.2453
5.2110,82.2098,-42.5937,41.1412
5.2190,81.9289,-42.4510,41.0335
5.2270,81.6395,-42.3045,40.9215
5.2350,81.3394,-42.1566,40.8049
5.2430,81.0277,-42.0096,40.6839
5.2510,80.7047,-41.8651,40.5593
5.2590,80.3719,-41.7235,40.4325
5.2670,80.0318,-41.5846,40.3046
5.2750,79.6873,-41.4470,40.1768
5.2830,79.3412,-41.3087,40.0501
5.2910,78.9951,-41.1675,39.9244
5.2990,78.6492,-41.0208,39.7990
5.3070,78.3020,-40.8667,39.6722
5.3150,77.9502,-40.7036,39.5421
5.3230,77.5904,-40.5310,39.4066
5.3310,77.2199,-40.3499,39.2648
5.3390,76.8381,-40.1629,39.1174
5.3470,76.4468,-39.9732,38.9660
5.3550,76.0494,-39.7844,38.8133
5.3630,75.6497,-39.5991,38.6614
5.3710,75.2509,-39.4180,38.5111
5.3790,74.8544,-39.2397,38.3612
5.3870,74.4597,-39.0612,38.2093
5.3950,74.0643,-38.8790,38.0520
5.4030,73.6646,-38.6897,37.8866
5.4110,73.2567,-38.4917,37.7120
5.4190,72.8370,-38.2846,37.5288
5.4270,72.4034,-38.0701,37.3394
5.4350,71.9557,-37.8507,37.1471
5.4430,71.4957,-37.6293,36.9552
5.4510,71.0267,-37.4084,36.7663
5.4590,70.5525,-37.1892,36.5811
5.4670,70.0771,-36.9715,36.3986
5.4750,69.6030,-36.7535,36.2158
5.4830,69.1317,-36.5320,36.0288
5.4910,68.6631,-36.3033,35.8336
5.4990,68.1959,-36.0640,35.6269
5.5070,67.7276,-35.8112,35.4068
5.5150,67.2555,-35.5437,35.1731
5.5230,66.7770,-35.2615,34.9274
5.5310,66.2906,-34.9666,34.6724
5.5390,65.7963,-34.6620,34.4117
5.5470,65.2965,-34.3518,34.1491
5.5550,64.7949,-34.0407,33.8882
5.5630,64.2965,-33.7333,33.6324
5.5710,63.8059,-33.4337,33.3847
5.5790,63.3265,-33.1452,33.1471
5.5870,62.8596,-32.8694,32.9212
5.5950,62.4038,-32.6061,32.7070
5.6030,61.9552,-32.3533,32.5034
5.6110,61.5082,-32.1072,32.3079
5.6190,61.0567,-31.8629,32.1165
5.6270,60.5952,-31.6150,31.9246
5.6350,60.1206,-31.3589,31.7273
5.6430,59.6323,-31.0911,31.5206
5.6510,59.1331,-30.8104,31.3019
5.6590,58.6276,-30.5175,31.0707
5.6670,58.1215,-30.2150,30.8286
5.6750,57.6204,-29.9071,30.5787
5.6830,57.1284,-29.5981,30.3249
5.6910,56.6473,-29.2919,30.0707
5.6990,56.1764,-28.9912,29.8187
5.7070,55.7129,-28.6972,29.5699
5.7150,55.2525,-28.4093,29.3241
5.7230,54.7906,-28.1261,29.0805
5.7310,54.3235,-27.8460,28.8383
5.7390,53.8492,-27.5676,28.5976
5.7470,53.3679,-27.2903,28.3593
5.7550,52.8818,-27.0146,28.1250
5.7630,52.3946,-26.7415,27.8961
5.7710,51.9102,-26.4721,27.6736
5.7790,51.4323,-26.2073,27.4572
5.7870,50.9628,-25.9470,27.2457
5.7950,50.5020,-25.6901,27.0369
5.8020,50.0482,-25.4344,26.8284
5.8100,49.5979,-25.1771,26.6179
5.8180,49.1467,-24.9152,26.4032
5.8260,48.6901,-24.6465,26.1831
5.8340,48.2250,-24.3698,25.9570
5.8420,47.7502,-24.0859,25.7251
5.8500,47.2673,-23.7972,25.4884
5.8580,46.7798,-23.5071,25.2488
5.8660,46.2926,-23.2197,25.0085
5.8740,45.8107,-22.9382,24.7698
5.8820,45.3378,-22.6652,24.5352
5.8900,44.8758,-22.4015,24.3065
5.8980,44.4238,-22.1464,24.0847
5.9060,43.9787,-21.8977,23.8697
5.9140,43.5359,-21.6524,23.6601
5.9220,43.0900,-21.4066,23.4536
5.9300,42.6363,-21.1571,23.2468
5.9380,42.1719,-20.9013,23.0365
5.9460,41.6962,-20.6381,22.8201
5.9540,41.2109,-20.3679,22.5966
5.9620,40.7198,-20.0927,22.3663
5.9700,40.2272,-19.8152,22.1309
5.9780,39.7373,-19.5381,21.8929
5.9860,39.2530,-19.2639,21.6548
5.9940,38.7761,-18.9940,21.4188
6.0020,38.3064,-18.7288,21.1865
6.0100,37.8432,-18.4683,20.9590
6.0180,37.3846,-18.2118,20.7367
6.0260,36.9286,-17.9581,20.5196
6.0340,36.4732,-17.7061,20.3072
6.0420,36.0166,-17.4543,20.0986
6.0500,35.5574,-17.2015,19.8924
6.0580,35.0952,-16.9470,19.6872
6.0660,34.6303,-16.6906,19.4819
6.0740,34.1643,-16.4335,19.2762
6.0820,33.6993,-16.1774,19.0707
6.0900,33.2378,-15.9249,18.8665
6.0980,32.7815,-15.6778,18.6652
6.1060,32.3308,-15.4374,18.4677
6.1140,31.8844,-15.2030,18.2739
6.1220,31.4390,-14.9727,18.0826
6.1300,30.9907,-14.7433,17.8912
6.1380,30.5353,-14.5109,17.6967
6.1460,30.0706,-14.2722,17.4960
6.1540,29.5965,-14.0251,17.2871
6.1620,29.1162,-13.7690,17.0692
6.1700,28.6350,-13.5056,16.8436
6.1780,28.1595,-13.2382,16.6132
6.1860,27.6963,-12.9716,16.3828
6.1940,27.2500,-12.7114,16.1578
6.2020,26.8224,-12.4626,15.9436
6.2100,26.4116,-12.2289,15.7443
6.2180,26.0116,-12.0111,15.5611
6.2260,25.6137,-11.8066,15.3920
6.2340,25.2073,-11.6094,15.2313
6.2420,24.7826,-11.4113,15.0711
6.2500,24.3326,-11.2037,14.9028
6.2580,23.8553,-10.9797,14.7198
6.2660,23.3538,-10.7366,14.5195
6.2740,22.8360,-10.4758,14.3032
6.2820,22.3120,-10.2024,14.0765
6.2900,21.7918,-9.9237,13.8466
6.2980,21.2833,-9.6467,13.6201
6.3060,20.7903,-9.3761,13.4013
6.3140,20.3131,-9.1140,13.1908
6.3220,19.8492,-8.8594,12.9856
6.3300,19.3945,-8.6090,12.7802
6.3380,18.9449,-8.3589,12.5686
6.3460,18.4973,-8.1053,12.3453
6.3540,18.0503,-7.8455,12.1077
6.3620,17.6040,-7.5789,11.8557
6.3700,17.1601,-7.3066,11.5923
6.3780,16.7209,-7.0311,11.3225
6.3860,16.2889,-6.7562,11.0522
6.3940,15.8665,-6.4859,10.7872
6.4020,15.4547,-6.2237,10.5315
6.4100,15.0538,-5.9721,10.2875
6.4180,14.6627,-5.7324,10.0554
6.4260,14.2793,-5.5044,9.8336
6.4340,13.9008,-5.2863,9.6192
6.4420,13.5243,-5.0758,9.4084
6.4500,13.1478,-4.8700,9.1979
6.4580,12.7701,-4.6661,8.9848
6.4660,12.3917,-4.4620,8.7671
6.4740,12.0142,-4.2565,8.5443
6.4820,11.6401,-4.0496,8.3169
6.4900,11.2719,-3.8419,8.0865
6.4980,10.9117,-3.6348,7.8553
6.5060,10.5607,-3.4299,7.6256
6.5140,10.2192,-3.2287,7.3997
6.5220,9.8865,-3.0323,7.1796
6.5300,9.5612,-2.8411,6.9668
6.5380,9.2418,-2.6552,6.7622
6.5460,8.9266,-2.4744,6.5658
6.5540,8.6145,-2.2983,6.3771
6.5620,8.3053,-2.1268,6.1947
6.5700,7.9991,-1.9599,6.0168
6.5780,7.6970,-1.7978,5.8414
6.5860,7.4001,-1.6406,5.6661
6.5940,7.1096,-1.4884,5.4893
6.6020,6.8260,-1.3407,5.3096
6.6100,6.5495,-1.1968,5.1267
6.6180,6.2794,-1.0552,4.9407
6.6260,6.0149,-0.9145,4.7527
6.6340,5.7546,-0.7730,4.5637
6.6420,5.4973,-0.6299,4.3751
6.6500,5.2421,-0.4847,4.1881
6.6580,4.9886,-0.3382,4.0038
6.6660,4.7374,-0.1917,3.8229
6.6740,4.4893,-0.0477,3.6464
6.6820,4.2459,0.0917,3.4745
6.6900,4.0088,0.2242,3.3075
6.6980,3.7795,0.3485,3.1452
6.7060,3.5589,0.4644,2.9872
6.7140,3.3472,0.5724,2.8331
6.7220,3.1440,0.6742,2.6828
6.7300,2.9480,0.7718,2.5362
6.7380,2.7576,0.8670,2.3933
6.7460,2.5707,0.9617,2.2540
6.7540,2.3860,1.0571,2.1178
6.7620,2.2023,1.1535,1.9842
6.7700,2.0197,1.2507,1.8525
6.7780,1.8389,1.3477,1.7222
6.7860,1.6616,1.4432,1.5930
6.7940,1.4891,1.5359,1.4648
6.8020,1.3231,1.6244,1.3381
6.8100,1.1644,1.7077,1.2134
6.8180,1.0133,1.7851,1.0913
6.8260,0.8695,1.8562,0.9723
6.8340,0.7324,1.9210,0.8567
6.8420,0.6012,1.9801,0.7443
6.8500,0.4753,2.0340,0.6349
6.8570,0.3540,2.0840,0.5277
6.8650,0.2372,2.1311,0.4220
6.8730,0.1248,2.1767,0.3172
6.8810,0.0171,2.2216,0.2130
6.8890,-0.0856,2.2666,0.1092
6.8970,-0.1828,2.3118,0.0064
6.9050,-0.2742,2.3569,-0.0944
6.9130,-0.3594,2.4011,-0.1923
6.9210,-0.4386,2.4433,-0.2862
6.9290,-0.5118,2.4826,-0.3752
6.9370,-0.5796,2.5180,-0.4590
6.9450,-0.6423,2.5489,-0.5380
6.9530,-0.7007,2.5753,-0.6127
6.9610,-0.7550,2.5973,-0.6843
6.9690,-0.8055,2.6156,-0.7537
6.9770,-0.8521,2.6307,-0.8218
6.9850,-0.8944,2.6433,-0.8890
6.9930,-0.9320,2.6537,-0.9552
7.0010,-0.9643,2.6624,-1.0202
7.0090,-0.9911,2.6694,-1.0832
7.0170,-1.0121,2.6749,-1.1437
7.0250,-1.0274,2.6786,-1.2013
7.0330,-1.0370,2.6807,-1.2557
7.0410,-1.0411,2.6809,-1.3070
7.0490,-1.0399,2.6791,-1.3555
7.0570,-1.0335,2.6751,-1.4018
7.0650,-1.0219,2.6687,-1.4464
7.0730,-1.0053,2.6597,-1.4896
7.0810,-0.9837,2.6478,-1.5313
7.0890,-0.9570,2.6332,-1.5713
7.0970,-0.9254,2.6159,-1.6093
7.1050,-0.8889,2.5959,-1.6447
7.1130,-0.8475,2.5736,-1.6775
7.1210,-0.8012,2.5489,-1.7077
7.1290,-0.7499,2.5220,-1.7355
7.1370,-0.6934,2.4927,-1.7609
7.1450,-0.6317,2.4605,-1.7841
7.1530,-0.5646,2.4253,-1.8047
7.1610,-0.4919,2.3865,-1.8222
7.1690,-0.4137,2.3441,-1.8359
7.1770,-0.3299,2.2980,-1.8454
7.1850,-0.2408,2.2487,-1.8503
7.1930,-0.1467,2.1966,-1.8506
7.2010,-0.0482,2.1424,-1.8468
7.2090,0.0544,2.0869,-1.8393
7.2170,0.1607,2.0304,-1.8289
7.2250,0.2704,1.9733,-1.8164
7.2330,0.3840,1.9155,-1.8021
7.2410,0.5018,1.8563,-1.7866
7.2490,0.6250,1.7951,-1.7700
7.2570,0.7546,1.7309,-1.7519
7.2650,0.8916,1.6629,-1.7321
7.2730,1.0365,1.5904,-1.7098
7.2810,1.1892,1.5132,-1.6843
7.2890,1.3490,1.4315,-1.6548
7.2970,1.5148,1.3458,-1.6210
7.3050,1.6851,1.2569,-1.5828
7.3130,1.8590,1.1657,-1.5407
7.3210,2.0356,1.0730,-1.4952
7.3290,2.2149,0.9793,-1.4471
7.3370,2.3970,0.8853,-1.3971
7.3450,2.5829,0.7909,-1.3457
7.3530,2.7736,0.6962,-1.2930
7.3610,2.9700,0.6007,-1.2387
7.3690,3.1731,0.5042,-1.1823
7.3770,3.3834,0.4062,-1.1231
7.3850,3.6007,0.3063,-1.0604
7.3930,3.8245,0.2040,-0.9932
7.4010,4.0541,0.0991,-0.9209
7.4090,4.2884,-0.0085,-0.8433
7.4170,4.5265,-0.1190,-0.7602
7.4250,4.7677,-0.2325,-0.6722
7.4330,5.0119,-0.3489,-0.5801
7.4410,5.2594,-0.4681,-0.4850
7.4490,5.5110,-0.5902,-0.3880
7.4570,5.7678,-0.7150,-0.2900
7.4650,6.0309,-0.8425,-0.1915
7.4730,6.3010,-0.9726,-0.0926
7.4810,6.5786,-1.1050,0.0068
7.4890,6.8633,-1.2396,0.1072
7.4970,7.1543,-1.3760,0.2090
7.5050,7.4501,-1.5140,0.3125
7.5130,7.7491,-1.6532,0.4175
7.5210,8.0498,-1.7935,0.5239
7.5290,8.3514,-1.9348,0.6312
7.5370,8.6536,-2.0773,0.7390
7.5450,8.9574,-2.2213,0.8472
7.5530,9.2647,-2.3677,0.9562
7.5610,9.5779,-2.5172,1.0670
7.5690,9.8998,-2.6706,1.1810
7.5770,10.2322,-2.8287,1.2997
7.5850,10.5758,-2.9916,1.4244
7.5930,10.9302,-3.1590,1.5558
7.6010,11.2934,-3.3302,1.6938
7.6090,11.6629,-3.5040,1.8377
7.6170,12.0362,-3.6792,1.9864
7.6250,12.4116,-3.8547,2.1384
7.6330,12.7879,-4.0294,2.2927
7.6410,13.1654,-4.2030,2.4483
7.6490,13.5447,-4.3753,2.6052
7.6570,13.9271,-4.5464,2.7635
7.6650,14.3141,-4.7171,2.9239
7.6730,14.7066,-4.8883,3.0872
7.6810,15.1056,-5.0607,3.2543
7.6890,15.5111,-5.2349,3.4255
7.6970,15.9227,-5.4110,3.6004
7.7050,16.3393,-5.5884,3.7781
7.7130,16.7593,-5.7659,3.9569
7.7210,17.1812,-5.9423,4.1351
7.7290,17.6036,-6.1166,4.3112
7.7370,18.0260,-6.2889,4.4849
7.7450,18.4488,-6.4604,4.6573
7.7530,18.8741,-6.6340,4.8316
7.7610,19.3048,-6.8136,5.0125
7.7690,19.7442,-7.0034,5.2054
7.7770,20.1950,-7.2074,5.4157
7.7850,20.6585,-7.4277,5.6467
7.7930,21.1335,-7.6641,5.8994
7.8010,21.6167,-7.9141,6.1718
7.8090,22.1031,-8.1727,6.4588
7.8170,22.5871,-8.4338,6.7540
7.8250,23.0637,-8.6912,7.0500
7.8330,23.5294,-8.9393,7.3400
7.8410,23.9831,-9.1747,7.6188
7.8490,24.4262,-9.3963,7.8831
7.8570,24.8619,-9.6054,8.1321
7.8650,25.2955,-9.8058,8.3672
7.8730,25.7323,-10.0023,8.5921
7.8810,26.1771,-10.2004,8.8116
7.8890,26.6329,-10.4046,9.0310
7.8970,27.1001,-10.6181,9.2553
7.9050,27.5768,-10.8422,9.4880
7.9120,28.0594,-11.0765,9.7311
7.9200,28.5437,-11.3188,9.9847
7.9280,29.0259,-11.5665,10.2472
7.9360,29.5032,-11.8166,10.5157
7.9440,29.9746,-12.0662,10.7868
7.9520,30.4402,-12.3130,11.0567
7.9600,30.9012,-12.5553,11.3223
7.9680,31.3590,-12.7919,11.5811
7.9760,31.8153,-13.0222,11.8317
7.9840,32.2711,-13.2464,12.0741
7.9920,32.7272,-13.4650,12.3092
8.0000,33.1839,-13.6787,12.5387
8.0080,33.6411,-13.8887,12.7652
8.0160,34.0982,-14.0960,12.9912
8.0240,34.5548,-14.3017,13.2191
8.0320,35.0099,-14.5067,13.4506
8.0400,35.4631,-14.7118,13.6867
8.0480,35.9144,-14.9178,13.9274
8.0560,36.3642,-15.1254,14.1721
8.0640,36.8140,-15.3358,14.4199
8.0720,37.2662,-15.5497,14.6698
8.0800,37.7232,-15.7681,14.9210
8.0880,38.1870,-15.9911,15.1729
8.0960,38.6585,-16.2185,15.4250
8.1040,39.1367,-16.4491,15.6769
8.1120,39.6191,-16.6815,15.9285
8.1200,40.1021,-16.9139,16.1796
8.1280,40.5822,-17.1446,16.4305
8.1360,41.0563,-17.3726,16.6817
8.1440,41.5228,-17.5974,16.9336
8.1520,41.9818,-17.8192,17.1867
8.1600,42.4349,-18.0387,17.4415
8.1680,42.8853,-18.2571,17.6982
8.1760,43.3364,-18.4759,17.9567
8.1840,43.7918,-18.6967,18.2171
8.1920,44.2542,-18.9203,18.4787
8.2000,44.7245,-19.1468,18.7406
8.2080,45.2019,-19.3756,19.0015
8.2160,45.6842,-19.6048,19.2597
8.2240,46.1681,-19.8326,19.5136
8.2320,46.6505,-20.0568,19.7621
8.2400,47.1288,-20.2761,20.0048
8.2480,47.6018,-20.4900,20.2425
8.2560,48.0696,-20.6987,20.4772
8.2640,48.5336,-20.9033,20.7109
8.2720,48.9961,-21.1054,20.9462
8.2800,49.4598,-21.3068,21.1849
8.2880,49.9269,-21.5089,21.4279
8.2960,50.3986,-21.7130,21.6751
8.3040,50.8750,-21.9197,21.9255
8.3120,51.3545,-22.1291,22.1773
8.3200,51.8346,-22.3406,22.4286
8.3280,52.3122,-22.5534,22.6774
8.3360,52.7843,-22.7663,22.9221
8.3440,53.2489,-22.9781,23.1620
8.3520,53.7057,-23.1885,23.3970
8.3600,54.1563,-23.3975,23.6281
8.3680,54.6040,-23.6061,23.8573
8.3760,55.0534,-23.8160,24.0873
8.3840,55.5094,-24.0290,24.3210
8.3920,55.9757,-24.2465,24.5607
8.4000,56.4539,-24.4690,24.8074
8.4080,56.9431,-24.6961,25.0607
8.4160,57.4404,-24.9261,25.3188
8.4240,57.9413,-25.1573,25.5788
8.4320,58.4413,-25.3874,25.8378
8.4400,58.9370,-25.6151,26.0930
8.4480,59.4265,-25.8392,26.3421
8.4560,59.9095,-26.0597,26.5838
8.4640,60.3873,-26.2767,26.8176
8.4720,60.8618,-26.4911,27.0440
8.4800,61.3355,-26.7037,27.2641
8.4880,61.8102,-26.9155,27.4795
8.4960,62.2873,-27.1275,27.6920
8.5040,62.7674,-27.3401,27.9033
8.5120,63.2501,-27.5536,28.1144
8.5200,63.7342,-27.7679,28.3255
8.5280,64.2181,-27.9824,28.5362
8.5360,64.6998,-28.1964,28.7455
8.5440,65.1773,-28.4091,28.9527
8.5520,65.6496,-28.6202,29.1576
8.5600,66.1166,-28.8305,29.3615
8.5680,66.5796,-29.0418,29.5671
8.5760,67.0414,-29.2570,29.7787
8.5840,67.5055,-29.4799,30.0015
8.5920,67.9755,-29.7140,30.2404
8.6000,68.4535,-29.9623,30.4988
8.6080,68.9398,-30.2256,30.7779
8.6160,69.4322,-30.5027,31.0760
8.6240,69.9263,-30.7904,31.3885
8.6320,70.4165,-31.0838,31.7096
8.6400,70.8973,-31.3776,32.0322
8.6480,71.3641,-31.6667,32.3500
8.6560,71.8144,-31.9475,32.6580
8.6640,72.2480,-32.2178,32.9528
8.6720,72.6670,-32.4773,33.2335
8.6800,73.0751,-32.7272,33.5008
8.6880,73.4772,-32.9696,33.7571
8.6960,73.8781,-33.2068,34.0056
8.7040,74.2814,-33.4410,34.2495
8.7120,74.6887,-33.6735,34.4914
8.7200,75.0997,-33.9046,34.7328
8.7280,75.5121,-34.1343,34.9740
8.7360,75.9226,-34.3623,35.2146
8.7440,76.3279,-34.5883,35.4534
8.7520,76.7251,-34.8127,35.6896
8.7600,77.1129,-35.0359,35.9224
8.7680,77.4908,-35.2583,36.1514
8.7760,77.8595,-35.4802,36.3763
8.7840,78.2203,-35.7011,36.5972
8.7920,78.5745,-35.9202,36.8143
8.8000,78.9237,-36.1364,37.0276
8.8080,79.2687,-36.3488,37.2373
8.8160,79.6098,-36.5569,37.4436
8.8240,79.9471,-36.7605,37.6463
8.8320,80.2798,-36.9602,37.8453
8.8400,80.6069,-37.1566,38.0402
8.8480,80.9273,-37.3505,38.2303
8.8560,81.2399,-37.5421,38.4153
8.8640,81.5444,-37.7314,38.5946
8.8720,81.8409,-37.9181,38.7685
8.8800,82.1305,-38.1019,38.9377
8.8880,82.4150,-38.2826,39.1037
8.8960,82.6967,-38.4604,39.2681
8.9040,82.9774,-38.6360,39.4328
8.9120,83.2586,-38.8103,39.5991
8.9200,83.5400,-38.9841,39.7674
8.9280,83.8206,-39.1582,39.9370
8.9360,84.0981,-39.3329,40.1064
8.9440,84.3701,-39.5082,40.2738
8.9520,84.6340,-39.6837,40.4372
8.9600,84.8885,-39.8586,40.5950
8.9670,85.1328,-40.0320,40.7467
8.9750,85.3674,-40.2029,40.8923
8.9830,85.5939,-40.3702,41.0323
8.9910,85.8144,-40.5333,41.1680
8.9990,86.0311,-40.6916,41.3004
9.0070,86.2459,-40.8450,41.4304
9.0150,86.4600,-40.9936,41.5586
9.0230,86.6733,-41.1375,41.6850
9.0310,86.8850,-41.2772,41.8090
9.0390,87.0934,-41.4130,41.9301
9.0470,87.2964,-41.5455,42.0476
9.0550,87.4926,-41.6757,42.1610
9.0630,87.6809,-41.8045,42.2701
9.0710,87.8610,-41.9329,42.3749
9.0790,88.0335,-42.0618,42.4758
9.0870,88.1992,-42.1918,42.5733
9.0950,88.3593,-42.3230,42.6678
9.1030,88.5148,-42.4552,42.7598
9.1110,88.6664,-42.5875,42.8499
9.1190,88.8143,-42.7188,42.9383
9.1270,88.9582,-42.8475,43.0252
9.1350,89.0977,-42.9723,43.1107
9.1430,89.2319,-43.0916,43.1943
9.1510,89.3601,-43.2043,43.2754
9.1590,89.4816,-43.3096,43.3534
9.1670,89.5962,-43.4073,43.4275
9.1750,89.7040,-43.4979,43.4974
9.1830,89.8054,-43.5825,43.5629
9.1910,89.9010,-43.6627,43.6242
9.1990,89.9918,-43.7406,43.6817
9.2070,90.0785,-43.8180,43.7358
9.2150,90.1617,-43.8965,43.7870
9.2230,90.2415,-43.9769,43.8354
9.2310,90.3178,-44.0591,43.8814
9.2390,90.3899,-44.1425,43.9250
9.2470,90.4573,-44.2258,43.9664
9.2550,90.5192,-44.3079,44.0056
9.2630,90.5751,-44.3877,44.0428
9.2710,90.6249,-44.4645,44.0781
9.2790,90.6685,-44.5379,44.1115
9.2870,90.7059,-44.6077,44.1428
9.2950,90.7375,-44.6740,44.1719
9.3030,90.7636,-44.7366,44.1986
9.3110,90.7843,-44.7951,44.2225
9.3190,90.7998,-44.8493,44.2435
9.3270,90.8103,-44.8987,44.2616
9.3350,90.8161,-44.9432,44.2768
9.3430,90.8172,-44.9829,44.2894
9.3510,90.8138,-45.0181,44.2995
9.3590,90.8060,-45.0496,44.3074
9.3670,90.7939,-45.0780,44.3131
9.3750,90.7775,-45.1042,44.3166
9.3830,90.7566,-45.1289,44.3180
9.3910,90.7308,-45.1526,44.3171
9.3990,90.6999,-45.1757,44.3139
9.4070,90.6632,-45.1980,44.3083
9.4150,90.6204,-45.2196,44.3002
9.4230,90.5713,-45.2402,44.2897
9.4310,90.5157,-45.2593,44.2765
9.4390,90.4541,-45.2766,44.2607
9.4470,90.3869,-45.2913,44.2420
9.4550,90.3147,-45.3030,44.2204
9.4630,90.2382,-45.3111,44.1957
9.4710,90.1581,-45.3151,44.1682
9.4790,90.0744,-45.3145,44.1377
9.4870,89.9872,-45.3089,44.1044
9.4950,89.8960,-45.2980,44.0681
9.5030,89.7999,-45.2817,44.0286
9.5110,89.6982,-45.2600,43.9856
9.5190,89.5899,-45.2331,43.9388
9.5270,89.4746,-45.2017,43.8882
9.5350,89.3522,-45.1665,43.8341
9.5430,89.2233,-45.1288,43.7770
9.5510,89.0885,-45.0897,43.7180
9.5590,88.9487,-45.0506,43.6582
9.5670,88.8046,-45.0123,43.5985
9.5750,88.6566,-44.9755,43.5397
9.5830,88.5048,-44.9401,43.4819
9.5910,88.3488,-44.9055,43.4248
9.5990,88.1882,-44.8705,43.3679
9.6070,88.0225,-44.8338,43.3104
9.6150,87.8511,-44.7936,43.2517
9.6230,87.6737,-44.7484,43.1913
9.6310,87.4902,-44.6968,43.1291
9.6390,87.3009,-44.6383,43.0652
9.6470,87.1062,-44.5727,42.9999
9.6550,86.9070,-44.5004,42.9336
9.6630,86.7041,-44.4227,42.8663
9.6710,86.4985,-44.3408,42.7981
9.6790,86.2905,-44.2565,42.7285
9.6870,86.0803,-44.1710,42.6570
9.6950,85.8671,-44.0855,42.5827
9.7030,85.6494,-44.0005,42.5048
9.7110,85.4251,-43.9161,42.4225
9.7190,85.1923,-43.8316,42.3352
9.7270,84.9494,-43.7463,42.2426
9.7350,84.6958,-43.6590,42.1450
9.7430,84.4322,-43.5687,42.0430
9.7510,84.1604,-43.4744,41.9374
9.7590,83.8830,-43.3751,41.8291
9.7670,83.6027,-43.2701,41.7190
9.7750,83.3217,-43.1590,41.6077
9.7830,83.0416,-43.0414,41.4954
9.7910,82.7623,-42.9174,41.3818
9.7990,82.4828,-42.7875,41.2665
9.8070,82.2007,-42.6523,41.1484
9.8150,81.9132,-42.5128,41.0267
9.8230,81.6173,-42.3701,40.9004
9.8310,81.3111,-42.2253,40.7690
9.8390,80.9935,-42.0797,40.6326
9.8470,80.6652,-41.9341,40.4923
9.8550,80.3282,-41.7890,40.3493
9.8630,79.9848,-41.6444,40.2057
9.8710,79.6375,-41.4996,40.0631
9.8790,79.2883,-41.3536,39.9228
9.8870,78.9379,-41.2047,39.7854
9.8950,78.5863,-41.0518,39.6503
9.9030,78.2325,-40.8936,39.5163
9.9110,77.8751,-40.7296,39.3816
9.9190,77.5126,-40.5599,39.2445
9.9270,77.1436,-40.3851,39.1032
9.9350,76.7677,-40.2060,38.9568
9.9430,76.3848,-40.0240,38.8053
9.9510,75.9958,-39.8402,38.6494
9.9590,75.6025,-39.6555,38.4906
9.9670,75.2069,-39.4707,38.3308
9.9750,74.8110,-39.2862,38.1718
9.9830,74.4161,-39.1018,38.0148
9.9910,74.0226,-38.9171,37.8600
9.9990,73.6292,-38.7311,37.7063
10.0070,73.2329,-38.5427,37.5522
10.0150,72.8300,-38.3503,37.3955
10.0220,72.4162,-38.1527,37.2343
10.0300,71.9882,-37.9491,37.0675
10.0380,71.5447,-37.7394,36.8950
10.0460,71.0864,-37.5240,36.7177
10.0540,70.6161,-37.3039,36.5372
10.0620,70.1379,-37.0800,36.3549
10.0700,69.6561,-36.8525,36.1715
10.0780,69.1741,-36.6209,35.9866
10.0860,68.6944,-36.3837,35.7982
10.0940,68.2175,-36.1387,35.6032
10.1020,67.7429,-35.8837,35.3978
10.1100,67.2690,-35.6165,35.1783
10.1180,66.7940,-35.3361,34.9418
10.1260,66.3161,-35.0425,34.6872
10.1340,65.8342,-34.7373,34.4152
10.1420,65.3482,-34.4233,34.1286
10.1500,64.8590,-34.1045,33.8324
10.1580,64.3685,-33.7855,33.5325
10.1660,63.8793,-33.4712,33.2355
10.1740,63.3938,-33.1658,32.9477
10.1820,62.9140,-32.8724,32.6738
10.1900,62.4407,-32.5922,32.4166
10.1980,61.9735,-32.3245,32.1765
10.2060,61.5105,-32.0663,31.9513
10.2140,61.0485,-31.8132,31.7366
10.2220,60.5841,-31.5601,31.5269
10.2300,60.1138,-31.3022,31.3165
10.2380,59.6354,-31.0363,31.1004
10.2460,59.1484,-30.7609,30.8755
10.2540,58.6543,-30.4769,30.6410
10.2620,58.1562,-30.1870,30.3978
10.2700,57.6584,-29.8944,30.1486
10.2780,57.1652,-29.6030,29.8967
10.2860,56.6800,-29.3156,29.6455
10.2940,56.2049,-29.0338,29.3974
10.3020,55.7398,-28.7580,29.1539
10.3100,55.2827,-28.4870,28.9152
10.3180,54.8299,-28.2186,28.6802
10.3260,54.3766,-27.9502,28.4475
10.3340,53.9184,-27.6790,28.2153
10.3420,53.4519,-27.4032,27.9827
10.3500,52.9758,-27.1221,27.7492
10.3580,52.4914,-26.8367,27.5158
10.3660,52.0017,-26.5488,27.2840
10.3740,51.5110,-26.2610,27.0555
10.3820,51.0231,-25.9757,26.8321
10.3900,50.5410,-25.6945,26.6146
10.3980,50.0659,-25.4177,26.4032
10.4060,49.5971,-25.1448,26.1968
10.4140,49.1327,-24.8745,25.9938
10.4220,48.6698,-24.6051,25.7921
10.4300,48.2059,-24.3355,25.5895
10.4380,47.7387,-24.0646,25.3842
10.4460,47.2675,-23.7922,25.1747
10.4540,46.7927,-23.5187,24.9604
10.4620,46.3157,-23.2448,24.7416
10.4700,45.8389,-22.9717,24.5193
10.4780,45.3648,-22.7006,24.2950
10.4860,44.8957,-22.4329,24.0704
10.4940,44.4330,-22.1697,23.8474
10.5020,43.9772,-21.9116,23.6270
10.5100,43.5270,-21.6582,23.4096
10.5180,43.0798,-21.4082,23.1948
10.5260,42.6318,-21.1594,22.9809
10.5340,42.1790,-20.9091,22.7661
10.5420,41.7178,-20.6546,22.5479
10.5500,41.2466,-20.3943,22.3248
10.5580,40.7658,-20.1277,22.0963
10.5660,40.2780,-19.8561,21.8631
10.5740,39.7876,-19.5817,21.6274
10.5820,39.2996,-19.3073,21.3922
10.5900,38.8184,-19.0357,21.1609
10.5980,38.3470,-18.7692,20.9363
10.6060,37.8865,-18.5090,20.7201
10.6140,37.4357,-18.2555,20.5125
10.6220,36.9915,-18.0077,20.3119
10.6300,36.5493,-17.7638,20.1157
10.6380,36.1045,-17.5215,19.9205
10.6460,35.6528,-17.2782,19.7228
10.6540,35.1919,-17.0321,19.5205
10.6620,34.7217,-16.7823,19.3127
10.6700,34.2441,-16.5291,19.1001
10.6780,33.7626,-16.2735,18.8848
10.6860,33.2809,-16.0174,18.6697
10.6940,32.8025,-15.7624,18.4576
10.7020,32.3292,-15.5097,18.2507
10.7100,31.8617,-15.2597,18.0500
10.7180,31.3992,-15.0122,17.8551
10.7260,30.9401,-14.7662,17.6647
10.7340,30.4826,-14.5207,17.4763
10.7420,30.0247,-14.2748,17.2875
10.7500,29.5653,-14.0278,17.0962
10.7580,29.1037,-13.7796,16.9008
10.7660,28.6402,-13.5308,16.7011
10.7740,28.1756,-13.2821,16.4976
10.7820,27.7117,-13.0351,16.2917
10.7900,27.2504,-12.7908,16.0850
10.7980,26.7934,-12.5503,15.8792
10.8060,26.3419,-12.3141,15.6753
10.8140,25.8962,-12.0819,15.4737
10.8220,25.4549,-11.8523,15.2742
10.8300,25.0155,-11.6232,15.0753
10.8380,24.5743,-11.3922,14.8755
10.8460,24.1276,-11.1569,14.6733
10.8540,23.6728,-10.9162,14.4675
10.8620,23.2087,-10.6699,14.2585
10.8700,22.7363,-10.4197,14.0475
10.8780,22.2585,-10.1679,13.8370
10.8860,21.7792,-9.9178,13.6296
10.8940,21.3023,-9.6717,13.4277
10.9020,20.8311,-9.4314,13.2324
10.9100,20.3674,-9.1969,13.0430
10.9180,19.9116,-8.9665,12.8570
10.9260,19.4624,-8.7375,12.6700
10.9340,19.0177,-8.5060,12.4769
10.9420,18.5749,-8.2683,12.2726
10.9500,18.1318,-8.0214,12.0533
10.9580,17.6872,-7.7639,11.8174
10.9660,17.2414,-7.4965,11.5658
10.9740,16.7961,-7.2221,11.3018
10.9820,16.3542,-6.9451,11.0307
10.9900,15.9190,-6.6705,10.7580
10.9980,15.4931,-6.4033,10.4894
11.0060,15.0786,-6.1472,10.2291
11.0140,14.6757,-5.9042,9.9795
11.0220,14.2837,-5.6745,9.7417
11.0300,13.9003,-5.4566,9.5149
11.0380,13.5231,-5.2480,9.2975
11.0460,13.1494,-5.0455,9.0868
11.0540,12.7771,-4.8461,8.8802
11.0620,12.4052,-4.6471,8.6751
11.0700,12.0340,-4.4470,8.4692
11.0770,11.6645,-4.2451,8.2611
11.0850,11.2989,-4.0417,8.0502
11.0930,10.9395,-3.8383,7.8370
11.1010,10.5887,-3.6366,7.6232
11.1090,10.2479,-3.4388,7.4109
11.1170,9.9177,-3.2465,7.2028
11.1250,9.5975,-3.0607,7.0010
11.1330,9.2855,-2.8814,6.8068
11.1410,8.9791,-2.7078,6.6200
11.1490,8.6755,-2.5382,6.4393
11.1570,8.3721,-2.3711,6.2621
11.1650,8.0676,-2.2051,6.0856
11.1730,7.7619,-2.0396,5.9073
11.1810,7.4562,-1.8749,5.7257
11.1890,7.1528,-1.7117,5.5402
11.1970,6.8542,-1.5510,5.3513
11.2050,6.5625,-1.3938,5.1603
11.2130,6.2790,-1.2402,4.9687
11.2210,6.0042,-1.0901,4.7779
11.2290,5.7377,-0.9428,4.5890
11.2370,5.4786,-0.7977,4.4027
11.2450,5.2258,-0.6543,4.2193
11.2530,4.9781,-0.5127,4.0388
11.2610,4.7348,-0.3733,3.8612
11.2690,4.4956,-0.2371,3.6863
11.2770,4.2605,-0.1053,3.5140
11.2850,4.0298,0.0213,3.3440
11.2930,3.8043,0.1416,3.1766
11.3010,3.5848,0.2554,3.0123
11.3090,3.3721,0.3627,2.8523
11.3170,3.1665,0.4640,2.6979
11.3250,2.9681,0.5601,2.5505
11.3330,2.7763,0.6523,2.4107
11.3410,2.5899,0.7421,2.2782
11.3490,2.4074,0.8311,2.1513
11.3570,2.2274,0.9206,2.0275
11.3650,2.0489,1.0115,1.9037
11.3730,1.8717,1.1041,1.7777
11.3810,1.6964,1.1978,1.6481
11.3890,1.5243,1.2914,1.5152
11.3970,1.3572,1.3832,1.3807
11.4050,1.1968,1.4711,1.2469
11.4130,1.0442,1.5535,1.1168
11.4210,0.9000,1.6290,0.9925
11.4290,0.7642,1.6971,0.8753
11.4370,0.6358,1.7583,0.7649
11.4450,0.5138,1.8138,0.6602
11.4530,0.3966,1.8652,0.5590
11.4610,0.2830,1.9145,0.4587
11.4690,0.1722,1.9634,0.3573
11.4770,0.0640,2.0131,0.2536
11.4850,-0.0412,2.0640,0.1475
11.4930,-0.1426,2.1156,0.0400
11.5010,-0.2390,2.1671,-0.0669
11.5090,-0.3294,2.2172,-0.1710
11.5170,-0.4134,2.2644,-0.2704
11.5250,-0.4906,2.3076,-0.3637
11.5330,-0.5612,2.3460,-0.4501
11.5410,-0.6257,2.3794,-0.5298
11.5490,-0.6847,2.4080,-0.6037
11.5570,-0.7387,2.4321,-0.6732
11.5650,-0.7879,2.4526,-0.7396
11.5730,-0.8327,2.4701,-0.8042
11.5810,-0.8728,2.4854,-0.8682
11.5890,-0.9081,2.4988,-0.9322
11.5970,-0.9385,2.5107,-0.9964
11.6050,-0.9637,2.5213,-1.0608
11.6130,-0.9836,2.5304,-1.1248
11.6210,-0.9982,2.5380,-1.1876
11.6290,-1.0076,2.5436,-1.2483
11.6370,-1.0118,2.5469,-1.3059
11.6450,-1.0109,2.5474,-1.3594
11.6530,-1.0049,2.5446,-1.4085
11.6610,-0.9937,2.5379,-1.4528
11.6690,-0.9773,2.5270,-1.4925
11.6770,-0.9556,2.5120,-1.5283
11.6850,-0.9286,2.4930,-1.5608
11.6930,-0.8964,2.4708,-1.5909
11.7010,-0.8591,2.4460,-1.6194
11.7090,-0.8171,2.4195,-1.6470
11.7170,-0.7705,2.3919,-1.6739
11.7250,-0.7196,2.3636,-1.7003
11.7330,-0.6642,2.3346,-1.7259
11.7410,-0.6043,2.3044,-1.7503
11.7490,-0.5395,2.2725,-1.7728
11.7570,-0.4693,2.2382,-1.7928
11.7650,-0.3933,2.2010,-1.8095
11.7730,-0.3110,2.1604,-1.8226
11.7810,-0.2224,2.1164,-1.8318
11.7890,-0.1275,2.0690,-1.8372
11.7970,-0.0266,2.0188,-1.8390
11.8050,0.0795,1.9661,-1.8375
11.8130,0.1904,1.9112,-1.8331
11.8210,0.3055,1.8545,-1.8258
11.8290,0.4246,1.7959,-1.8156
11.8370,0.5477,1.7352,-1.8023
11.8450,0.6750,1.6723,-1.7856
11.8530,0.8072,1.6069,-1.7655
11.8610,0.9447,1.5390,-1.7421
11.8690,1.0883,1.4685,-1.7159
11.8770,1.2382,1.3955,-1.6872
11.8850,1.3945,1.3199,-1.6569
11.8930,1.5569,1.2419,-1.6257
11.9010,1.7248,1.1614,-1.5941
11.9090,1.8971,1.0787,-1.5624
11.9170,2.0731,0.9938,-1.5305
11.9250,2.2519,0.9071,-1.4979
11.9330,2.4330,0.8187,-1.4638
11.9410,2.6167,0.7289,-1.4276
11.9490,2.8036,0.6375,-1.3886
11.9570,2.9951,0.5443,-1.3465
11.9650,3.1930,0.4489,-1.3014
11.9730,3.3987,0.3507,-1.2535
11.9810,3.6135,0.2491,-1.2030
11.9890,3.8378,0.1439,-1.1496
11.9970,4.0707,0.0351,-1.0924
12.0050,4.3110,-0.0771,-1.0304
12.0130,4.5570,-0.1919,-0.9622
12.0210,4.8068,-0.3089,-0.8870
12.0290,5.0593,-0.4273,-0.8044
12.0370,5.3140,-0.5467,-0.7149
12.0450,5.5711,-0.6671,-0.6200
12.0530,5.8310,-0.7885,-0.5214
12.0610,6.0949,-0.9114,-0.4209
12.0690,6.3637,-1.0364,-0.3201
12.0770,6.6382,-1.1640,-0.2199
12.0850,6.9190,-1.2947,-0.1204
12.0930,7.2062,-1.4287,-0.0213
12.1010,7.4992,-1.5660,0.0783
12.1090,7.7972,-1.7061,0.1799
12.1170,8.0989,-1.8482,0.2845
12.1250,8.4031,-1.9914,0.3935
12.1320,8.7086,-2.1348,0.5076
12.1400,9.0150,-2.2781,0.6273
12.1480,9.3228,-2.4212,0.7527
12.1560,9.6336,-2.5648,0.8838
12.1640,9.9499,-2.7102,1.0203
12.1720,10.2746,-2.8588,1.1619
12.1800,10.6102,-3.0121,1.3082
12.1880,10.9580,-3.1711,1.4586
12.1960,11.3179,-3.3358,1.6121
12.2040,11.6878,-3.5052,1.7672
12.2120,12.0646,-3.6775,1.9221
12.2200,12.4445,-3.8504,2.0747
12.2280,12.8240,-4.0215,2.2232
12.2360,13.2008,-4.1890,2.3666
12.2440,13.5739,-4.3522,2.5051
12.2520,13.9443,-4.5117,2.6408
12.2600,14.3147,-4.6695,2.7768
12.2680,14.6890,-4.8286,2.9174
12.2760,15.0717,-4.9925,3.0670
12.2840,15.4667,-5.1643,3.2291
12.2920,15.8764,-5.3456,3.4053
12.3000,16.3012,-5.5366,3.5948
12.3080,16.7389,-5.7357,3.7945
12.3160,17.1856,-5.9395,3.9997
12.3240,17.6360,-6.1445,4.2048
12.3320,18.0849,-6.3470,4.4048
12.3400,18.5277,-6.5446,4.5966
12.3480,18.9619,-6.7367,4.7795
12.3560,19.3875,-6.9249,4.9560
12.3640,19.8070,-7.1126,5.1316
12.3720,20.2258,-7.3047,5.3143
12.3800,20.6506,-7.5065,5.5126
12.3880,21.0878,-7.7226,5.7339
12.3960,21.5424,-7.9552,5.9829
12.4040,22.0154,-8.2037,6.2601
12.4120,22.5039,-8.4644,6.5610
12.4200,23.0013,-8.7312,6.8777
12.4280,23.4991,-8.9968,7.1998
12.4360,23.9890,-9.2545,7.5171
12.4440,24.4652,-9.4997,7.8211
12.4520,24.9254,-9.7303,8.1064
12.4600,25.3715,-9.9474,8.3716
12.4680,25.8084,-10.1542,8.6188
12.4760,26.2432,-10.3556,8.8528
12.4840,26.6828,-10.5566,9.0796
12.4920,27.1323,-10.7613,9.3050
12.5000,27.5941,-10.9721,9.5336
12.5080,28.0671,-11.1895,9.7676
12.5160,28.5477,-11.4121,10.0073
12.5240,29.0306,-11.6374,10.2515
12.5320,29.5106,-11.8625,10.4986
12.5400,29.9834,-12.0851,10.7470
12.5480,30.4465,-12.3037,10.9964
12.5560,30.8997,-12.5179,11.2472
12.5640,31.3446,-12.7285,11.5006
12.5720,31.7843,-12.9373,11.7581
12.5800,32.2221,-13.1461,12.0210
12.5880,32.6613,-13.3564,12.2893
12.5960,33.1038,-13.5692,12.5624
12.6040,33.5500,-13.7845,12.8384
12.6120,33.9989,-14.0012,13.1148
12.6200,34.4488,-14.2181,13.3890
12.6280,34.8982,-14.4340,13.6590
12.6360,35.3460,-14.6480,13.9234
12.6440,35.7921,-14.8601,14.1817
12.6520,36.2373,-15.0709,14.4342
12.6600,36.6831,-15.2813,14.6815
12.6680,37.1307,-15.4922,14.9249
12.6760,37.5817,-15.7045,15.1659
12.6840,38.0371,-15.9187,15.4063
12.6920,38.4975,-16.1348,15.6481
12.7000,38.9629,-16.3528,15.8927
12.7080,39.4326,-16.5723,16.1411
12.7160,39.9052,-16.7925,16.3933
12.7240,40.3788,-17.0125,16.6481
12.7320,40.8509,-17.2314,16.9036
12.7400,41.3194,-17.4481,17.1575
12.7480,41.7825,-17.6617,17.4080
12.7560,42.2395,-17.8716,17.6537
12.7640,42.6908,-18.0783,17.8946
12.7720,43.1384,-18.2827,18.1323
12.7800,43.5853,-18.4866,18.3691
12.7880,44.0354,-18.6924,18.6077
12.7960,44.4922,-18.9021,18.8506
12.8040,44.9582,-19.1172,19.0988
12.8120,45.4339,-19.3378,19.3520
12.8200,45.9179,-19.5632,19.6086
12.8280,46.4073,-19.7915,19.8659
12.8360,46.8983,-20.0207,20.1216
12.8440,47.3877,-20.2488,20.3736
12.8520,47.8729,-20.4745,20.6211
12.8600,48.3531,-20.6971,20.8639
12.8680,48.8284,-20.9163,21.1026
12.8760,49.3000,-21.1325,21.3377
12.8840,49.7696,-21.3459,21.5699
12.8920,50.2389,-21.5570,21.7996
12.9000,50.7091,-21.7662,22.0270
12.9080,51.1811,-21.9739,22.2524
12.9160,51.6549,-22.1807,22.4760
12.9240,52.1297,-22.3870,22.6983
12.9320,52.6042,-22.5935,22.9197
12.9400,53.0768,-22.8002,23.1404
12.9480,53.5457,-23.0072,23.3607
12.9560,54.0097,-23.2140,23.5811
12.9640,54.4684,-23.4204,23.8020
12.9720,54.9231,-23.6262,24.0243
12.9800,55.3761,-23.8318,24.2491
12.9880,55.8310,-24.0383,24.4775
12.9960,56.2918,-24.2470,24.7106
13.0040,56.7616,-24.4592,24.9483
13.0120,57.2420,-24.6757,25.1897
13.0200,57.7321,-24.8964,25.4328
13.0280,58.2290,-25.1205,25.6747
13.0360,58.7282,-25.3462,25.9125
13.0440,59.2249,-25.5716,26.1437
13.0520,59.7148,-25.7948,26.3670
13.0600,60.1952,-26.0146,26.5825
13.0680,60.6655,-26.2306,26.7916
13.0760,61.1273,-26.4435,26.9970
13.0840,61.5842,-26.6547,27.2022
13.0920,62.0408,-26.8665,27.4109
13.1000,62.5019,-27.0811,27.6264
13.1080,62.9714,-27.3005,27.8507
13.1160,63.4513,-27.5257,28.0843
13.1240,63.9411,-27.7564,28.3260
13.1320,64.4384,-27.9913,28.5733
13.1400,64.9395,-28.2285,28.8229
13.1480,65.4405,-28.4656,29.0717
13.1560,65.9383,-28.7006,29.3177
13.1640,66.4311,-28.9326,29.5601
13.1720,66.9186,-29.1614,29.7997
13.1800,67.4014,-29.3885,30.0390
13.1870,67.8809,-29.6163,30.2812
13.1950,68.3586,-29.8477,30.5299
13.2030,68.8355,-30.0859,30.7885
13.2110,69.3117,-30.3335,31.0592
13.2190,69.7867,-30.5919,31.3430
13.2270,70.2592,-30.8609,31.6391
13.2350,70.7271,-31.1389,31.9449
13.2430,71.1882,-31.4226,32.2564
13.2510,71.6400,-31.7082,32.5683
13.2590,72.0807,-31.9912,32.8752
13.2670,72.5096,-32.2677,33.1720
13.2750,72.9268,-32.5349,33.4547
13.2830,73.3343,-32.7913,33.7213
13.2910,73.7351,-33.0369,33.9720
13.2990,74.1331,-33.2731,34.2087
13.3070,74.5318,-33.5022,34.4352
13.3150,74.9339,-33.7270,34.6556
13.3230,75.3401,-33.9497,34.8741
13.3310,75.7490,-34.1721,35.0934
13.3390,76.1576,-34.3949,35.3153
13.3470,76.5617,-34.6182,35.5397
13.3550,76.9573,-34.8413,35.7653
13.3630,77.3412,-35.0630,35.9902
13.3710,77.7117,-35.2824,36.2122
13.3790,78.0689,-35.4985,36.4297
13.3870,78.4147,-35.7108,36.6418
13.3950,78.7523,-35.9197,36.8485
13.4030,79.0852,-36.1260,37.0508
13.4110,79.4171,-36.3310,37.2502
13.4190,79.7503,-36.5359,37.4479
13.4270,80.0858,-36.7416,37.6449
13.4350,80.4226,-36.9487,37.8409
13.4430,80.7587,-37.1565,38.0354
13.4510,81.0913,-37.3641,38.2273
13.4590,81.4178,-37.5700,38.4155
13.4670,81.7362,-37.7728,38.5995
13.4750,82.0457,-37.9710,38.7791
13.4830,82.3465,-38.1636,38.9549
13.4910,82.6392,-38.3502,39.1273
13.4990,82.9251,-38.5307,39.2971
13.5070,83.2053,-38.7060,39.4647
13.5150,83.4807,-38.8774,39.6302
13.5230,83.7521,-39.0463,39.7932
13.5310,84.0195,-39.2144,39.9530
13.5390,84.2827,-39.3827,40.1088
13.5470,84.5413,-39.5519,40.2596
13.5550,84.7943,-39.7218,40.4049
13.5630,85.0410,-39.8915,40.5442
13.5710,85.2808,-40.0597,40.6778
13.5790,85.5133,-40.2249,40.8063
13.5870,85.7388,-40.3859,40.9307
13.5950,85.9582,-40.5419,41.0525
13.6030,86.1727,-40.6926,41.1732
13.6110,86.3840,-40.8384,41.2941
13.6190,86.5932,-40.9802,41.4159
13.6270,86.8012,-41.1188,41.5386
13.6350,87.0076,-41.2551,41.6614
13.6430,87.2116,-41.3897,41.7831
13.6510,87.4116,-41.5234,41.9020
13.6590,87.6060,-41.6565,42.0168
13.6670,87.7934,-41.7895,42.1267
13.6750,87.9732,-41.9228,42.2315
13.6830,88.1451,-42.0565,42.3315
13.6910,88.3096,-42.1903,42.4279
13.6990,88.4674,-42.3236,42.5215
13.7070,88.6195,-42.4556,42.6135
13.7150,88.7668,-42.5851,42.7048
13.7230,88.9099,-42.7112,42.7957
13.7310,89.0490,-42.8329,42.8863
13.7390,89.1842,-42.9497,42.9759
13.7470,89.3148,-43.0613,43.0637
13.7550,89.4404,-43.1676,43.1485
13.7630,89.5602,-43.2686,43.2289
13.7710,89.6738,-43.3647,43.3040
13.7790,89.7809,-43.4561,43.3731
13.7870,89.8816,-43.5433,43.4361
13.7950,89.9761,-43.6273,43.4936
13.8030,90.0650,-43.7091,43.5467
13.8110,90.1490,-43.7898,43.5968
13.8190,90.2285,-43.8706,43.6452
13.8270,90.3040,-43.9521,43.6931
13.8350,90.3755,-44.0343,43.7408
13.8430,90.4429,-44.1169,43.7881
13.8510,90.5057,-44.1989,43.8343
13.8590,90.5634,-44.2791,43.8785
13.8670,90.6156,-44.3565,43.9198
13.8750,90.6620,-44.4304,43.9575
13.8830,90.7023,-44.5005,43.9912
13.8910,90.7366,-44.5667,44.0212
13.8990,90.7649,-44.6291,44.0475
13.9070,90.7877,-44.6880,44.0708
13.9150,90.8051,-44.7435,44.0914
13.9230,90.8175,-44.7955,44.1096
13.9310,90.8252,-44.8441,44.1257
13.9390,90.8283,-44.8891,44.1396
13.9470,90.8269,-44.9302,44.1512
13.9550,90.8210,-44.9673,44.1604
13.9630,90.8105,-45.0006,44.1670
13.9710,90.7953,-45.0305,44.1710
13.9790,90.7752,-45.0574,44.1726
13.9870,90.7501,-45.0822,44.1719
13.9950,90.7199,-45.1055,44.1694
14.0030,90.6844,-45.1279,44.1654
14.0110,90.6436,-45.1497,44.1601
14.0190,90.5974,-45.1711,44.1538
14.0270,90.5455,-45.1919,44.1462
14.0350,90.4879,-45.2115,44.1371
14.0430,90.4246,-45.2294,44.1262
14.0510,90.3558,-45.2448,44.1127
14.0590,90.2818,-45.2570,44.0963
14.0670,90.2029,-45.2654,44.0763
14.0750,90.1197,-45.2691,44.0524
14.0830,90.0326,-45.2677,44.0246
14.0910,89.9418,-45.2607,43.9929
14.0990,89.8472,-45.2482,43.9576
14.1070,89.7484,-45.2301,43.9191
14.1150,89.6444,-45.2069,43.8777
14.1230,89.5344,-45.1790,43.8337
14.1310,89.4174,-45.1474,43.7873
14.1390,89.2931,-45.1130,43.7384
14.1470,89.1614,-45.0768,43.6872
14.1550,89.0231,-45.0401,43.6337
14.1630,88.8792,-45.0038,43.5782
14.1710,88.7310,-44.9687,43.5213
14.1790,88.5798,-44.9351,43.4637
14.1870,88.4263,-44.9028,43.4058
14.1950,88.2707,-44.8708,43.3484
14.2030,88.1125,-44.8377,43.2913
14.2110,87.9507,-44.8014,43.2342
14.2190,87.7836,-44.7598,43.1763
14.2270,87.6094,-44.7110,43.1163
14.2350,87.4269,-44.6537,43.0531
14.2420,87.2352,-44.5874,42.9856
14.2500,87.0345,-44.5126,42.9135
14.2580,86.8261,-44.4305,42.8368
14.2660,86.6116,-44.3433,42.7562
14.2740,86.3930,-44.2531,42.6728
14.2820,86.1720,-44.1622,42.5875
14.2900,85.9496,-44.0726,42.5013
14.2980,85.7262,-43.9854,42.4147
14.3060,85.5010,-43.9011,42.3275
14.3140,85.2727,-43.8192,42.2390
14.3220,85.0392,-43.7384,42.1481
14.3300,84.7985,-43.6567,42.0537
14.3380,84.5489,-43.5718,41.9546
14.3460,84.2896,-43.4815,41.8501
14.3540,84.0210,-43.3842,41.7406
14.3620,83.7445,-43.2788,41.6269
14.3700,83.4623,-43.1654,41.5107
14.3780,83.1770,-43.0447,41.3937
14.3860,82.8908,-42.9182,41.2778
14.3940,82.6050,-42.7877,41.1639
14.4020,82.3197,-42.6550,41.0522
14.4100,82.0336,-42.5216,40.9418
14.4180,81.7442,-42.3882,40.8308
14.4260,81.4484,-42.2551,40.7167
14.4340,81.1432,-42.1217,40.5974
14.4420,80.8266,-41.9873,40.4715
14.4500,80.4982,-41.8510,40.3389
14.4580,80.1591,-41.7122,40.2011
14.4660,79.8118,-41.5704,40.0609
14.4740,79.4597,-41.4255,39.9216
14.4820,79.1057,-41.2778,39.7859
14.4900,78.7524,-41.1272,39.6557
14.4980,78.4006,-40.9740,39.5311
14.5060,78.0501,-40.8178,39.4104
14.5140,77.6989,-40.6580,39.2904
14.5220,77.3444,-40.4937,39.1673
14.5300,76.9834,-40.3238,39.0370
14.5380,76.6130,-40.1473,38.8968
14.5460,76.2315,-39.9634,38.7455
14.5540,75.8386,-39.7726,38.5842
14.5620,75.4357,-39.5760,38.4158
14.5700,75.0254,-39.3754,38.2443
14.5780,74.6110,-39.1733,38.0737
14.5860,74.1955,-38.9720,37.9074
14.5940,73.7811,-38.7730,37.7469
14.6020,73.3684,-38.5769,37.5919
14.6100,72.9567,-38.3833,37.4409
14.6180,72.5435,-38.1903,37.2911
14.6260,72.1256,-37.9956,37.1396
14.6340,71.6995,-37.7964,36.9839
14.6420,71.2624,-37.5905,36.8226
14.6500,70.8128,-37.3766,36.6552
14.6580,70.3511,-37.1543,36.4823
14.6660,69.8793,-36.9243,36.3044
14.6740,69.4007,-36.6879,36.1222
14.6820,68.9193,-36.4460,35.9352
14.6900,68.4387,-36.1995,35.7420
14.6980,67.9614,-35.9481,35.5403
14.7060,67.4889,-35.6909,35.3270
14.7140,67.0206,-35.4263,35.0992
14.7220,66.5546,-35.1526,34.8546
14.7300,66.0878,-34.8686,34.5926
14.7380,65.6169,-34.5739,34.3142
14.7460,65.1394,-34.2698,34.0229
14.7540,64.6542,-33.9593,33.7242
14.7620,64.1621,-33.6468,33.4254
14.7700,63.6656,-33.3374,33.1335
14.7780,63.1681,-33.0356,32.8550
14.7860,62.6729,-32.7447,32.5939
14.7940,62.1821,-32.4658,32.3513
14.8020,61.6967,-32.1974,32.1253
14.8100,61.2164,-31.9365,31.9115
14.8180,60.7395,-31.6791,31.7040
14.8260,60.2641,-31.4209,31.4963
14.8340,59.7882,-31.1585,31.2826
14.8420,59.3103,-30.8897,31.0582
14.8500,58.8298,-30.6136,30.8207
14.8580,58.3467,-30.3304,30.5696
14.8660,57.8622,-30.0418,30.3070
14.8740,57.3780,-29.7499,30.0366
14.8820,56.8961,-29.4574,29.7638
14.8900,56.4189,-29.1671,29.4944
14.8980,55.9480,-28.8816,29.2341
14.9060,55.4844,-28.6026,28.9871
14.9140,55.0275,-28.3310,28.7555
14.9220,54.5753,-28.0658,28.5390
14.9300,54.1242,-27.8050,28.3348
14.9380,53.6700,-27.5454,28.1385
14.9460,53.2089,-27.2837,27.9448
14.9540,52.7381,-27.0172,27.7489
14.9620,52.2573,-26.7444,27.5473
14.9700,51.7684,-26.4656,27.3385
14.9780,51.2751,-26.1825,27.1229
14.9860,50.7823,-25.8977,26.9019
14.9940,50.2947,-25.6140,26.6778
15.0020,49.8160,-25.3340,26.4528
15.0100,49.3477,-25.0591,26.2283
15.0180,48.8896,-24.7899,26.0051
15.0260,48.4389,-24.5257,25.7834
15.0340,47.9917,-24.2650,25.5628
15.0420,47.5432,-24.0059,25.3425
15.0500,47.0889,-23.7461,25.1222
15.0580,46.6261,-23.4842,24.9015
15.0660,46.1539,-23.2196,24.6808
15.0740,45.6737,-22.9526,24.4609
15.0820,45.1884,-22.6845,24.2429
15.0900,44.7019,-22.4172,24.0278
15.0980,44.2174,-22.1523,23.8161
15.1060,43.7372,-21.8909,23.6074
15.1140,43.2623,-21.6331,23.4010
15.1220,42.7921,-21.3784,23.1956
15.1300,42.3253,-21.1256,22.9899
15.1380,41.8602,-20.8732,22.7830
15.1460,41.3951,-20.6199,22.5742
15.1540,40.9287,-20.3647,22.3636
15.1620,40.4604,-20.1072,22.1512
15.1700,39.9903,-19.8475,21.9371
15.1780,39.5193,-19.5863,21.7211
15.1860,39.0489,-19.3245,21.5030
15.1940,38.5808,-19.0633,21.2826
15.2020,38.1169,-18.8039,21.0597
15.2100,37.6586,-18.5474,20.8351
15.2180,37.2062,-18.2940,20.6098
15.2260,36.7589,-18.0437,20.3855
15.2340,36.3143,-17.7953,20.1637
15.2420,35.8691,-17.5469,19.9455
15.2500,35.4194,-17.2964,19.7314
15.2580,34.9624,-17.0419,19.5212
15.2660,34.4963,-16.7826,19.3140
15.2740,34.0219,-16.5188,19.1091
15.2820,33.5418,-16.2521,18.9058
15.2890,33.0596,-15.9853,18.7039
15.2970,32.5798,-15.7214,18.5037
15.3050,32.1058,-15.4631,18.3057
15.3130,31.6399,-15.2120,18.1105
15.3210,31.1823,-14.9686,17.9181
15.3290,30.7317,-14.7318,17.7277
15.3370,30.2854,-14.4994,17.5379
15.3450,29.8397,-14.2684,17.3468
15.3530,29.3911,-14.0356,17.1522
15.3610,28.9367,-13.7984,16.9523
15.3690,28.4754,-13.5555,16.7463
15.3770,28.0075,-13.3067,16.5345
15.3850,27.5350,-13.0534,16.3180
15.3930,27.0610,-12.7979,16.0988
15.4010,26.5886,-12.5425,15.8786
15.4090,26.1205,-12.2893,15.6590
15.4170,25.6579,-12.0394,15.4412
15.4250,25.2011,-11.7931,15.2260
15.4330,24.7488,-11.5498,15.0141
15.4410,24.2988,-11.3086,14.8061
15.4490,23.8485,-11.0687,14.6029
15.4570,23.3956,-10.8293,14.4055
15.4650,22.9382,-10.5903,14.2145
15.4730,22.4758,-10.3518,14.0302
15.4810,22.0091,-10.1142,13.8527
15.4890,21.5399,-9.8774,13.6812
15.4970,21.0706,-9.6416,13.5143
15.5050,20.6039,-9.4061,13.3501
15.5130,20.1423,-9.1700,13.1859
15.5210,19.6873,-8.9319,13.0183
15.5290,19.2394,-8.6900,12.8428
15.5370,18.7976,-8.4425,12.6551
15.5450,18.3602,-8.1881,12.4508
15.5530,17.9245,-7.9259,12.2270
15.5610,17.4884,-7.6566,11.9828
15.5690,17.0504,-7.3822,11.7199
15.5770,16.6111,-7.1061,11.4429
15.5850,16.1721,-6.8327,11.1585
15.5930,15.7365,-6.5667,10.8743
15.6010,15.3076,-6.3117,10.5971
15.6090,14.8877,-6.0700,10.3320
15.6170,14.4784,-5.8420,10.0817
15.6250,14.0797,-5.6261,9.8459
15.6330,13.6905,-5.4193,9.6222
15.6410,13.3091,-5.2180,9.4069
15.6490,12.9337,-5.0186,9.1959
15.6570,12.5627,-4.8182,8.9855
15.6650,12.1950,-4.6148,8.7731
15.6730,11.8305,-4.4077,8.5574
15.6810,11.4695,-4.1976,8.3385
15.6890,11.1127,-3.9861,8.1176
15.6970,10.7612,-3.7752,7.8966
15.7050,10.4163,-3.5673,7.6775
15.7130,10.0789,-3.3646,7.4622
15.7210,9.7497,-3.1683,7.2521
15.7290,9.4286,-2.9793,7.0475
15.7370,9.1149,-2.7972,6.8483
15.7450,8.8073,-2.6214,6.6535
15.7530,8.5040,-2.4506,6.4616
15.7610,8.2030,-2.2835,6.2709
15.7690,7.9028,-2.1193,6.0797
15.7770,7.6028,-1.9573,5.8869
15.7850,7.3035,-1.7976,5.6920
15.7930,7.0062,-1.6405,5.4957
15.8010,6.7130,-1.4864,5.2990
15.8090,6.4262,-1.3359,5.1040
15.8170,6.1480,-1.1892,4.9127
15.8250,5.8794,-1.0463,4.7268
15.8330,5.6208,-0.9068,4.5473
15.8410,5.3714,-0.7700,4.3739
15.8490,5.1297,-0.6353,4.2055
15.8570,4.8933,-0.5019,4.0401
15.8650,4.6600,-0.3695,3.8754
15.8730,4.4280,-0.2380,3.7093
15.8810,4.1963,-0.1077,3.5410
15.8890,3.9652,0.0204,3.3706
15.8970,3.7359,0.1455,3.1994
15.9050,3.5100,0.2664,3.0297
15.9130,3.2894,0.3827,2.8642
15.9210,3.0756,0.4940,2.7053
15.9290,2.8692,0.6007,2.5544
15.9370,2.6703,0.7032,2.4121
15.9450,2.4784,0.8025,2.2775
15.9530,2.2927,0.8992,2.1487
15.9610,2.1126,0.9942,2.0232
15.9690,1.9372,1.0879,1.8984
15.9770,1.7664,1.1802,1.7721
15.9850,1.6001,1.2711,1.6431
15.9930,1.4384,1.3597,1.5113
16.0010,1.2819,1.4453,1.3773
16.0090,1.1309,1.5267,1.2428
16.0170,0.9861,1.6032,1.1097
16.0250,0.8476,1.6740,0.9799
16.0330,0.7156,1.7390,0.8547
16.0410,0.5898,1.7987,0.7348
16.0490,0.4697,1.8540,0.6198
16.0570,0.3546,1.9064,0.5086
16.0650,0.2437,1.9573,0.3997
16.0730,0.1362,2.0082,0.2916
16.0810,0.0318,2.0599,0.1831
16.0890,-0.0694,2.1127,0.0739
16.0970,-0.1668,2.1660,-0.0355
16.1050,-0.2596,2.2188,-0.1436
16.1130,-0.3469,2.2698,-0.2487
16.1210,-0.4278,2.3174,-0.3489
16.1290,-0.5019,2.3605,-0.4430
16.1370,-0.5693,2.3983,-0.5302
16.1450,-0.6301,2.4304,-0.6105
16.1530,-0.6849,2.4572,-0.6848
16.1610,-0.7345,2.4791,-0.7544
16.1690,-0.7794,2.4970,-0.8206
16.1770,-0.8201,2.5117,-0.8851
16.1850,-0.8568,2.5240,-0.9490
16.1930,-0.8896,2.5344,-1.0130
16.2010,-0.9180,2.5434,-1.0774
16.2090,-0.9417,2.5513,-1.1422
16.2170,-0.9604,2.5581,-1.2069
16.2250,-0.9736,2.5636,-1.2708
16.2330,-0.9813,2.5674,-1.3330
16.2410,-0.9834,2.5692,-1.3925
16.2490,-0.9800,2.5683,-1.4485
16.2570,-0.9711,2.5641,-1.5003
16.2650,-0.9568,2.5563,-1.5475
16.2730,-0.9373,2.5447,-1.5902
16.2810,-0.9125,2.5293,-1.6288
16.2890,-0.8825,2.5105,-1.6641
16.2970,-0.8474,2.4889,-1.6968
16.3050,-0.8072,2.4651,-1.7273
16.3130,-0.7622,2.4396,-1.7561
16.3210,-0.7126,2.4127,-1.7830
16.3290,-0.6588,2.3845,-1.8077
16.3370,-0.6009,2.3547,-1.8295
16.3440,-0.5388,2.3232,-1.8481
16.3520,-0.4724,2.2896,-1.8630
16.3600,-0.4011,2.2533,-1.8743
16.3680,-0.3243,2.2143,-1.8822
16.3760,-0.2412,2.1723,-1.8871
16.3840,-0.1512,2.1272,-1.8897
16.3920,-0.0540,2.0791,-1.8901
16.4000,0.0502,2.0282,-1.8884
16.4080,0.1610,1.9746,-1.8846
16.4160,0.2775,1.9187,-1.8783
16.4240,0.3987,1.8608,-1.8692
16.4320,0.5234,1.8012,-1.8571
16.4400,0.6511,1.7402,-1.8419
16.4480,0.7811,1.6780,-1.8237
16.4560,0.9138,1.6145,-1.8027
16.4640,1.0496,1.5495,-1.7789
16.4720,1.1897,1.4824,-1.7525
16.4800,1.3356,1.4125,-1.7233
16.4880,1.4885,1.3389,-1.6910
16.4960,1.6496,1.2609,-1.6554
16.5040,1.8191,1.1781,-1.6162
16.5120,1.9963,1.0908,-1.5735
16.5200,2.1798,0.9993,-1.5274
16.5280,2.3678,0.9046,-1.4782
16.5360,2.5585,0.8076,-1.4261
16.5440,2.7507,0.7087,-1.3712
16.5520,2.9443,0.6084,-1.3136
16.5600,3.1400,0.5064,-1.2531
16.5680,3.3396,0.4023,-1.1896
16.5760,3.5455,0.2954,-1.1230
16.5840,3.7597,0.1854,-1.0533
16.5920,3.9837,0.0719,-0.9805
16.6000,4.2176,-0.0445,-0.9047
16.6080,4.4606,-0.1631,-0.8262
16.6160,4.7104,-0.2828,-0.7452
16.6240,4.9645,-0.4025,-0.6621
16.6320,5.2205,-0.5214,-0.5770
16.6400,5.4764,-0.6393,-0.4902
16.6480,5.7316,-0.7564,-0.4013
16.6560,5.9866,-0.8736,-0.3099
16.6640,6.2431,-0.9923,-0.2154
16.6720,6.5037,-1.1139,-0.1171
16.6800,6.7712,-1.2400,-0.0145
16.6880,7.0482,-1.3713,0.0926
16.6960,7.3358,-1.5081,0.2040
16.7040,7.6339,-1.6498,0.3192
16.7120,7.9405,-1.7951,0.4376
16.7200,8.2527,-1.9423,0.5588
16.7280,8.5669,-2.0896,0.6822
16.7360,8.8798,-2.2355,0.8075
16.7440,9.1891,-2.3789,0.9338
16.7520,9.4933,-2.5196,1.0604
16.7600,9.7925,-2.6575,1.1865
16.7680,10.0884,-2.7936,1.3117
16.7760,10.3839,-2.9290,1.4363
16.7840,10.6838,-3.0659,1.5618
16.7920,10.9941,-3.2068,1.6907
16.8000,11.3211,-3.3548,1.8265
16.8080,11.6705,-3.5123,1.9721
16.8160,12.0448,-3.6807,2.1294
16.8240,12.4429,-3.8596,2.2982
16.8320,12.8596,-4.0467,2.4762
16.8400,13.2866,-4.2385,2.6595
16.8480,13.7150,-4.4307,2.8436
16.8560,14.1373,-4.6198,3.0245
16.8640,14.5496,-4.8040,3.2001
16.8720,14.9521,-4.9831,3.3699
16.8800,15.3483,-5.1588,3.5353
16.8880,15.7442,-5.3336,3.6985
16.8960,16.1457,-5.5100,3.8618
16.9040,16.5571,-5.6899,4.0268
16.9120,16.9801,-5.8735,4.1939
16.9200,17.4136,-6.0603,4.3630
16.9280,17.8546,-6.2486,4.5341
16.9360,18.2995,-6.4368,4.7074
16.9440,18.7446,-6.6240,4.8842
16.9520,19.1880,-6.8104,5.0670
16.9600,19.6290,-6.9974,5.2591
16.9680,20.0687,-7.1875,5.4639
16.9760,20.5094,-7.3835,5.6843
16.9840,20.9539,-7.5886,5.9220
16.9920,21.4049,-7.8048,6.1770
17.0000,21.8643,-8.0332,6.4477
17.0080,22.3324,-8.2734,6.7308
17.0160,22.8080,-8.5238,7.0219
17.0240,23.2886,-8.7814,7.3162
17.0320,23.7708,-9.0426,7.6088
17.0400,24.2515,-9.3036,7.8957
17.0480,24.7280,-9.5605,8.1737
17.0560,25.1989,-9.8102,8.4413
17.0640,25.6642,-10.0507,8.6988
17.0720,26.1246,-10.2816,8.9480
17.0800,26.5818,-10.5036,9.1919
17.0880,27.0378,-10.7186,9.4343
17.0960,27.4942,-10.9292,9.6786
17.1040,27.9524,-11.1381,9.9274
17.1120,28.4129,-11.3476,10.1820
17.1200,28.8752,-11.5592,10.4424
17.1280,29.3383,-11.7734,10.7072
17.1360,29.8006,-11.9900,10.9740
17.1440,30.2601,-12.2078,11.2404
17.1520,30.7151,-12.4258,11.5037
17.1600,31.1648,-12.6426,11.7623
17.1680,31.6092,-12.8579,12.0152
17.1760,32.0497,-13.0715,12.2626
17.1840,32.4891,-13.2844,12.5057
17.1920,32.9305,-13.4977,12.7463
17.2000,33.3773,-13.7126,12.9867
17.2080,33.8316,-13.9297,13.2286
17.2160,34.2944,-14.1489,13.4731
17.2240,34.7646,-14.3694,13.7202
17.2320,35.2401,-14.5899,13.9695
17.2400,35.7180,-14.8092,14.2198
17.2480,36.1957,-15.0265,14.4702
17.2560,36.6707,-15.2416,14.7199
17.2640,37.1418,-15.4551,14.9685
17.2720,37.6085,-15.6680,15.2160
17.2800,38.0714,-15.8813,15.4627
17.2880,38.5316,-16.0960,15.7090
17.2960,38.9908,-16.3129,15.9549
17.3040,39.4505,-16.5324,16.2008
17.3120,39.9117,-16.7541,16.4465
17.3200,40.3749,-16.9778,16.6921
17.3280,40.8395,-17.2023,16.9375
17.3360,41.3046,-17.4264,17.1824
17.3440,41.7689,-17.6490,17.4265
17.3520,42.2314,-17.8685,17.6692
17.3600,42.6918,-18.0841,17.9098
17.3680,43.1503,-18.2952,18.1473
17.3760,43.6078,-18.5018,18.3809
17.3840,44.0661,-18.7049,18.6103
17.3920,44.5270,-18.9055,18.8352
17.3990,44.9926,-19.1054,19.0563
17.4070,45.4642,-19.3060,19.2745
17.4150,45.9423,-19.5086,19.4909
17.4230,46.4259,-19.7138,19.7071
17.4310,46.9127,-19.9217,19.9244
17.4390,47.3997,-20.1319,20.1439
17.4470,47.8836,-20.3439,20.3666
17.4550,48.3615,-20.5571,20.5930
17.4630,48.8316,-20.7708,20.8235
17.4710,49.2935,-20.9849,21.0581
17.4790,49.7488,-21.1993,21.2972
17.4870,50.2006,-21.4145,21.5408
17.4950,50.6531,-21.6312,21.7892
17.5030,51.1106,-21.8502,22.0421
17.5110,51.5767,-22.0719,22.2988
17.5190,52.0530,-22.2964,22.5574
17.5270,52.5386,-22.5228,22.8156
17.5350,53.0306,-22.7499,23.0706
17.5430,53.5246,-22.9760,23.3201
17.5510,54.0158,-23.1997,23.5628
17.5590,54.4999,-23.4197,23.7987
17.5670,54.9745,-23.6356,24.0293
17.5750,55.4392,-23.8478,24.2570
17.5830,55.8959,-24.0573,24.4843
17.5910,56.3483,-24.2657,24.7138
17.5990,56.8014,-24.4748,24.9469
17.6070,57.2602,-24.6863,25.1844
17.6150,57.7286,-24.9014,25.4260
17.6230,58.2081,-25.1205,25.6706
17.6310,58.6980,-25.3432,25.9168
17.6390,59.1946,-25.5682,26.1625
17.6470,59.6929,-25.7936,26.4058
17.6550,60.1876,-26.0176,26.6449
17.6630,60.6744,-26.2385,26.8783
17.6710,61.1509,-26.4553,27.1054
17.6790,61.6174,-26.6682,27.3264
17.6870,62.0768,-26.8782,27.5422
17.6950,62.5338,-27.0873,27.7551
17.7030,62.9937,-27.2980,27.9675
17.7110,63.4616,-27.5125,28.1821
17.7190,63.9403,-27.7325,28.4009
17.7270,64.4303,-27.9583,28.6246
17.7350,64.9295,-28.1888,28.8527
17.7430,65.4334,-28.4220,29.0836
17.7510,65.9369,-28.6550,29.3149
17.7590,66.4350,-28.8854,29.5446
17.7670,66.9243,-29.1115,29.7714
17.7750,67.4030,-29.3331,29.9961
17.7830,67.8717,-29.5519,30.2211
17.7910,68.3329,-29.7709,30.4507
17.7990,68.7902,-29.9945,30.6899
17.8070,69.2477,-30.2270,30.9438
17.8150,69.7086,-30.4717,31.2155
17.8230,70.1747,-30.7302,31.5058
17.8310,70.6454,-31.0017,31.8120
17.8390,71.1182,-31.2830,32.1287
17.8470,71.5890,-31.5694,32.4487
17.8550,72.0536,-31.8555,32.7643
17.8630,72.5086,-32.1366,33.0690
17.8710,72.9518,-32.4092,33.3583
17.8790,73.3828,-32.6715,33.6306
17.8870,73.8027,-32.9233,33.8868
17.8950,74.2135,-33.1657,34.1298
17.9030,74.6174,-33.4007,34.3638
17.9110,75.0166,-33.6305,34.5931
17.9190,75.4128,-33.8572,34.8216
17.9270,75.8066,-34.0823,35.0516
17.9350,76.1981,-34.3068,35.2838
17.9430,76.5864,-34.5312,35.5173
17.9510,76.9700,-34.7550,35.7498
17.9590,77.3472,-34.9774,35.9787
17.9670,77.7164,-35.1972,36.2017
17.9750,78.0762,-35.4132,36.4173
17.9830,78.4265,-35.6248,36.6253
17.9910,78.7679,-35.8318,36.8270
17.9990,79.1023,-36.0352,37.0244
18.0070,79.4324,-36.2362,37.2200
18.0150,79.7609,-36.4369,37.4160
18.0230,80.0901,-36.6392,37.6134
18.0310,80.4211,-36.8444,37.8123
18.0390,80.7532,-37.0530,38.0115
18.0470,81.0845,-37.2640,38.2087
18.0550,81.4123,-37.4757,38.4017
18.0630,81.7335,-37.6855,38.5883
18.0710,82.0456,-37.8906,38.7672
18.0790,82.3472,-38.0885,38.9382
18.0870,82.6382,-38.2778,39.1021
18.0950,82.9194,-38.4585,39.2607
18.1030,83.1928,-38.6319,39.4160
18.1110,83.4606,-38.8005,39.5704
18.1190,83.7253,-38.9674,39.7254
18.1270,83.9884,-39.1356,39.8817
18.1350,84.2509,-39.3070,40.0391
18.1430,84.5126,-39.4825,40.1962
18.1510,84.7721,-39.6612,40.3510
18.1590,85.0278,-39.8410,40.5016
18.1670,85.2776,-40.0193,40.6465
18.1750,85.5201,-40.1932,40.7851
18.1830,85.7543,-40.3604,40.9179
18.1910,85.9800,-40.5195,41.0460
18.1990,86.1981,-40.6703,41.1708
18.2070,86.4095,-40.8135,41.2936
18.2150,86.6159,-40.9509,41.4154
18.2230,86.8185,-41.0844,41.5364
18.2310,87.0181,-41.2159,41.6560
18.2390,87.2150,-41.3473,41.7735
18.2470,87.4088,-41.4795,41.8875
18.2550,87.5986,-41.6132,41.9971
18.2630,87.7834,-41.7484,42.1016
18.2710,87.9623,-41.8848,42.2008
18.2790,88.1347,-42.0217,42.2951
18.2870,88.3000,-42.1583,42.3854
18.2950,88.4584,-42.2938,42.4729
18.3030,88.6102,-42.4275,42.5591
18.3110,88.7563,-42.5586,42.6453
18.3190,88.8976,-42.6866,42.7327
18.3270,89.0350,-42.8113,42.8216
18.3350,89.1691,-42.9322,42.9122
18.3430,89.3000,-43.0489,43.0034
18.3510,89.4274,-43.1610,43.0939
18.3590,89.5504,-43.2679,43.1819
18.3670,89.6682,-43.3694,43.2657
18.3750,89.7800,-43.4654,43.3438
18.3830,89.8853,-43.5565,43.4154
18.3910,89.9838,-43.6432,43.4801
18.3990,90.0759,-43.7269,43.5382
18.4070,90.1619,-43.8084,43.5904
18.4150,90.2421,-43.8890,43.6377
18.4230,90.3171,-43.9691,43.6811
18.4310,90.3871,-44.0492,43.7218
18.4390,90.4523,-44.1292,43.7606
18.4470,90.5126,-44.2088,43.7983
18.4540,90.5682,-44.2875,43.8355
18.4620,90.6187,-44.3649,43.8725
18.4700,90.6640,-44.4404,43.9094
18.4780,90.7041,-44.5138,43.9461
18.4860,90.7389,-44.5844,43.9821
18.4940,90.7682,-44.6519,44.0170
18.5020,90.7921,-44.7156,44.0500
18.5100,90.8106,-44.7749,44.0802
18.5180,90.8239,-44.8295,44.1070
18.5260,90.8320,-44.8787,44.1294
18.5340,90.8351,-44.9226,44.1472
18.5420,90.8332,-44.9612,44.1601
18.5500,90.8265,-44.9949,44.1681
18.5580,90.8150,-45.0242,44.1719
18.5660,90.7989,-45.0499,44.1721
18.5740,90.7783,-45.0728,44.1695
18.5820,90.7533,-45.0938,44.1650
18.5900,90.7240,-45.1136,44.1592
18.5980,90.6904,-45.1326,44.1525
18.6060,90.6522,-45.1512,44.1451
18.6140,90.6091,-45.1694,44.1368
18.6220,90.5605,-45.1870,44.1271
18.6300,90.5059,-45.2038,44.1154
18.6380,90.4449,-45.2192,44.1013
18.6460,90.3771,-45.2329,44.0843
18.6540,90.3028,-45.2440,44.0643
18.6620,90.2222,-45.2520,44.0411
18.6700,90.1360,-45.2558,44.0149
18.6780,90.0446,-45.2550,43.9857
18.6860,89.9487,-45.2489,43.9537
18.6940,89.8487,-45.2372,43.9191
18.7020,89.7446,-45.2202,43.8820
18.7100,89.6363,-45.1982,43.8429
18.7180,89.5237,-45.1722,43.8021
18.7260,89.4065,-45.1429,43.7599
18.7340,89.2842,-45.1117,43.7166
18.7420,89.1566,-45.0793,43.6725
18.7500,89.0235,-45.0467,43.6275
18.7580,88.8850,-45.0143,43.5815
18.7660,88.7413,-44.9824,43.5343
18.7740,88.5928,-44.9508,43.4855
18.7820,88.4403,-44.9189,43.4350
18.7900,88.2841,-44.8861,43.3826
18.7980,88.1246,-44.8513,43.3282
18.8060,87.9616,-44.8132,43.2719
18.8140,87.7946,-44.7703,43.2134
18.8220,87.6222,-44.7211,43.1523
18.8300,87.4432,-44.6642,43.0883
18.8380,87.2561,-44.5987,43.0206
18.8460,87.0602,-44.5243,42.9491
18.8540,86.8555,-44.4418,42.8735
18.8620,86.6429,-44.3527,42.7943
18.8700,86.4238,-44.2591,42.7121
18.8780,86.2001,-44.1635,42.6276
18.8860,85.9735,-44.0684,42.5413
18.8940,85.7451,-43.9756,42.4536
18.9020,85.5153,-43.8863,42.3643
18.9100,85.2836,-43.8007,42.2732
18.9180,85.0489,-43.7181,42.1797
18.9260,84.8093,-43.6368,42.0834
18.9340,84.5630,-43.5548,41.9839
18.9420,84.3083,-43.4695,41.8812
18.9500,84.0445,-43.3784,41.7758
18.9580,83.7716,-43.2795,41.6683
18.9660,83.4907,-43.1715,41.5598
18.9740,83.2035,-43.0539,41.4512
18.9820,82.9121,-42.9272,41.3431
18.9900,82.6182,-42.7927,41.2358
18.9980,82.3228,-42.6524,41.1291
19.0060,82.0262,-42.5089,41.0221
19.0140,81.7276,-42.3644,40.9137
19.0220,81.4258,-42.2208,40.8025
19.0300,81.1188,-42.0791,40.6870
19.0380,80.8050,-41.9395,40.5659
19.0460,80.4830,-41.8011,40.4385
19.0540,80.1523,-41.6622,40.3045
19.0620,79.8132,-41.5213,40.1645
19.0700,79.4672,-41.3767,40.0196
19.0780,79.1163,-41.2274,39.8715
19.0860,78.7626,-41.0731,39.7222
19.0940,78.4083,-40.9141,39.5737
19.1020,78.0546,-40.7513,39.4277
19.1100,77.7017,-40.5852,39.2849
19.1180,77.3485,-40.4164,39.1453
19.1260,76.9925,-40.2444,39.0076
19.1340,76.6304,-40.0684,38.8695
19.1420,76.2587,-39.8873,38.7283
19.1500,75.8750,-39.6998,38.5813
19.1580,75.4779,-39.5055,38.4266
19.1660,75.0682,-39.3047,38.2633
19.1740,74.6486,-39.0988,38.0924
19.1820,74.2227,-38.8900,37.9160
19.1900,73.7944,-38.6806,37.7371
19.1980,73.3670,-38.4730,37.5591
19.2060,72.9423,-38.2689,37.3843
19.2140,72.5207,-38.0689,37.2142
19.2220,72.1006,-37.8725,37.0488
19.2300,71.6790,-37.6781,36.8863
19.2380,71.2521,-37.4829,36.7243
19.2460,70.8160,-37.2841,36.5600
19.2540,70.3676,-37.0785,36.3906
19.2620,69.9057,-36.8638,36.2143
19.2700,69.4308,-36.6385,36.0303
19.2780,68.9458,-36.4022,35.8383
19.2860,68.4550,-36.1553,35.6383
19.2940,67.9636,-35.8991,35.4305
19.3020,67.4764,-35.6348,35.2144
19.3100,66.9970,-35.3638,34.9892
19.3180,66.5268,-35.0872,34.7541
19.3260,66.0652,-34.8055,34.5081
19.3340,65.6090,-34.5190,34.2513
19.3420,65.1535,-34.2274,33.9843
19.3500,64.6933,-33.9308,33.7091
19.3580,64.2240,-33.6295,33.4288
19.3660,63.7431,-33.3247,33.1476
19.3740,63.2508,-33.0187,32.8699
19.3820,62.7502,-32.7143,32.6003
19.3900,62.2463,-32.4146,32.3421
19.3980,61.7445,-32.1224,32.0973
19.4060,61.2500,-31.8392,31.8657
19.4140,60.7656,-31.5651,31.6448
19.4220,60.2920,-31.2985,31.4302
19.4300,59.8267,-31.0365,31.2162
19.4380,59.3657,-30.7749,30.9969
19.4460,58.9038,-30.5095,30.7667
19.4540,58.4363,-30.2367,30.5221
19.4620,57.9604,-29.9544,30.2619
19.4700,57.4755,-29.6625,29.9882
19.4780,56.9835,-29.3625,29.7055
19.4860,56.4878,-29.0579,29.4204
19.4940,55.9924,-28.7528,29.1399
19.5020,55.5008,-28.4510,28.8700
19.5090,55.0150,-28.1555,28.6148
19.5170,54.5355,-27.8681,28.3754
19.5250,54.0615,-27.5889,28.1505
19.5330,53.5914,-27.3168,27.9368
19.5410,53.1232,-27.0502,27.7304
19.5490,52.6554,-26.7872,27.5273
19.5570,52.1871,-26.5262,27.3248
19.5650,51.7180,-26.2659,27.1209
19.5730,51.2482,-26.0052,26.9149
19.5810,50.7785,-25.7433,26.7058
19.5890,50.3099,-25.4794,26.4929
19.5970,49.8433,-25.2127,26.2749
19.6050,49.3795,-24.9428,26.0505
19.6130,48.9189,-24.6697,25.8192
19.6210,48.4615,-24.3945,25.5816
19.6290,48.0061,-24.1186,25.3394
19.6370,47.5507,-23.8435,25.0956
19.6450,47.0929,-23.5704,24.8534
19.6530,46.6297,-23.2996,24.6157
19.6610,46.1591,-23.0310,24.3846
19.6690,45.6810,-22.7642,24.1617
19.6770,45.1971,-22.4992,23.9478
19.6850,44.7111,-22.2367,23.7435
19.6930,44.2278,-21.9776,23.5485
19.7010,43.7517,-21.7230,23.3621
19.7090,43.2859,-21.4735,23.1825
19.7170,42.8312,-21.2285,23.0066
19.7250,42.3859,-20.9859,22.8305
19.7330,41.9457,-20.7428,22.6498
19.7410,41.5050,-20.4958,22.4605
19.7490,41.0581,-20.2422,22.2598
19.7570,40.6006,-19.9805,22.0469
19.7650,40.1305,-19.7111,21.8237
19.7730,39.6485,-19.4359,21.5937
19.7810,39.1577,-19.1585,21.3623
19.7890,38.6631,-18.8824,21.1346
19.7970,38.1695,-18.6111,20.9149
19.8050,37.6811,-18.3467,20.7055
19.8130,37.2003,-18.0897,20.5065
19.8210,36.7278,-17.8396,20.3156
19.8290,36.2622,-17.5944,20.1290
19.8370,35.8016,-17.3519,19.9424
19.8450,35.3433,-17.1097,19.7514
19.8530,34.8850,-16.8660,19.5533
19.8610,34.4248,-16.6196,19.3466
19.8690,33.9621,-16.3703,19.1320
19.8770,33.4971,-16.1188,18.9118
19.8850,33.0309,-15.8664,18.6895
19.8930,32.5655,-15.6151,18.4694
19.9010,32.1029,-15.3668,18.2553
19.9090,31.6455,-15.1233,18.0501
19.9170,31.1946,-14.8854,17.8553
19.9250,30.7504,-14.6526,17.6701
19.9330,30.3115,-14.4231,17.4922
19.9410,29.8748,-14.1941,17.3177
19.9490,29.4364,-13.9618,17.1423
19.9570,28.9917,-13.7228,16.9617
19.9650,28.5375,-13.4747,16.7729
19.9730,28.0722,-13.2170,16.5746
19.9810,27.5968,-12.9511,16.3672
19.9890,27.1143,-12.6800,16.1525
19.9970,26.6291,-12.4078,15.9330
20.0050,26.1460,-12.1383,15.7110
20.0130,25.6687,-11.8745,15.4886
20.0210,25.1996,-11.6178,15.2665
20.0290,24.7388,-11.3685,15.0450
20.0370,24.2853,-11.1253,14.8240
20.0450,23.8365,-10.8863,14.6030
20.0530,23.3892,-10.6496,14.3822
20.0610,22.9403,-10.4133,14.1622
20.0690,22.4873,-10.1766,13.9441
20.0770,22.0289,-9.9390,13.7291
20.0850,21.5650,-9.7008,13.5185
20.0930,21.0970,-9.4626,13.3129
20.1010,20.6275,-9.2249,13.1118
20.1090,20.1596,-8.9876,12.9133
20.1170,19.6964,-8.7504,12.7144
20.1250,19.2403,-8.5118,12.5113
20.1330,18.7924,-8.2702,12.2995
20.1410,18.3527,-8.0237,12.0753
20.1490,17.9193,-7.7706,11.8357
20.1570,17.4897,-7.5102,11.5797
20.1650,17.0612,-7.2431,11.3082
20.1730,16.6317,-6.9713,11.0243
20.1810,16.2008,-6.6986,10.7331
20.1890,15.7696,-6.4291,10.4408
20.1970,15.3408,-6.1675,10.1538
20.2050,14.9178,-5.9170,9.8775
20.2130,14.5039,-5.6795,9.6157
20.2210,14.1014,-5.4550,9.3698
20.2290,13.7112,-5.2415,9.1390
20.2370,13.3326,-5.0363,8.9209
20.2450,12.9639,-4.8361,8.7118
20.2530,12.6023,-4.6378,8.5080
20.2610,12.2449,-4.4395,8.3058
20.2690,11.8891,-4.2402,8.1022
20.2770,11.5332,-4.0400,7.8953
20.2850,11.1769,-3.8398,7.6840
20.2930,10.8210,-3.6409,7.4682
20.3010,10.4672,-3.4447,7.2486
20.3090,10.1179,-3.2523,7.0270
20.3170,9.7750,-3.0642,6.8056
20.3250,9.4399,-2.8807,6.5867
20.3330,9.1132,-2.7014,6.3726
20.3410,8.7946,-2.5261,6.1646
20.3490,8.4833,-2.3544,5.9635
20.3570,8.1782,-2.1862,5.7689
20.3650,7.8780,-2.0216,5.5798
20.3730,7.5820,-1.8609,5.3947
20.3810,7.2895,-1.7043,5.2118
20.3890,7.0006,-1.5519,5.0299
20.3970,6.7156,-1.4034,4.8485
20.4050,6.4353,-1.2584,4.6675
20.4130,6.1607,-1.1161,4.4876
20.4210,5.8930,-0.9756,4.3097
20.4290,5.6328,-0.8365,4.1350
20.4370,5.3808,-0.6985,3.9645
20.4450,5.1365,-0.5616,3.7986
20.4530,4.8990,-0.4263,3.6373
20.4610,4.6666,-0.2930,3.4798
20.4690,4.4374,-0.1625,3.3248
20.4770,4.2097,-0.0352,3.1707
20.4850,3.9825,0.0885,3.0161
20.4930,3.7558,0.2083,2.8602
20.5010,3.5306,0.3241,2.7033
20.5090,3.3087,0.4359,2.5463
20.5170,3.0924,0.5439,2.3913
20.5250,2.8836,0.6483,2.2404
20.5330,2.6835,0.7494,2.0954
20.5410,2.4926,0.8474,1.9571
20.5490,2.3104,0.9428,1.8254
20.5570,2.1357,1.0358,1.6988
20.5640,1.9668,1.1269,1.5752
20.5720,1.8020,1.2163,1.4523
20.5800,1.6399,1.3044,1.3283
20.5880,1.4796,1.3910,1.2022
20.5960,1.3211,1.4757,1.0742
20.6040,1.1652,1.5577,0.9454
20.6120,1.0131,1.6360,0.8176
20.6200,0.8661,1.7099,0.6926
20.6280,0.7253,1.7788,0.5719
20.6360,0.5913,1.8428,0.4561
20.6440,0.4642,1.9024,0.3449
20.6520,0.3438,1.9585,0.2376
20.6600,0.2296,2.0121,0.1329
20.6680,0.1210,2.0643,0.0296
20.6760,0.0178,2.1158,-0.0728
20.6840,-0.0805,2.1668,-0.1745
20.6920,-0.1738,2.2170,-0.2749
20.7000,-0.2621,2.2657,-0.3727
20.7080,-0.3453,2.3119,-0.4666
20.7160,-0.4232,2.3545,-0.5550
20.7240,-0.4958,2.3926,-0.6369
20.7320,-0.5630,2.4256,-0.7118
20.7400,-0.6249,2.4535,-0.7800
20.7480,-0.6816,2.4766,-0.8426
20.7560,-0.7332,2.4959,-0.9013
20.7640,-0.7800,2.5123,-0.9582
20.7720,-0.8220,2.5272,-1.0156
20.7800,-0.8593,2.5413,-1.0755
20.7880,-0.8918,2.5553,-1.1391
20.7960,-0.9194,2.5692,-1.2066
20.8040,-0.9416,2.5825,-1.2768
20.8120,-0.9584,2.5940,-1.3471
20.8200,-0.9697,2.6023,-1.4138
20.8280,-0.9757,2.6054,-1.4722
20.8360,-0.9770,2.6014,-1.5175
20.8440,-0.9744,2.5886,-1.5455
20.8520,-0.9692,2.5660,-1.5532
20.8600,-0.9625,2.5331,-1.5397
20.8680,-0.9556,2.4907,-1.5066
20.8760,-0.9494,2.4408,-1.4578
20.8840,-0.9447,2.3864,-1.3994
20.8920,-0.9418,2.3312,-1.3386
20.9000,-0.9408,2.2789,-1.2828
20.9080,-0.9412,2.2331,-1.2380
20.9160,-0.9427,2.1961,-1.2086
20.9240,-0.9446,2.1687,-1.1958
20.9320,-0.9464,2.1503,-1.1982
20.9400,-0.9475,2.1385,-1.2116
20.9480,-0.9476,2.1301,-1.2302
20.9560,-0.9467,2.1213,-1.2474
20.9640,-0.9448,2.1085,-1.2573
20.9720,-0.9423,2.0892,-1.2556
20.9800,-0.9395,2.0622,-1.2404
20.9880,-0.9369,2.0278,-1.2128
20.9960,-0.9348,1.9879,-1.1759
21.0040,-0.9333,1.9454,-1.1349
21.0120,-0.9325,1.9034,-1.0953
21.0200,-0.9324,1.8650,-1.0621
21.0280,-0.9328,1.8321,-1.0388
21.0360,-0.9333,1.8056,-1.0265
21.0440,-0.9337,1.7849,-1.0241
21.0520,-0.9338,1.7683,-1.0284
21.0600,-0.9335,1.7535,-1.0350
21.0680,-0.9327,1.7383,-1.0392
21.0760,-0.9315,1.7205,-1.0372
21.0840,-0.9300,1.6992,-1.0266
21.0920,-0.9285,1.6741,-1.0073
21.1000,-0.9271,1.6460,-0.9809
21.1080,-0.9259,1.6161,-0.9507
21.1160,-0.9251,1.5864,-0.9208
21.1240,-0.9247,1.5585,-0.8951
21.1320,-0.9246,1.5338,-0.8767
21.1400,-0.9246,1.5130,-0.8669
21.1480,-0.9248,1.4959,-0.8654
21.1560,-0.9248,1.4817,-0.8700
21.1640,-0.9247,1.4691,-0.8774
21.1720,-0.9244,1.4563,-0.8836
21.1800,-0.9238,1.4418,-0.8851
21.1880,-0.9232,1.4246,-0.8794
21.1960,-0.9224,1.4043,-0.8655
21.2040,-0.9218,1.3813,-0.8442
21.2120,-0.9212,1.3566,-0.8178
21.2200,-0.9209,1.3318,-0.7897
21.2280,-0.9207,1.3082,-0.7633
21.2360,-0.9208,1.2873,-0.7421
21.2440,-0.9210,1.2698,-0.7281
21.2520,-0.9213,1.2557,-0.7219
21.2600,-0.9215,1.2444,-0.7223
21.2680,-0.9216,1.2347,-0.7272
21.2760,-0.9216,1.2252,-0.7333
21.2840,-0.9213,1.2144,-0.7375
21.2920,-0.9209,1.2015,-0.7373
21.3000,-0.9204,1.1862,-0.7312
21.3080,-0.9198,1.1687,-0.7192
21.3160,-0.9193,1.1499,-0.7028
21.3240,-0.9189,1.1312,-0.6841
21.3320,-0.9186,1.1136,-0.6659
21.3400,-0.9185,1.0981,-0.6509
21.3480,-0.9185,1.0851,-0.6408
21.3560,-0.9185,1.0746,-0.6363
21.3640,-0.9185,1.0659,-0.6370
21.3720,-0.9184,1.0579,-0.6412
21.3800,-0.9181,1.0494,-0.6465
21.3880,-0.9177,1.0394,-0.6503
21.3960,-0.9172,1.0271,-0.6501
21.4040,-0.9167,1.0125,-0.6444
21.4120,-0.9161,0.9956,-0.6329
21.4200,-0.9155,0.9772,-0.6162
21.4280,-0.9151,0.9584,-0.5964
21.4360,-0.9147,0.9403,-0.5758
21.4440,-0.9146,0.9239,-0.5570
21.4520,-0.9146,0.9101,-0.5421
21.4600,-0.9147,0.8990,-0.5323
21.4680,-0.9148,0.8902,-0.5278
21.4760,-0.9149,0.8831,-0.5274
21.4840,-0.9150,0.8766,-0.5293
21.4920,-0.9150,0.8694,-0.5313
21.5000,-0.9149,0.8608,-0.5311
21.5080,-0.9148,0.8500,-0.5272
21.5160,-0.9147,0.8372,-0.5190
21.5240,-0.9147,0.8228,-0.5070
21.5320,-0.9148,0.8077,-0.4926
21.5400,-0.9150,0.7932,-0.4778
21.5480,-0.9154,0.7802,-0.4648
21.5560,-0.9159,0.7696,-0.4555
21.5640,-0.9164,0.7615,-0.4509
21.5720,-0.9170,0.7557,-0.4510
21.5800,-0.9175,0.7513,-0.4547
21.5880,-0.9179,0.7473,-0.4602
21.5960,-0.9182,0.7423,-0.4652
21.6040,-0.9183,0.7354,-0.4677
21.6120,-0.9183,0.7261,-0.4662
21.6190,-0.9182,0.7143,-0.4602
21.6270,-0.9181,0.7005,-0.4501
21.6350,-0.9180,0.6857,-0.4371
21.6430,-0.9179,0.6710,-0.4232
21.6510,-0.9179,0.6576,-0.4102
21.6590,-0.9180,0.6463,-0.4000
21.6670,-0.9181,0.6376,-0.3936
21.6750,-0.9182,0.6313,-0.3914
21.6830,-0.9183,0.6271,-0.3930
21.6910,-0.9183,0.6239,-0.3971
21.6990,-0.9183,0.6208,-0.4022
21.7070,-0.9181,0.6167,-0.4065
21.7150,-0.9179,0.6109,-0.4085
21.7230,-0.9176,0.6031,-0.4075
21.7310,-0.9174,0.5934,-0.4032
21.7390,-0.9172,0.5825,-0.3965
21.7470,-0.9172,0.5713,-0.3884
21.7550,-0.9172,0.5609,-0.3805
21.7630,-0.9173,0.5522,-0.3743
21.7710,-0.9174,0.5457,-0.3706
21.7790,-0.9176,0.5415,-0.3700
21.7870,-0.9176,0.5393,-0.3720
21.7950,-0.9176,0.5383,-0.3757
21.8030,-0.9176,0.5375,-0.3798
21.8110,-0.9175,0.5359,-0.3828
21.8190,-0.9176,0.5329,-0.3835
21.8270,-0.9177,0.5281,-0.3810
21.8350,-0.9181,0.5215,-0.3753
21.8430,-0.9186,0.5133,-0.3665
21.8510,-0.9193,0.5041,-0.3557
21.8590,-0.9197,0.4944,-0.3437
21.8670,-0.9196,0.4846,-0.3316
21.8750,-0.9185,0.4751,-0.3202
21.8830,-0.9162,0.4660,-0.3103
21.8910,-0.9126,0.4576,-0.3022
21.8990,-0.9083,0.4498,-0.2962
21.9070,-0.9047,0.4431,-0.2926
21.9150,-0.9038,0.4379,-0.2917
21.9230,-0.9079,0.4348,-0.2936
21.9310,-0.9189,0.4341,-0.2980
21.9390,-0.9369,0.4355,-0.3040
21.9470,-0.9585,0.4373,-0.3096
21.9550,-0.9751,0.4359,-0.3113
21.9630,-0.9731,0.4256,-0.3043
21.9710,-0.9387,0.4005,-0.2836
