RehabEngGroup/ob-ik-opensim-plugin/test_data/out_data/simulated/trial01.csv
time,shoulder_pan,shoulder_lift,elbow
0.0080,-0.0725,-0.6273,1.0164
0.0160,-0.3384,-0.1225,0.2367
0.0240,-0.4412,0.0482,-0.0251
0.0320,-0.4734,0.0932,-0.0935
0.0400,-0.4797,0.0975,-0.1004
0.0480,-0.4737,0.0843,-0.0810
0.0560,-0.4632,0.0652,-0.0533
0.0640,-0.4534,0.0477,-0.0283
0.0720,-0.4467,0.0352,-0.0113
0.0800,-0.4436,0.0285,-0.0029
0.0880,-0.4433,0.0265,-0.0016
0.0960,-0.4447,0.0276,-0.0048
0.1040,-0.4468,0.0303,-0.0100
0.1120,-0.4487,0.0334,-0.0152
0.1200,-0.4501,0.0361,-0.0195
0.1280,-0.4508,0.0381,-0.0221
0.1360,-0.4510,0.0393,-0.0229
0.1440,-0.4509,0.0396,-0.0220
0.1520,-0.4506,0.0392,-0.0198
0.1600,-0.4502,0.0383,-0.0166
0.1680,-0.4500,0.0369,-0.0130
0.1760,-0.4499,0.0352,-0.0093
0.1840,-0.4498,0.0334,-0.0059
0.1920,-0.4498,0.0316,-0.0030
0.2000,-0.4499,0.0299,-0.0007
0.2080,-0.4499,0.0283,0.0010
0.2160,-0.4500,0.0269,0.0023
0.2240,-0.4500,0.0257,0.0030
0.2320,-0.4501,0.0245,0.0031
0.2400,-0.4501,0.0236,0.0024
0.2480,-0.4501,0.0227,0.0008
0.2560,-0.4501,0.0222,-0.0020
0.2640,-0.4501,0.0219,-0.0060
0.2720,-0.4500,0.0220,-0.0109
0.2800,-0.4499,0.0225,-0.0164
0.2880,-0.4497,0.0233,-0.0221
0.2960,-0.4495,0.0243,-0.0274
0.3040,-0.4493,0.0255,-0.0319
0.3120,-0.4492,0.0266,-0.0351
0.3200,-0.4491,0.0274,-0.0370
0.3280,-0.4492,0.0280,-0.0376
0.3360,-0.4494,0.0282,-0.0371
0.3440,-0.4497,0.0282,-0.0359
0.3520,-0.4501,0.0281,-0.0344
0.3600,-0.4505,0.0281,-0.0330
0.3680,-0.4510,0.0283,-0.0318
0.3760,-0.4514,0.0287,-0.0310
0.3840,-0.4518,0.0296,-0.0307
0.3920,-0.4521,0.0307,-0.0311
0.4000,-0.4523,0.0321,-0.0320
0.4080,-0.4524,0.0337,-0.0335
0.4160,-0.4525,0.0352,-0.0355
0.4240,-0.4525,0.0367,-0.0378
0.4320,-0.4525,0.0379,-0.0402
0.4400,-0.4525,0.0389,-0.0424
0.4480,-0.4524,0.0395,-0.0441
0.4560,-0.4524,0.0399,-0.0450
0.4640,-0.4524,0.0399,-0.0451
0.4720,-0.4524,0.0399,-0.0444
0.4800,-0.4524,0.0398,-0.0432
0.4880,-0.4524,0.0398,-0.0417
0.4960,-0.4524,0.0399,-0.0402
0.5040,-0.4524,0.0402,-0.0389
0.5120,-0.4524,0.0407,-0.0379
0.5200,-0.4524,0.0412,-0.0371
0.5270,-0.4524,0.0416,-0.0367
0.5350,-0.4524,0.0420,-0.0367
0.5430,-0.4524,0.0421,-0.0370
0.5510,-0.4524,0.0419,-0.0378
0.5590,-0.4524,0.0416,-0.0391
0.5670,-0.4524,0.0411,-0.0409
0.5750,-0.4524,0.0406,-0.0431
0.5830,-0.4524,0.0403,-0.0456
0.5910,-0.4524,0.0402,-0.0481
0.5990,-0.4524,0.0405,-0.0505
0.6070,-0.4524,0.0410,-0.0526
0.6150,-0.4524,0.0418,-0.0543
0.6230,-0.4524,0.0426,-0.0556
0.6310,-0.4524,0.0433,-0.0564
0.6390,-0.4525,0.0438,-0.0567
0.6470,-0.4525,0.0441,-0.0566
0.6550,-0.4525,0.0443,-0.0564
0.6630,-0.4525,0.0443,-0.0560
0.6710,-0.4525,0.0441,-0.0558
0.6790,-0.4525,0.0438,-0.0558
0.6870,-0.4525,0.0434,-0.0560
0.6950,-0.4525,0.0427,-0.0567
0.7030,-0.4525,0.0418,-0.0576
0.7110,-0.4525,0.0406,-0.0588
0.7190,-0.4525,0.0393,-0.0601
0.7270,-0.4525,0.0380,-0.0614
0.7350,-0.4525,0.0369,-0.0627
0.7430,-0.4525,0.0363,-0.0640
0.7510,-0.4525,0.0365,-0.0651
0.7590,-0.4525,0.0373,-0.0661
0.7670,-0.4525,0.0389,-0.0671
0.7750,-0.4525,0.0410,-0.0680
0.7830,-0.4525,0.0434,-0.0688
0.7910,-0.4525,0.0458,-0.0696
0.7990,-0.4525,0.0479,-0.0704
0.8070,-0.4525,0.0498,-0.0710
0.8150,-0.4525,0.0514,-0.0716
0.8230,-0.4525,0.0527,-0.0721
0.8310,-0.4525,0.0537,-0.0723
0.8390,-0.4525,0.0546,-0.0722
0.8470,-0.4525,0.0551,-0.0717
0.8550,-0.4525,0.0554,-0.0708
0.8630,-0.4525,0.0552,-0.0695
0.8710,-0.4525,0.0546,-0.0680
0.8790,-0.4525,0.0537,-0.0662
0.8870,-0.4525,0.0525,-0.0644
0.8950,-0.4525,0.0513,-0.0624
0.9030,-0.4525,0.0501,-0.0602
0.9110,-0.4525,0.0491,-0.0577
0.9190,-0.4525,0.0484,-0.0547
0.9270,-0.4525,0.0477,-0.0513
0.9350,-0.4525,0.0471,-0.0476
0.9430,-0.4525,0.0464,-0.0436
0.9510,-0.4525,0.0456,-0.0397
0.9590,-0.4525,0.0446,-0.0362
0.9670,-0.4525,0.0435,-0.0335
0.9750,-0.4525,0.0422,-0.0316
0.9830,-0.4525,0.0409,-0.0306
0.9910,-0.4525,0.0398,-0.0303
0.9990,-0.4525,0.0387,-0.0306
1.0070,-0.4525,0.0379,-0.0313
1.0150,-0.4525,0.0371,-0.0320
1.0230,-0.4525,0.0365,-0.0325
1.0310,-0.4525,0.0359,-0.0328
1.0390,-0.4525,0.0354,-0.0327
1.0470,-0.4526,0.0349,-0.0323
1.0550,-0.4526,0.0346,-0.0317
1.0630,-0.4526,0.0345,-0.0308
1.0710,-0.4526,0.0348,-0.0299
1.0790,-0.4525,0.0353,-0.0289
1.0870,-0.4524,0.0362,-0.0280
1.0950,-0.4522,0.0371,-0.0272
1.1030,-0.4520,0.0380,-0.0264
1.1110,-0.4518,0.0388,-0.0258
1.1190,-0.4516,0.0393,-0.0250
1.1270,-0.4514,0.0395,-0.0242
1.1350,-0.4513,0.0392,-0.0232
1.1430,-0.4512,0.0386,-0.0220
1.1510,-0.4512,0.0377,-0.0206
1.1590,-0.4511,0.0365,-0.0189
1.1670,-0.4512,0.0351,-0.0172
1.1750,-0.4512,0.0338,-0.0156
1.1830,-0.4512,0.0325,-0.0141
1.1910,-0.4512,0.0314,-0.0130
1.1990,-0.4513,0.0306,-0.0124
1.2070,-0.4513,0.0302,-0.0125
1.2150,-0.4513,0.0301,-0.0131
1.2230,-0.4513,0.0303,-0.0144
1.2310,-0.4513,0.0308,-0.0161
1.2390,-0.4512,0.0315,-0.0180
1.2470,-0.4512,0.0321,-0.0199
1.2550,-0.4512,0.0324,-0.0215
1.2630,-0.4512,0.0324,-0.0226
1.2710,-0.4512,0.0319,-0.0229
1.2790,-0.4512,0.0310,-0.0228
1.2870,-0.4513,0.0298,-0.0223
1.2950,-0.4513,0.0288,-0.0218
1.3030,-0.4513,0.0281,-0.0217
1.3110,-0.4514,0.0278,-0.0219
1.3190,-0.4514,0.0279,-0.0224
1.3270,-0.4513,0.0283,-0.0229
1.3350,-0.4512,0.0287,-0.0231
1.3430,-0.4511,0.0289,-0.0225
1.3510,-0.4509,0.0288,-0.0213
1.3590,-0.4507,0.0285,-0.0195
1.3670,-0.4506,0.0280,-0.0178
1.3750,-0.4507,0.0278,-0.0168
1.3830,-0.4509,0.0282,-0.0175
1.3910,-0.4514,0.0297,-0.0205
1.3990,-0.4521,0.0326,-0.0265
1.4070,-0.4529,0.0371,-0.0360
1.4150,-0.4536,0.0435,-0.0492
1.4230,-0.4536,0.0516,-0.0659
1.4310,-0.4527,0.0612,-0.0857
1.4390,-0.4501,0.0718,-0.1075
1.4470,-0.4456,0.0826,-0.1299
1.4550,-0.4386,0.0927,-0.1514
1.4630,-0.4291,0.1012,-0.1701
1.4710,-0.4170,0.1073,-0.1847
1.4790,-0.4025,0.1102,-0.1942
1.4870,-0.3860,0.1098,-0.1987
1.4950,-0.3678,0.1062,-0.1985
1.5030,-0.3486,0.1000,-0.1947
1.5110,-0.3286,0.0917,-0.1889
1.5190,-0.3082,0.0823,-0.1824
1.5270,-0.2875,0.0725,-0.1767
1.5350,-0.2665,0.0628,-0.1725
1.5430,-0.2450,0.0537,-0.1705
1.5510,-0.2227,0.0453,-0.1704
1.5590,-0.1991,0.0375,-0.1720
1.5670,-0.1739,0.0300,-0.1745
1.5750,-0.1467,0.0226,-0.1770
1.5820,-0.1172,0.0149,-0.1786
1.5900,-0.0855,0.0065,-0.1787
1.5980,-0.0517,-0.0027,-0.1769
1.6060,-0.0161,-0.0129,-0.1729
1.6140,0.0207,-0.0242,-0.1670
1.6220,0.0584,-0.0363,-0.1598
1.6300,0.0966,-0.0490,-0.1518
1.6380,0.1351,-0.0623,-0.1438
1.6460,0.1741,-0.0760,-0.1361
1.6540,0.2136,-0.0901,-0.1288
1.6620,0.2542,-0.1049,-0.1217
1.6700,0.2961,-0.1204,-0.1141
1.6780,0.3400,-0.1370,-0.1052
1.6860,0.3860,-0.1548,-0.0941
1.6940,0.4343,-0.1740,-0.0804
1.7020,0.4848,-0.1944,-0.0640
1.7100,0.5371,-0.2159,-0.0455
1.7180,0.5909,-0.2383,-0.0256
1.7260,0.6459,-0.2614,-0.0052
1.7340,0.7017,-0.2851,0.0147
1.7420,0.7584,-0.3091,0.0337
1.7500,0.8160,-0.3335,0.0514
1.7580,0.8746,-0.3582,0.0680
1.7660,0.9343,-0.3833,0.0840
1.7740,0.9955,-0.4089,0.0999
1.7820,1.0582,-0.4352,0.1163
1.7900,1.1226,-0.4623,0.1340
1.7980,1.1885,-0.4904,0.1535
1.8060,1.2558,-0.5197,0.1752
1.8140,1.3243,-0.5501,0.1992
1.8220,1.3935,-0.5814,0.2255
1.8300,1.4632,-0.6134,0.2538
1.8380,1.5330,-0.6457,0.2837
1.8460,1.6028,-0.6781,0.3146
1.8540,1.6730,-0.7104,0.3459
1.8620,1.7437,-0.7425,0.3771
1.8700,1.8157,-0.7747,0.4077
1.8780,1.8897,-0.8074,0.4374
1.8860,1.9663,-0.8408,0.4661
1.8940,2.0458,-0.8754,0.4939
1.9020,2.1281,-0.9112,0.5210
1.9100,2.2128,-0.9482,0.5475
1.9180,2.2995,-0.9860,0.5740
1.9260,2.3873,-1.0246,0.6007
1.9340,2.4759,-1.0635,0.6281
1.9420,2.5647,-1.1028,0.6566
1.9500,2.6539,-1.1425,0.6865
1.9580,2.7435,-1.1828,0.7179
1.9660,2.8340,-1.2239,0.7511
1.9740,2.9259,-1.2659,0.7860
1.9820,3.0195,-1.3091,0.8227
1.9900,3.1151,-1.3533,0.8609
1.9980,3.2130,-1.3986,0.9005
2.0060,3.3127,-1.4447,0.9409
2.0140,3.4141,-1.4913,0.9817
2.0220,3.5164,-1.5379,1.0221
2.0300,3.6193,-1.5843,1.0617
2.0380,3.7221,-1.6301,1.0999
2.0460,3.8248,-1.6751,1.1366
2.0540,3.9276,-1.7193,1.1718
2.0620,4.0308,-1.7629,1.2061
2.0700,4.1353,-1.8064,1.2400
2.0780,4.2418,-1.8501,1.2746
2.0860,4.3513,-1.8947,1.3107
2.0940,4.4641,-1.9407,1.3493
2.1020,4.5804,-1.9886,1.3908
2.1100,4.6997,-2.0385,1.4357
2.1180,4.8212,-2.0905,1.4839
2.1260,4.9439,-2.1445,1.5349
2.1340,5.0665,-2.2002,1.5883
2.1420,5.1882,-2.2569,1.6431
2.1500,5.3085,-2.3144,1.6987
2.1580,5.4274,-2.3720,1.7544
2.1660,5.5455,-2.4294,1.8098
2.1740,5.6637,-2.4865,1.8647
2.1820,5.7834,-2.5433,1.9192
2.1900,5.9058,-2.6002,1.9734
2.1980,6.0320,-2.6575,2.0276
2.2060,6.1622,-2.7156,2.0819
2.2140,6.2962,-2.7746,2.1367
2.2220,6.4335,-2.8348,2.1919
2.2300,6.5729,-2.8960,2.2480
2.2380,6.7136,-2.9584,2.3052
2.2460,6.8546,-3.0218,2.3638
2.2540,6.9956,-3.0861,2.4237
2.2620,7.1362,-3.1514,2.4850
2.2700,7.2768,-3.2174,2.5470
2.2780,7.4175,-3.2840,2.6093
2.2860,7.5590,-3.3508,2.6709
2.2940,7.7016,-3.4175,2.7312
2.3020,7.8457,-3.4837,2.7896
2.3100,7.9916,-3.5492,2.8460
2.3180,8.1392,-3.6139,2.9006
2.3260,8.2883,-3.6779,2.9540
2.3340,8.4385,-3.7413,3.0069
2.3420,8.5893,-3.8045,3.0605
2.3500,8.7401,-3.8680,3.1156
2.3580,8.8906,-3.9321,3.1732
2.3660,9.0412,-3.9973,3.2337
2.3740,9.1922,-4.0641,3.2972
2.3820,9.3449,-4.1327,3.3634
2.3900,9.5004,-4.2031,3.4319
2.3980,9.6596,-4.2755,3.5018
2.4060,9.8231,-4.3493,3.5725
2.4140,9.9908,-4.4242,3.6434
2.4220,10.1616,-4.4997,3.7140
2.4300,10.3343,-4.5754,3.7842
2.4380,10.5073,-4.6510,3.8544
2.4460,10.6793,-4.7266,3.9250
2.4540,10.8492,-4.8025,3.9967
2.4620,11.0170,-4.8791,4.0703
2.4700,11.1831,-4.9567,4.1462
2.4780,11.3487,-5.0356,4.2246
2.4860,11.5153,-5.1160,4.3054
2.4940,11.6847,-5.1977,4.3879
2.5020,11.8581,-5.2804,4.4713
2.5100,12.0362,-5.3637,4.5546
2.5180,12.2189,-5.4472,4.6370
2.5260,12.4051,-5.5303,4.7178
2.5340,12.5937,-5.6128,4.7971
2.5420,12.7832,-5.6946,4.8751
2.5500,12.9726,-5.7758,4.9525
2.5580,13.1614,-5.8566,5.0303
2.5660,13.3493,-5.9376,5.1095
2.5740,13.5369,-6.0192,5.1906
2.5820,13.7248,-6.1019,5.2742
2.5900,13.9137,-6.1862,5.3599
2.5980,14.1041,-6.2725,5.4473
2.6060,14.2965,-6.3608,5.5352
2.6140,14.4910,-6.4510,5.6226
2.6220,14.6874,-6.5424,5.7081
2.6300,14.8852,-6.6344,5.7908
2.6370,15.0836,-6.7258,5.8702
2.6450,15.2819,-6.8159,5.9463
2.6530,15.4793,-6.9040,6.0197
2.6610,15.6756,-6.9900,6.0917
2.6690,15.8710,-7.0740,6.1635
2.6770,16.0661,-7.1570,6.2370
2.6850,16.2624,-7.2398,6.3136
2.6930,16.4614,-7.3238,6.3946
2.7010,16.6646,-7.4100,6.4807
2.7090,16.8729,-7.4989,6.5718
2.7170,17.0865,-7.5909,6.6672
2.7250,17.3046,-7.6856,6.7656
2.7330,17.5257,-7.7822,6.8653
2.7410,17.7480,-7.8800,6.9644
2.7490,17.9700,-7.9781,7.0614
2.7570,18.1905,-8.0761,7.1551
2.7650,18.4092,-8.1738,7.2450
2.7730,18.6264,-8.2713,7.3315
2.7810,18.8431,-8.3690,7.4157
2.7890,19.0604,-8.4675,7.4991
2.7970,19.2797,-8.5672,7.5840
2.8050,19.5021,-8.6688,7.6725
2.8130,19.7281,-8.7725,7.7667
2.8210,19.9578,-8.8786,7.8678
2.8290,20.1906,-8.9869,7.9761
2.8370,20.4252,-9.0971,8.0911
2.8450,20.6601,-9.2084,8.2111
2.8530,20.8941,-9.3199,8.3339
2.8610,21.1260,-9.4307,8.4570
2.8690,21.3554,-9.5403,8.5783
2.8770,21.5824,-9.6484,8.6960
2.8850,21.8081,-9.7553,8.8096
2.8930,22.0337,-9.8617,8.9193
2.9010,22.2608,-9.9687,9.0263
2.9090,22.4907,-10.0772,9.1322
2.9170,22.7238,-10.1877,9.2388
2.9250,22.9600,-10.3001,9.3474
2.9330,23.1981,-10.4140,9.4588
2.9410,23.4366,-10.5283,9.5733
2.9490,23.6737,-10.6418,9.6904
2.9570,23.9080,-10.7537,9.8094
2.9650,24.1384,-10.8637,9.9292
2.9730,24.3647,-10.9719,10.0489
2.9810,24.5879,-11.0793,10.1676
2.9890,24.8092,-11.1871,10.2848
2.9970,25.0308,-11.2968,10.4004
3.0050,25.2545,-11.4095,10.5146
3.0130,25.4820,-11.5260,10.6277
3.0210,25.7140,-11.6462,10.7405
3.0290,25.9501,-11.7693,10.8536
3.0370,26.1892,-11.8939,10.9675
3.0450,26.4295,-12.0182,11.0821
3.0530,26.6693,-12.1407,11.1974
3.0610,26.9073,-12.2602,11.3127
3.0690,27.1429,-12.3761,11.4275
3.0770,27.3761,-12.4883,11.5413
3.0850,27.6072,-12.5971,11.6541
3.0930,27.8372,-12.7032,11.7662
3.1010,28.0668,-12.8078,11.8781
3.1090,28.2967,-12.9117,11.9907
3.1170,28.5274,-13.0162,12.1046
3.1250,28.7588,-13.1219,12.2199
3.1330,28.9908,-13.2295,12.3363
3.1410,29.2227,-13.3389,12.4532
3.1490,29.4538,-13.4497,12.5695
3.1570,29.6833,-13.5611,12.6843
3.1650,29.9104,-13.6722,12.7970
3.1730,30.1348,-13.7820,12.9077
3.1810,30.3570,-13.8899,13.0170
3.1890,30.5778,-13.9959,13.1261
3.1970,30.7989,-14.1004,13.2368
3.2050,31.0221,-14.2042,13.3506
3.2130,31.2491,-14.3083,13.4686
3.2210,31.4810,-14.4136,13.5911
3.2290,31.7176,-14.5205,13.7175
3.2370,31.9580,-14.6290,13.8461
3.2450,32.2000,-14.7390,13.9750
3.2530,32.4413,-14.8499,14.1019
3.2610,32.6798,-14.9609,14.2247
3.2690,32.9138,-15.0715,14.3423
3.2770,33.1428,-15.1811,14.4543
3.2850,33.3673,-15.2897,14.5612
3.2930,33.5886,-15.3973,14.6643
3.3010,33.8091,-15.5043,14.7654
3.3090,34.0312,-15.6110,14.8664
3.3170,34.2568,-15.7179,14.9691
3.3250,34.4874,-15.8253,15.0747
3.3330,34.7231,-15.9330,15.1839
3.3410,34.9629,-16.0408,15.2966
3.3490,35.2052,-16.1483,15.4121
3.3570,35.4479,-16.2553,15.5294
3.3650,35.6891,-16.3619,15.6474
3.3730,35.9277,-16.4686,15.7647
3.3810,36.1631,-16.5762,15.8805
3.3890,36.3958,-16.6854,15.9940
3.3970,36.6265,-16.7971,16.1049
3.4050,36.8561,-16.9114,16.2135
3.4130,37.0859,-17.0282,16.3199
3.4210,37.3167,-17.1471,16.4247
3.4290,37.5489,-17.2669,16.5283
3.4370,37.7827,-17.3865,16.6311
3.4450,38.0176,-17.5043,16.7333
3.4530,38.2527,-17.6192,16.8351
3.4610,38.4868,-17.7302,16.9366
3.4690,38.7185,-17.8367,17.0383
3.4770,38.9467,-17.9391,17.1408
3.4850,39.1709,-18.0384,17.2452
3.4930,39.3916,-18.1363,17.3525
3.5010,39.6100,-18.2348,17.4640
3.5090,39.8285,-18.3361,17.5805
3.5170,40.0498,-18.4419,17.7022
3.5250,40.2762,-18.5529,17.8285
3.5330,40.5091,-18.6693,17.9578
3.5410,40.7486,-18.7899,18.0877
3.5490,40.9930,-18.9130,18.2154
3.5570,41.2399,-19.0364,18.3383
3.5650,41.4864,-19.1580,18.4547
3.5730,41.7300,-19.2763,18.5638
3.5810,41.9690,-19.3903,18.6662
3.5890,42.2030,-19.4997,18.7639
3.5970,42.4326,-19.6053,18.8596
3.6050,42.6595,-19.7083,18.9561
3.6130,42.8857,-19.8107,19.0564
3.6210,43.1133,-19.9141,19.1625
3.6290,43.3438,-20.0202,19.2753
3.6370,43.5781,-20.1299,19.3944
3.6450,43.8159,-20.2434,19.5181
3.6530,44.0564,-20.3602,19.6443
3.6610,44.2979,-20.4795,19.7703
3.6690,44.5389,-20.6002,19.8942
3.6770,44.7782,-20.7212,20.0145
3.6850,45.0150,-20.8419,20.1309
3.6920,45.2495,-20.9616,20.2438
3.7000,45.4822,-21.0800,20.3544
3.7080,45.7143,-21.1967,20.4639
3.7160,45.9468,-21.3114,20.5737
3.7240,46.1810,-21.4237,20.6845
3.7320,46.4174,-21.5336,20.7966
3.7400,46.6560,-21.6412,20.9096
3.7480,46.8962,-21.7466,21.0229
3.7560,47.1369,-21.8505,21.1353
3.7640,47.3768,-21.9534,21.2461
3.7720,47.6146,-22.0562,21.3546
3.7800,47.8493,-22.1594,21.4603
3.7880,48.0805,-22.2638,21.5634
3.7960,48.3086,-22.3698,21.6641
3.8040,48.5348,-22.4778,21.7633
3.8120,48.7608,-22.5880,21.8618
3.8200,48.9887,-22.7006,21.9608
3.8280,49.2201,-22.8153,22.0614
3.8360,49.4562,-22.9317,22.1649
3.8440,49.6968,-23.0492,22.2720
3.8520,49.9409,-23.1667,22.3829
3.8600,50.1867,-23.2833,22.4974
3.8680,50.4324,-23.3980,22.6144
3.8760,50.6761,-23.5104,22.7325
3.8840,50.9172,-23.6204,22.8502
3.8920,51.1556,-23.7285,22.9659
3.9000,51.3920,-23.8356,23.0785
3.9080,51.6274,-23.9431,23.1874
3.9160,51.8631,-24.0521,23.2925
3.9240,52.0998,-24.1636,23.3941
3.9320,52.3376,-24.2779,23.4931
3.9400,52.5757,-24.3946,23.5904
3.9480,52.8128,-24.5126,23.6870
3.9560,53.0470,-24.6304,23.7836
3.9640,53.2764,-24.7463,23.8811
3.9720,53.5000,-24.8589,23.9802
3.9800,53.7179,-24.9677,24.0813
3.9880,53.9318,-25.0730,24.1854
3.9960,54.1446,-25.1763,24.2933
4.0040,54.3603,-25.2796,24.4057
4.0120,54.5828,-25.3852,24.5230
4.0200,54.8148,-25.4948,24.6451
4.0280,55.0575,-25.6093,24.7707
4.0360,55.3099,-25.7286,24.8980
4.0440,55.5694,-25.8515,25.0246
4.0520,55.8324,-25.9765,25.1483
4.0600,56.0948,-26.1016,25.2672
4.0680,56.3532,-26.2255,25.3807
4.0760,56.6053,-26.3471,25.4892
4.0840,56.8499,-26.4658,25.5941
4.0920,57.0872,-26.5814,25.6970
4.1000,57.3184,-26.6941,25.8001
4.1080,57.5454,-26.8044,25.9049
4.1160,57.7707,-26.9130,26.0124
4.1240,57.9969,-27.0205,26.1228
4.1320,58.2263,-27.1280,26.2358
4.1400,58.4603,-27.2364,26.3505
4.1480,58.6995,-27.3465,26.4655
4.1560,58.9433,-27.4589,26.5798
4.1640,59.1903,-27.5737,26.6919
4.1720,59.4387,-27.6908,26.8013
4.1800,59.6866,-27.8098,26.9078
4.1880,59.9328,-27.9301,27.0118
4.1960,60.1767,-28.0512,27.1144
4.2040,60.4182,-28.1724,27.2169
4.2120,60.6579,-28.2933,27.3207
4.2200,60.8965,-28.4133,27.4265
4.2280,61.1350,-28.5322,27.5349
4.2360,61.3740,-28.6496,27.6456
4.2440,61.6139,-28.7654,27.7581
4.2520,61.8548,-28.8796,27.8714
4.2600,62.0964,-28.9925,27.9843
4.2680,62.3382,-29.1041,28.0960
4.2760,62.5793,-29.2148,28.2054
4.2840,62.8188,-29.3247,28.3121
4.2920,63.0559,-29.4341,28.4160
4.3000,63.2905,-29.5429,28.5176
4.3080,63.5228,-29.6515,28.6175
4.3160,63.7537,-29.7603,28.7172
4.3240,63.9849,-29.8699,28.8181
4.3320,64.2184,-29.9811,28.9218
4.3400,64.4558,-30.0946,29.0292
4.3480,64.6981,-30.2109,29.1411
4.3560,64.9453,-30.3298,29.2569
4.3640,65.1962,-30.4506,29.3754
4.3720,65.4487,-30.5722,29.4948
4.3800,65.7003,-30.6931,29.6129
4.3880,65.9488,-30.8122,29.7275
4.3960,66.1925,-30.9287,29.8373
4.4040,66.4308,-31.0424,29.9417
4.4120,66.6643,-31.1537,30.0412
4.4200,66.8945,-31.2634,30.1372
4.4280,67.1237,-31.3727,30.2315
4.4360,67.3546,-31.4825,30.3262
4.4440,67.5892,-31.5933,30.4230
4.4520,67.8290,-31.7053,30.5229
4.4600,68.0741,-31.8180,30.6261
4.4680,68.3234,-31.9309,30.7324
4.4760,68.5751,-32.0438,30.8412
4.4840,68.8269,-32.1568,30.9521
4.4920,69.0769,-32.2706,31.0646
4.5000,69.3238,-32.3864,31.1789
4.5080,69.5668,-32.5055,31.2947
4.5160,69.8060,-32.6289,31.4119
4.5240,70.0417,-32.7567,31.5301
4.5320,70.2746,-32.8884,31.6486
4.5400,70.5050,-33.0225,31.7666
4.5480,70.7331,-33.1570,31.8832
4.5560,70.9587,-33.2895,31.9981
4.5640,71.1818,-33.4184,32.1112
4.5720,71.4024,-33.5424,32.2228
4.5800,71.6210,-33.6612,32.3337
4.5880,71.8383,-33.7756,32.4449
4.5960,72.0554,-33.8865,32.5572
4.6040,72.2732,-33.9955,32.6713
4.6120,72.4926,-34.1040,32.7874
4.6200,72.7139,-34.2133,32.9050
4.6280,72.9370,-34.3244,33.0235
4.6360,73.1617,-34.4379,33.1419
4.6440,73.3873,-34.5541,33.2592
4.6520,73.6133,-34.6731,33.3748
4.6600,73.8388,-34.7943,33.4879
4.6680,74.0631,-34.9169,33.5981
4.6760,74.2852,-35.0399,33.7051
4.6840,74.5042,-35.1618,33.8090
4.6920,74.7198,-35.2814,33.9099
4.7000,74.9314,-35.3978,34.0082
4.7080,75.1394,-35.5101,34.1042
4.7160,75.3442,-35.6178,34.1984
4.7240,75.5463,-35.7209,34.2913
4.7320,75.7467,-35.8196,34.3831
4.7400,75.9458,-35.9146,34.4740
4.7470,76.1443,-36.0068,34.5638
4.7550,76.3422,-36.0975,34.6525
4.7630,76.5398,-36.1878,34.7400
4.7710,76.7365,-36.2788,34.8263
4.7790,76.9321,-36.3715,34.9117
4.7870,77.1257,-36.4665,34.9967
4.7950,77.3168,-36.5639,35.0818
4.8030,77.5048,-36.6638,35.1679
4.8110,77.6894,-36.7658,35.2555
4.8190,77.8710,-36.8695,35.3451
4.8270,78.0503,-36.9742,35.4373
4.8350,78.2285,-37.0796,35.5321
4.8430,78.4071,-37.1853,35.6296
4.8510,78.5874,-37.2906,35.7293
4.8590,78.7699,-37.3953,35.8304
4.8670,78.9548,-37.4984,35.9318
4.8750,79.1410,-37.5994,36.0318
4.8830,79.3271,-37.6971,36.1284
4.8910,79.5112,-37.7910,36.2201
4.8990,79.6918,-37.8806,36.3055
4.9070,79.8677,-37.9661,36.3841
4.9150,80.0386,-38.0482,36.4562
4.9230,80.2049,-38.1282,36.5232
4.9310,80.3678,-38.2078,36.5872
4.9390,80.5288,-38.2890,36.6504
4.9470,80.6899,-38.3732,36.7153
4.9550,80.8523,-38.4616,36.7835
4.9630,81.0171,-38.5543,36.8560
4.9710,81.1842,-38.6508,36.9328
4.9790,81.3529,-38.7497,37.0132
4.9870,81.5219,-38.8496,37.0959
4.9950,81.6898,-38.9485,37.1795
5.0030,81.8553,-39.0451,37.2628
5.0110,82.0176,-39.1383,37.3449
5.0190,82.1765,-39.2276,37.4255
5.0270,82.3321,-39.3130,37.5046
5.0350,82.4851,-39.3948,37.5825
5.0430,82.6360,-39.4737,37.6593
5.0510,82.7855,-39.5503,37.7352
5.0590,82.9340,-39.6252,37.8101
5.0670,83.0818,-39.6987,37.8838
5.0750,83.2288,-39.7714,37.9558
5.0830,83.3750,-39.8434,38.0259
5.0910,83.5200,-39.9150,38.0938
5.0990,83.6633,-39.9865,38.1594
5.1070,83.8046,-40.0583,38.2228
5.1150,83.9436,-40.1307,38.2843
5.1230,84.0803,-40.2041,38.3440
5.1310,84.2148,-40.2788,38.4023
5.1390,84.3474,-40.3549,38.4596
5.1470,84.4786,-40.4323,38.5165
5.1550,84.6090,-40.5107,38.5733
5.1630,84.7389,-40.5894,38.6304
5.1710,84.8683,-40.6679,38.6880
5.1790,84.9972,-40.7455,38.7463
5.1870,85.1256,-40.8217,38.8052
5.1950,85.2532,-40.8964,38.8645
5.2030,85.3803,-40.9699,38.9242
5.2110,85.5068,-41.0425,38.9841
5.2190,85.6331,-41.1146,39.0441
5.2270,85.7588,-41.1861,39.1039
5.2350,85.8838,-41.2572,39.1635
5.2430,86.0078,-41.3273,39.2228
5.2510,86.1306,-41.3963,39.2818
5.2590,86.2521,-41.4638,39.3406
5.2670,86.3725,-41.5298,39.3992
5.2750,86.4919,-41.5942,39.4574
5.2830,86.6103,-41.6573,39.5148
5.2910,86.7276,-41.7192,39.5710
5.2990,86.8435,-41.7802,39.6252
5.3070,86.9575,-41.8405,39.6768
5.3150,87.0695,-41.9003,39.7256
5.3230,87.1794,-41.9598,39.7714
5.3310,87.2871,-42.0190,39.8145
5.3390,87.3929,-42.0780,39.8555
5.3470,87.4971,-42.1365,39.8953
5.3550,87.6000,-42.1944,39.9347
5.3630,87.7018,-42.2516,39.9747
5.3710,87.8027,-42.3078,40.0158
5.3790,87.9025,-42.3630,40.0583
5.3870,88.0013,-42.4170,40.1022
5.3950,88.0987,-42.4697,40.1468
5.4030,88.1943,-42.5214,40.1914
5.4110,88.2880,-42.5720,40.2349
5.4190,88.3795,-42.6218,40.2765
5.4270,88.4687,-42.6712,40.3156
5.4350,88.5558,-42.7206,40.3520
5.4430,88.6412,-42.7703,40.3859
5.4510,88.7254,-42.8206,40.4180
5.4590,88.8092,-42.8716,40.4491
5.4670,88.8931,-42.9233,40.4802
5.4750,88.9774,-42.9755,40.5120
5.4830,89.0621,-43.0274,40.5448
5.4910,89.1467,-43.0786,40.5787
5.4990,89.2306,-43.1281,40.6131
5.5070,89.3130,-43.1754,40.6476
5.5150,89.3932,-43.2202,40.6814
5.5230,89.4709,-43.2625,40.7140
5.5310,89.5458,-43.3027,40.7453
5.5390,89.6183,-43.3416,40.7754
5.5470,89.6887,-43.3802,40.8046
5.5550,89.7574,-43.4193,40.8336
5.5630,89.8250,-43.4597,40.8626
5.5710,89.8918,-43.5016,40.8918
5.5790,89.9580,-43.5449,40.9211
5.5870,90.0236,-43.5889,40.9500
5.5950,90.0885,-43.6329,40.9781
5.6030,90.1522,-43.6758,41.0050
5.6110,90.2144,-43.7170,41.0304
5.6190,90.2750,-43.7558,41.0543
5.6270,90.3335,-43.7921,41.0768
5.6350,90.3901,-43.8257,41.0983
5.6430,90.4448,-43.8571,41.1194
5.6510,90.4979,-43.8867,41.1406
5.6590,90.5499,-43.9151,41.1625
5.6670,90.6010,-43.9431,41.1852
5.6750,90.6514,-43.9712,41.2089
5.6830,90.7013,-44.0000,41.2332
5.6910,90.7505,-44.0297,41.2577
5.6990,90.7988,-44.0605,41.2817
5.7070,90.8457,-44.0921,41.3043
5.7150,90.8910,-44.1241,41.3251
5.7230,90.9343,-44.1560,41.3435
5.7310,90.9755,-44.1869,41.3594
5.7390,91.0147,-44.2165,41.3731
5.7470,91.0522,-44.2443,41.3850
5.7550,91.0883,-44.2700,41.3957
5.7630,91.1234,-44.2939,41.4060
5.7710,91.1578,-44.3163,41.4164
5.7790,91.1919,-44.3376,41.4275
5.7870,91.2256,-44.3583,41.4393
5.7950,91.2588,-44.3789,41.4519
5.8020,91.2912,-44.3998,41.4652
5.8100,91.3224,-44.4213,41.4787
5.8180,91.3520,-44.4433,41.4921
5.8260,91.3799,-44.4659,41.5051
5.8340,91.4057,-44.4889,41.5175
5.8420,91.4298,-44.5119,41.5290
5.8500,91.4520,-44.5346,41.5395
5.8580,91.4727,-44.5565,41.5490
5.8660,91.4919,-44.5770,41.5574
5.8740,91.5099,-44.5958,41.5650
5.8820,91.5266,-44.6125,41.5719
5.8900,91.5419,-44.6270,41.5785
5.8980,91.5557,-44.6394,41.5849
5.9060,91.5677,-44.6501,41.5913
5.9140,91.5778,-44.6593,41.5977
5.9220,91.5859,-44.6675,41.6040
5.9300,91.5919,-44.6750,41.6098
5.9380,91.5961,-44.6820,41.6148
5.9460,91.5986,-44.6884,41.6184
5.9540,91.5997,-44.6939,41.6203
5.9620,91.6000,-44.6984,41.6200
5.9700,91.5998,-44.7015,41.6175
5.9780,91.5995,-44.7030,41.6130
5.9860,91.5992,-44.7030,41.6069
5.9940,91.5991,-44.7018,41.5998
6.0020,91.5993,-44.6999,41.5927
6.0100,91.5996,-44.6978,41.5862
6.0180,91.5997,-44.6961,41.5809
6.0260,91.5993,-44.6955,41.5771
6.0340,91.5980,-44.6961,41.5747
6.0420,91.5953,-44.6981,41.5735
6.0500,91.5910,-44.7015,41.5729
6.0580,91.5846,-44.7057,41.5725
6.0660,91.5759,-44.7104,41.5719
6.0740,91.5650,-44.7149,41.5707
6.0820,91.5517,-44.7187,41.5687
6.0900,91.5363,-44.7212,41.5656
6.0980,91.5190,-44.7218,41.5613
6.1060,91.4999,-44.7205,41.5556
6.1140,91.4795,-44.7170,41.5484
6.1220,91.4579,-44.7117,41.5398
6.1300,91.4353,-44.7049,41.5299
6.1380,91.4118,-44.6971,41.5190
6.1460,91.3872,-44.6889,41.5074
6.1540,91.3616,-44.6807,41.4954
6.1620,91.3349,-44.6727,41.4833
6.1700,91.3068,-44.6651,41.4711
6.1780,91.2772,-44.6574,41.4586
6.1860,91.2462,-44.6495,41.4455
6.1940,91.2137,-44.6408,41.4314
6.2020,91.1797,-44.6307,41.4161
6.2100,91.1443,-44.6191,41.3993
6.2180,91.1077,-44.6057,41.3812
6.2260,91.0700,-44.5905,41.3620
6.2340,91.0315,-44.5739,41.3420
6.2420,90.9921,-44.5561,41.3217
6.2500,90.9518,-44.5375,41.3014
6.2580,90.9107,-44.5186,41.2812
6.2660,90.8683,-44.4996,41.2612
6.2740,90.8244,-44.4806,41.2412
6.2820,90.7786,-44.4615,41.2210
6.2900,90.7307,-44.4422,41.2003
6.2980,90.6805,-44.4223,41.1786
6.3060,90.6282,-44.4016,41.1556
6.3140,90.5742,-44.3797,41.1312
6.3220,90.5188,-44.3565,41.1051
6.3300,90.4624,-44.3317,41.0775
6.3380,90.4053,-44.3052,41.0487
6.3460,90.3478,-44.2771,41.0190
6.3540,90.2898,-44.2477,40.9891
6.3620,90.2312,-44.2172,40.9596
6.3700,90.1716,-44.1862,40.9312
6.3780,90.1109,-44.1552,40.9042
6.3860,90.0486,-44.1247,40.8787
6.3940,89.9847,-44.0949,40.8545
6.4020,89.9191,-44.0660,40.8311
6.4100,89.8518,-44.0379,40.8079
6.4180,89.7831,-44.0104,40.7840
6.4260,89.7133,-43.9835,40.7592
6.4340,89.6428,-43.9569,40.7330
6.4420,89.5717,-43.9305,40.7055
6.4500,89.5001,-43.9042,40.6770
6.4580,89.4279,-43.8777,40.6477
6.4660,89.3547,-43.8507,40.6179
6.4740,89.2800,-43.8228,40.5876
6.4820,89.2032,-43.7934,40.5570
6.4900,89.1239,-43.7619,40.5259
6.4980,89.0418,-43.7280,40.4941
6.5060,88.9570,-43.6915,40.4615
6.5140,88.8700,-43.6525,40.4279
6.5220,88.7812,-43.6114,40.3933
6.5300,88.6915,-43.5683,40.3577
6.5380,88.6015,-43.5236,40.3210
6.5460,88.5119,-43.4777,40.2833
6.5540,88.4227,-43.4307,40.2448
6.5620,88.3339,-43.3828,40.2057
6.5700,88.2450,-43.3344,40.1663
6.5780,88.1551,-43.2856,40.1266
6.5860,88.0633,-43.2369,40.0870
6.5940,87.9689,-43.1885,40.0473
6.6020,87.8712,-43.1407,40.0075
6.6100,87.7703,-43.0936,39.9678
6.6180,87.6665,-43.0470,39.9279
6.6260,87.5605,-43.0006,39.8881
6.6340,87.4530,-42.9541,39.8485
6.6420,87.3446,-42.9071,39.8090
6.6500,87.2358,-42.8591,39.7698
6.6580,87.1267,-42.8100,39.7306
6.6660,87.0173,-42.7599,39.6910
6.6740,86.9071,-42.7091,39.6508
6.6820,86.7960,-42.6580,39.6093
6.6900,86.6836,-42.6071,39.5661
6.6980,86.5696,-42.5565,39.5209
6.7060,86.4540,-42.5063,39.4733
6.7140,86.3370,-42.4564,39.4233
6.7220,86.2186,-42.4064,39.3711
6.7300,86.0993,-42.3558,39.3170
6.7380,85.9795,-42.3042,39.2617
6.7460,85.8596,-42.2512,39.2061
6.7540,85.7398,-42.1966,39.1509
6.7620,85.6199,-42.1405,39.0967
6.7700,85.4997,-42.0828,39.0437
6.7780,85.3781,-42.0237,38.9918
6.7860,85.2542,-41.9631,38.9401
6.7940,85.1268,-41.9010,38.8875
6.8020,84.9953,-41.8372,38.8331
6.8100,84.8593,-41.7714,38.7760
6.8180,84.7194,-41.7038,38.7158
6.8260,84.5767,-41.6344,38.6531
6.8340,84.4326,-41.5637,38.5890
6.8420,84.2888,-41.4923,38.5252
6.8500,84.1466,-41.4211,38.4632
6.8570,84.0070,-41.3509,38.4043
6.8650,83.8703,-41.2825,38.3492
6.8730,83.7358,-41.2164,38.2972
6.8810,83.6023,-41.1523,38.2471
6.8890,83.4679,-41.0897,38.1969
6.8970,83.3306,-41.0274,38.1443
6.9050,83.1887,-40.9642,38.0877
6.9130,83.0410,-40.8990,38.0260
6.9210,82.8875,-40.8311,37.9593
6.9290,82.7289,-40.7604,37.8887
6.9370,82.5668,-40.6874,37.8158
6.9450,82.4032,-40.6126,37.7428
6.9530,82.2398,-40.5371,37.6713
6.9610,82.0779,-40.4615,37.6025
6.9690,81.9179,-40.3861,37.5367
6.9770,81.7596,-40.3109,37.4735
6.9850,81.6023,-40.2355,37.4120
6.9930,81.4447,-40.1592,37.3506
7.0010,81.2856,-40.0811,37.2882
7.0090,81.1240,-40.0005,37.2235
7.0170,80.9594,-39.9170,37.1563
7.0250,80.7918,-39.8305,37.0866
7.0330,80.6218,-39.7416,37.0155
7.0410,80.4504,-39.6510,36.9442
7.0490,80.2788,-39.5598,36.8743
7.0570,80.1081,-39.4689,36.8066
7.0650,79.9388,-39.3791,36.7416
7.0730,79.7709,-39.2907,36.6786
7.0810,79.6036,-39.2035,36.6163
7.0890,79.4354,-39.1172,36.5529
7.0970,79.2646,-39.0313,36.4867
7.1050,79.0898,-38.9453,36.4163
7.1130,78.9099,-38.8590,36.3410
7.1210,78.7248,-38.7726,36.2612
7.1290,78.5354,-38.6862,36.1778
7.1370,78.3432,-38.6003,36.0925
7.1450,78.1499,-38.5149,36.0069
7.1530,77.9573,-38.4301,35.9225
7.1610,77.7663,-38.3452,35.8403
7.1690,77.5776,-38.2594,35.7607
7.1770,77.3909,-38.1717,35.6835
7.1850,77.2051,-38.0810,35.6080
7.1930,77.0189,-37.9865,35.5332
7.2010,76.8307,-37.8875,35.4582
7.2090,76.6392,-37.7840,35.3820
7.2170,76.4438,-37.6767,35.3043
7.2250,76.2443,-37.5669,35.2251
7.2330,76.0413,-37.4563,35.1449
7.2410,75.8361,-37.3468,35.0642
7.2490,75.6298,-37.2401,34.9835
7.2570,75.4237,-37.1372,34.9030
7.2650,75.2185,-37.0385,34.8226
7.2730,75.0143,-36.9434,34.7416
7.2810,74.8107,-36.8508,34.6592
7.2890,74.6069,-36.7591,34.5747
7.2970,74.4017,-36.6664,34.4873
7.3050,74.1940,-36.5712,34.3967
7.3130,73.9832,-36.4723,34.3029
7.3210,73.7688,-36.3686,34.2061
7.3290,73.5514,-36.2601,34.1070
7.3370,73.3315,-36.1469,34.0065
7.3450,73.1105,-36.0297,33.9052
7.3530,72.8898,-35.9097,33.8040
7.3610,72.6703,-35.7881,33.7036
7.3690,72.4530,-35.6661,33.6045
7.3770,72.2377,-35.5450,33.5068
7.3850,72.0238,-35.4254,33.4107
7.3930,71.8099,-35.3080,33.3161
7.4010,71.5939,-35.1928,33.2225
7.4090,71.3741,-35.0799,33.1296
7.4170,71.1489,-34.9692,33.0366
7.4250,70.9178,-34.8607,32.9431
7.4330,70.6811,-34.7540,32.8485
7.4410,70.4402,-34.6488,32.7527
7.4490,70.1967,-34.5444,32.6553
7.4570,69.9523,-34.4393,32.5564
7.4650,69.7084,-34.3321,32.4560
7.4730,69.4655,-34.2210,32.3542
7.4810,69.2239,-34.1045,32.2509
7.4890,68.9831,-33.9817,32.1463
7.4970,68.7426,-33.8524,32.0402
7.5050,68.5016,-33.7176,31.9325
7.5130,68.2597,-33.5786,31.8229
7.5210,68.0168,-33.4377,31.7114
7.5290,67.7729,-33.2970,31.5978
7.5370,67.5286,-33.1587,31.4823
7.5450,67.2847,-33.0244,31.3653
7.5530,67.0420,-32.8951,31.2477
7.5610,66.8016,-32.7711,31.1305
7.5690,66.5641,-32.6519,31.0146
7.5770,66.3298,-32.5360,30.9011
7.5850,66.0982,-32.4216,30.7905
7.5930,65.8680,-32.3062,30.6829
7.6010,65.6375,-32.1876,30.5779
7.6090,65.4045,-32.0637,30.4749
7.6170,65.1674,-31.9337,30.3729
7.6250,64.9250,-31.7978,30.2711
7.6330,64.6775,-31.6575,30.1685
7.6410,64.4262,-31.5152,30.0649
7.6490,64.1732,-31.3740,29.9598
7.6570,63.9212,-31.2368,29.8531
7.6650,63.6724,-31.1058,29.7448
7.6730,63.4285,-30.9819,29.6351
7.6810,63.1899,-30.8651,29.5241
7.6890,62.9562,-30.7537,29.4118
7.6970,62.7257,-30.6452,29.2983
7.7050,62.4961,-30.5364,29.1832
7.7130,62.2650,-30.4240,29.0664
7.7210,62.0301,-30.3055,28.9477
7.7290,61.7902,-30.1791,28.8272
7.7370,61.5452,-30.0449,28.7054
7.7450,61.2963,-29.9039,28.5833
7.7530,61.0450,-29.7587,28.4621
7.7610,60.7936,-29.6123,28.3430
7.7690,60.5437,-29.4678,28.2267
7.7770,60.2965,-29.3278,28.1133
7.7850,60.0523,-29.1937,28.0026
7.7930,59.8109,-29.0663,27.8936
7.8010,59.5715,-28.9449,27.7854
7.8090,59.3332,-28.8283,27.6770
7.8170,59.0951,-28.7144,27.5676
7.8250,58.8566,-28.6011,27.4568
7.8330,58.6173,-28.4864,27.3447
7.8410,58.3773,-28.3686,27.2319
7.8490,58.1370,-28.2470,27.1191
7.8570,57.8972,-28.1215,27.0076
7.8650,57.6587,-27.9928,26.8986
7.8730,57.4225,-27.8625,26.7929
7.8810,57.1891,-27.7322,26.6908
7.8890,56.9585,-27.6037,26.5919
7.8970,56.7300,-27.4782,26.4949
7.9050,56.5022,-27.3561,26.3977
7.9120,56.2733,-27.2369,26.2983
7.9200,56.0413,-27.1197,26.1950
7.9280,55.8051,-27.0031,26.0869
7.9360,55.5640,-26.8859,25.9746
7.9440,55.3187,-26.7673,25.8597
7.9520,55.0710,-26.6469,25.7444
7.9600,54.8232,-26.5250,25.6314
7.9680,54.5775,-26.4020,25.5230
7.9760,54.3358,-26.2782,25.4205
7.9840,54.0990,-26.1540,25.3243
7.9920,53.8671,-26.0297,25.2335
8.0000,53.6388,-25.9053,25.1466
8.0080,53.4121,-25.7808,25.0611
8.0160,53.1845,-25.6563,24.9744
8.0240,52.9536,-25.5319,24.8843
8.0320,52.7180,-25.4078,24.7891
8.0400,52.4771,-25.2845,24.6880
8.0480,52.2317,-25.1625,24.5813
8.0560,51.9835,-25.0422,24.4700
8.0640,51.7349,-24.9236,24.3557
8.0720,51.4881,-24.8064,24.2403
8.0800,51.2448,-24.6895,24.1254
8.0880,51.0059,-24.5718,24.0127
8.0960,50.7710,-24.4521,23.9032
8.1040,50.5393,-24.3296,23.7978
8.1120,50.3091,-24.2041,23.6968
8.1200,50.0787,-24.0759,23.6001
8.1280,49.8467,-23.9460,23.5070
8.1360,49.6122,-23.8157,23.4162
8.1440,49.3751,-23.6866,23.3259
8.1520,49.1359,-23.5598,23.2337
8.1600,48.8958,-23.4363,23.1379
8.1680,48.6563,-23.3166,23.0370
8.1760,48.4188,-23.2006,22.9304
8.1840,48.1845,-23.0880,22.8186
8.1920,47.9538,-22.9777,22.7029
8.2000,47.7264,-22.8685,22.5854
8.2080,47.5012,-22.7589,22.4685
8.2160,47.2766,-22.6473,22.3541
8.2240,47.0504,-22.5323,22.2439
8.2320,46.8210,-22.4129,22.1385
8.2400,46.5872,-22.2889,22.0378
8.2480,46.3489,-22.1609,21.9409
8.2560,46.1069,-22.0305,21.8463
8.2640,45.8628,-21.8997,21.7524
8.2720,45.6184,-21.7707,21.6574
8.2800,45.3751,-21.6454,21.5603
8.2880,45.1340,-21.5251,21.4599
8.2960,44.8954,-21.4100,21.3562
8.3040,44.6590,-21.2996,21.2491
8.3120,44.4243,-21.1923,21.1393
8.3200,44.1903,-21.0863,21.0278
8.3280,43.9565,-20.9797,20.9156
8.3360,43.7221,-20.8709,20.8040
8.3440,43.4870,-20.7589,20.6942
8.3520,43.2511,-20.6435,20.5871
8.3600,43.0150,-20.5255,20.4836
8.3680,42.7791,-20.4059,20.3838
8.3760,42.5444,-20.2862,20.2877
8.3840,42.3115,-20.1680,20.1946
8.3920,42.0811,-20.0522,20.1033
8.4000,41.8530,-19.9395,20.0123
8.4080,41.6266,-19.8294,19.9198
8.4160,41.4007,-19.7212,19.8240
8.4240,41.1735,-19.6135,19.7233
8.4320,40.9433,-19.5047,19.6165
8.4400,40.7089,-19.3937,19.5035
8.4480,40.4699,-19.2798,19.3852
8.4560,40.2273,-19.1627,19.2636
8.4640,39.9826,-19.0431,19.1418
8.4720,39.7383,-18.9217,19.0228
8.4800,39.4965,-18.7997,18.9096
8.4880,39.2591,-18.6779,18.8038
8.4960,39.0269,-18.5569,18.7059
8.5040,38.7998,-18.4372,18.6145
8.5120,38.5764,-18.3184,18.5269
8.5200,38.3548,-18.2002,18.4396
8.5280,38.1326,-18.0818,18.3490
8.5360,37.9076,-17.9628,18.2522
8.5440,37.6781,-17.8427,18.1474
8.5520,37.4435,-17.7217,18.0347
8.5600,37.2043,-17.6003,17.9157
8.5680,36.9620,-17.4793,17.7934
8.5760,36.7186,-17.3597,17.6716
8.5840,36.4762,-17.2420,17.5537
8.5920,36.2363,-17.1266,17.4428
8.6000,36.0002,-17.0134,17.3406
8.6080,35.7681,-16.9018,17.2475
8.6160,35.5402,-16.7911,17.1622
8.6240,35.3157,-16.6803,17.0822
8.6320,35.0939,-16.5685,17.0042
8.6400,34.8735,-16.4549,16.9245
8.6480,34.6532,-16.3393,16.8398
8.6560,34.4316,-16.2216,16.7476
8.6640,34.2076,-16.1024,16.6468
8.6720,33.9804,-15.9828,16.5380
8.6800,33.7498,-15.8642,16.4228
8.6880,33.5164,-15.7479,16.3040
8.6960,33.2815,-15.6349,16.1847
8.7040,33.0464,-15.5257,16.0677
8.7120,32.8124,-15.4197,15.9552
8.7200,32.5799,-15.3154,15.8479
8.7280,32.3487,-15.2106,15.7453
8.7360,32.1174,-15.1030,15.6460
8.7440,31.8848,-14.9905,15.5479
8.7520,31.6497,-14.8720,15.4493
8.7600,31.4115,-14.7478,15.3489
8.7680,31.1709,-14.6194,15.2467
8.7760,30.9292,-14.4893,15.1431
8.7840,30.6884,-14.3607,15.0396
8.7920,30.4502,-14.2365,14.9372
8.8000,30.2161,-14.1188,14.8366
8.8080,29.9868,-14.0087,14.7380
8.8160,29.7620,-13.9056,14.6406
8.8240,29.5402,-13.8078,14.5432
8.8320,29.3197,-13.7127,14.4445
8.8400,29.0981,-13.6172,14.3433
8.8480,28.8736,-13.5188,14.2394
8.8560,28.6449,-13.4157,14.1329
8.8640,28.4118,-13.3072,14.0248
8.8720,28.1752,-13.1937,13.9162
8.8800,27.9366,-13.0766,13.8084
8.8880,27.6976,-12.9572,13.7020
8.8960,27.4597,-12.8373,13.5974
8.9040,27.2239,-12.7179,13.4943
8.9120,26.9905,-12.5999,13.3920
8.9200,26.7592,-12.4835,13.2896
8.9280,26.5295,-12.3689,13.1862
8.9360,26.3007,-12.2558,13.0811
8.9440,26.0722,-12.1440,12.9740
8.9520,25.8437,-12.0329,12.8648
8.9600,25.6150,-11.9220,12.7541
8.9670,25.3863,-11.8108,12.6427
8.9750,25.1576,-11.6987,12.5318
8.9830,24.9294,-11.5856,12.4225
8.9910,24.7019,-11.4715,12.3160
8.9990,24.4753,-11.3570,12.2130
9.0070,24.2498,-11.2426,12.1139
9.0150,24.0254,-11.1291,12.0185
9.0230,23.8017,-11.0172,11.9263
9.0310,23.5777,-10.9072,11.8361
9.0390,23.3525,-10.7990,11.7466
9.0470,23.1248,-10.6925,11.6562
9.0550,22.8938,-10.5869,11.5635
9.0630,22.6590,-10.4817,11.4674
9.0710,22.4211,-10.3762,11.3674
9.0790,22.1814,-10.2699,11.2635
9.0870,21.9415,-10.1623,11.1567
9.0950,21.7030,-10.0534,11.0482
9.1030,21.4672,-9.9427,10.9398
9.1110,21.2345,-9.8303,10.8327
9.1190,21.0049,-9.7160,10.7282
9.1270,20.7776,-9.5999,10.6265
9.1350,20.5513,-9.4821,10.5270
9.1430,20.3248,-9.3624,10.4286
9.1510,20.0971,-9.2412,10.3295
9.1590,19.8674,-9.1187,10.2277
9.1670,19.6359,-8.9954,10.1216
9.1750,19.4031,-8.8721,10.0101
9.1830,19.1703,-8.7495,9.8930
9.1910,18.9391,-8.6284,9.7709
9.1990,18.7108,-8.5097,9.6456
9.2070,18.4868,-8.3935,9.5191
9.2150,18.2674,-8.2800,9.3941
9.2230,18.0526,-8.1687,9.2726
9.2310,17.8414,-8.0588,9.1562
9.2390,17.6323,-7.9492,9.0457
9.2470,17.4238,-7.8390,8.9408
9.2550,17.2143,-7.7274,8.8405
9.2630,17.0029,-7.6139,8.7436
9.2710,16.7895,-7.4988,8.6486
9.2790,16.5749,-7.3826,8.5541
9.2870,16.3602,-7.2664,8.4590
9.2950,16.1470,-7.1513,8.3626
9.3030,15.9369,-7.0384,8.2645
9.3110,15.7307,-6.9285,8.1642
9.3190,15.5289,-6.8221,8.0617
9.3270,15.3314,-6.7193,7.9573
9.3350,15.1373,-6.6196,7.8515
9.3430,14.9453,-6.5225,7.7450
9.3510,14.7541,-6.4272,7.6388
9.3590,14.5624,-6.3328,7.5342
9.3670,14.3695,-6.2388,7.4319
9.3750,14.1753,-6.1446,7.3328
9.3830,13.9802,-6.0499,7.2368
9.3910,13.7852,-5.9545,7.1435
9.3990,13.5911,-5.8582,7.0518
9.4070,13.3990,-5.7612,6.9603
9.4150,13.2094,-5.6636,6.8677
9.4230,13.0226,-5.5659,6.7728
9.4310,12.8384,-5.4688,6.6751
9.4390,12.6564,-5.3730,6.5748
9.4470,12.4762,-5.2791,6.4725
9.4550,12.2972,-5.1878,6.3692
9.4630,12.1191,-5.0993,6.2661
9.4710,11.9417,-5.0134,6.1640
9.4790,11.7649,-4.9297,6.0636
9.4870,11.5891,-4.8476,5.9655
9.4950,11.4147,-4.7663,5.8698
9.5030,11.2424,-4.6852,5.7769
9.5110,11.0728,-4.6041,5.6870
9.5190,10.9062,-4.5228,5.6005
9.5270,10.7427,-4.4415,5.5177
9.5350,10.5818,-4.3603,5.4384
9.5430,10.4223,-4.2793,5.3622
9.5510,10.2631,-4.1981,5.2881
9.5590,10.1026,-4.1166,5.2146
9.5670,9.9401,-4.0342,5.1402
9.5750,9.7751,-3.9506,5.0633
9.5830,9.6084,-3.8660,4.9832
9.5910,9.4411,-3.7807,4.8994
9.5990,9.2750,-3.6956,4.8127
9.6070,9.1118,-3.6119,4.7241
9.6150,8.9529,-3.5307,4.6353
9.6230,8.7988,-3.4530,4.5480
9.6310,8.6496,-3.3792,4.4637
9.6390,8.5042,-3.3094,4.3833
9.6470,8.3614,-3.2427,4.3068
9.6550,8.2194,-3.1781,4.2338
9.6630,8.0767,-3.1142,4.1629
9.6710,7.9322,-3.0495,4.0926
9.6790,7.7856,-2.9831,4.0217
9.6870,7.6374,-2.9145,3.9490
9.6950,7.4886,-2.8437,3.8742
9.7030,7.3406,-2.7713,3.7978
9.7110,7.1946,-2.6983,3.7206
9.7190,7.0515,-2.6259,3.6440
9.7270,6.9116,-2.5550,3.5695
9.7350,6.7747,-2.4864,3.4979
9.7430,6.6404,-2.4203,3.4296
9.7510,6.5078,-2.3566,3.3644
9.7590,6.3763,-2.2947,3.3011
9.7670,6.2454,-2.2339,3.2385
9.7750,6.1148,-2.1734,3.1750
9.7830,5.9848,-2.1127,3.1093
9.7910,5.8556,-2.0514,3.0409
9.7990,5.7278,-1.9899,2.9698
9.8070,5.6020,-1.9285,2.8969
9.8150,5.4790,-1.8681,2.8238
9.8230,5.3589,-1.8093,2.7521
9.8310,5.2418,-1.7526,2.6837
9.8390,5.1274,-1.6984,2.6196
9.8470,5.0150,-1.6464,2.5603
9.8550,4.9034,-1.5961,2.5052
9.8630,4.7916,-1.5467,2.4530
9.8710,4.6786,-1.4973,2.4018
9.8790,4.5641,-1.4472,2.3497
9.8870,4.4481,-1.3960,2.2949
9.8950,4.3316,-1.3435,2.2364
9.9030,4.2155,-1.2899,2.1741
9.9110,4.1012,-1.2357,2.1087
9.9190,3.9896,-1.1816,2.0414
9.9270,3.8816,-1.1280,1.9741
9.9350,3.7773,-1.0757,1.9085
9.9430,3.6762,-1.0251,1.8462
9.9510,3.5778,-0.9766,1.7883
9.9590,3.4811,-0.9303,1.7352
9.9670,3.3852,-0.8859,1.6867
9.9750,3.2892,-0.8433,1.6420
9.9830,3.1926,-0.8019,1.5997
9.9910,3.0954,-0.7611,1.5584
9.9990,2.9978,-0.7204,1.5168
10.0070,2.9004,-0.6795,1.4738
10.0150,2.8040,-0.6381,1.4286
10.0220,2.7094,-0.5962,1.3810
10.0300,2.6171,-0.5541,1.3310
10.0380,2.5277,-0.5120,1.2790
10.0460,2.4412,-0.4703,1.2254
10.0540,2.3572,-0.4292,1.1711
10.0620,2.2753,-0.3892,1.1168
10.0700,2.1948,-0.3505,1.0631
10.0780,2.1151,-0.3132,1.0111
10.0860,2.0359,-0.2775,0.9614
10.0940,1.9570,-0.2436,0.9148
10.1020,1.8787,-0.2113,0.8715
10.1100,1.8012,-0.1805,0.8316
10.1180,1.7251,-0.1511,0.7946
10.1260,1.6507,-0.1225,0.7595
10.1340,1.5782,-0.0945,0.7252
10.1420,1.5077,-0.0666,0.6906
10.1500,1.4391,-0.0385,0.6548
10.1580,1.3718,-0.0098,0.6171
10.1660,1.3056,0.0195,0.5774
10.1740,1.2398,0.0495,0.5361
10.1820,1.1742,0.0799,0.4938
10.1900,1.1088,0.1104,0.4512
10.1980,1.0438,0.1405,0.4094
10.2060,0.9797,0.1697,0.3689
10.2140,0.9169,0.1977,0.3302
10.2220,0.8559,0.2244,0.2936
10.2300,0.7970,0.2497,0.2588
10.2380,0.7404,0.2738,0.2254
10.2460,0.6859,0.2970,0.1928
10.2540,0.6332,0.3196,0.1607
10.2620,0.5823,0.3419,0.1286
10.2700,0.5327,0.3639,0.0964
10.2780,0.4843,0.3857,0.0642
10.2860,0.4370,0.4071,0.0323
10.2940,0.3908,0.4281,0.0008
10.3020,0.3458,0.4483,-0.0297
10.3100,0.3021,0.4677,-0.0592
10.3180,0.2597,0.4861,-0.0875
10.3260,0.2189,0.5036,-0.1147
10.3340,0.1795,0.5202,-0.1409
10.3420,0.1415,0.5359,-0.1665
10.3500,0.1049,0.5510,-0.1917
10.3580,0.0695,0.5655,-0.2167
10.3660,0.0350,0.5795,-0.2417
10.3740,0.0012,0.5933,-0.2665
10.3820,-0.0321,0.6069,-0.2910
10.3900,-0.0649,0.6204,-0.3150
10.3980,-0.0969,0.6337,-0.3380
10.4060,-0.1281,0.6469,-0.3599
10.4140,-0.1580,0.6597,-0.3802
10.4220,-0.1862,0.6719,-0.3989
10.4300,-0.2126,0.6833,-0.4159
10.4380,-0.2370,0.6936,-0.4316
10.4460,-0.2595,0.7028,-0.4461
10.4540,-0.2801,0.7107,-0.4601
10.4620,-0.2990,0.7176,-0.4741
10.4700,-0.3166,0.7236,-0.4887
10.4780,-0.3330,0.7289,-0.5043
10.4860,-0.3483,0.7337,-0.5210
10.4940,-0.3626,0.7381,-0.5386
10.5020,-0.3758,0.7421,-0.5566
10.5100,-0.3876,0.7454,-0.5744
10.5180,-0.3978,0.7480,-0.5911
10.5260,-0.4064,0.7496,-0.6065
10.5340,-0.4132,0.7502,-0.6202
10.5420,-0.4182,0.7499,-0.6325
10.5500,-0.4216,0.7489,-0.6436
10.5580,-0.4237,0.7474,-0.6539
10.5660,-0.4247,0.7455,-0.6636
10.5740,-0.4249,0.7434,-0.6728
10.5820,-0.4245,0.7410,-0.6813
10.5900,-0.4238,0.7384,-0.6891
10.5980,-0.4227,0.7353,-0.6961
10.6060,-0.4212,0.7318,-0.7022
10.6140,-0.4193,0.7279,-0.7077
10.6220,-0.4168,0.7236,-0.7128
10.6300,-0.4135,0.7193,-0.7177
10.6380,-0.4092,0.7151,-0.7228
10.6460,-0.4037,0.7110,-0.7282
10.6540,-0.3967,0.7072,-0.7338
10.6620,-0.3881,0.7036,-0.7395
10.6700,-0.3777,0.6997,-0.7448
10.6780,-0.3654,0.6952,-0.7493
10.6860,-0.3511,0.6898,-0.7526
10.6940,-0.3347,0.6830,-0.7545
10.7020,-0.3165,0.6747,-0.7546
10.7100,-0.2965,0.6647,-0.7533
10.7180,-0.2751,0.6533,-0.7505
10.7260,-0.2524,0.6406,-0.7468
10.7340,-0.2287,0.6271,-0.7424
10.7420,-0.2040,0.6131,-0.7376
10.7500,-0.1786,0.5989,-0.7327
10.7580,-0.1523,0.5847,-0.7278
10.7660,-0.1251,0.5705,-0.7227
10.7740,-0.0966,0.5560,-0.7175
10.7820,-0.0667,0.5410,-0.7118
10.7900,-0.0350,0.5251,-0.7054
10.7980,-0.0014,0.5079,-0.6981
10.8060,0.0341,0.4894,-0.6897
10.8140,0.0715,0.4695,-0.6800
10.8220,0.1105,0.4483,-0.6691
10.8300,0.1509,0.4261,-0.6571
10.8380,0.1923,0.4031,-0.6440
10.8460,0.2346,0.3795,-0.6303
10.8540,0.2776,0.3556,-0.6161
10.8620,0.3215,0.3314,-0.6017
10.8700,0.3662,0.3070,-0.5874
10.8780,0.4121,0.2824,-0.5731
10.8860,0.4594,0.2575,-0.5589
10.8940,0.5083,0.2322,-0.5445
10.9020,0.5590,0.2063,-0.5296
10.9100,0.6114,0.1798,-0.5135
10.9180,0.6654,0.1525,-0.4960
10.9260,0.7208,0.1245,-0.4767
10.9340,0.7771,0.0957,-0.4556
10.9420,0.8342,0.0662,-0.4328
10.9500,0.8918,0.0363,-0.4087
10.9580,0.9499,0.0060,-0.3835
10.9660,1.0086,-0.0248,-0.3577
10.9740,1.0683,-0.0560,-0.3314
10.9820,1.1294,-0.0879,-0.3045
10.9900,1.1925,-0.1207,-0.2768
10.9980,1.2581,-0.1547,-0.2483
11.0060,1.3263,-0.1900,-0.2187
11.0140,1.3969,-0.2265,-0.1880
11.0220,1.4696,-0.2639,-0.1566
11.0300,1.5438,-0.3019,-0.1247
11.0380,1.6189,-0.3399,-0.0930
11.0460,1.6945,-0.3775,-0.0621
11.0540,1.7703,-0.4143,-0.0323
11.0620,1.8464,-0.4504,-0.0039
11.0700,1.9229,-0.4856,0.0233
11.0770,2.0002,-0.5206,0.0500
11.0850,2.0788,-0.5555,0.0768
11.0930,2.1588,-0.5911,0.1046
11.1010,2.2407,-0.6278,0.1345
11.1090,2.3244,-0.6659,0.1668
11.1170,2.4099,-0.7056,0.2018
11.1250,2.4971,-0.7468,0.2393
11.1330,2.5855,-0.7893,0.2786
11.1410,2.6747,-0.8330,0.3189
11.1490,2.7644,-0.8773,0.3593
11.1570,2.8544,-0.9222,0.3992
11.1650,2.9446,-0.9676,0.4383
11.1730,3.0353,-1.0134,0.4769
11.1810,3.1272,-1.0600,0.5157
11.1890,3.2209,-1.1076,0.5555
11.1970,3.3172,-1.1565,0.5972
11.2050,3.4166,-1.2068,0.6414
11.2130,3.5192,-1.2584,0.6880
11.2210,3.6246,-1.3109,0.7368
11.2290,3.7320,-1.3637,0.7866
11.2370,3.8405,-1.4162,0.8364
11.2450,3.9490,-1.4677,0.8852
11.2530,4.0570,-1.5178,0.9321
11.2610,4.1640,-1.5664,0.9768
11.2690,4.2702,-1.6136,1.0196
11.2770,4.3763,-1.6602,1.0612
11.2850,4.4833,-1.7071,1.1028
11.2930,4.5923,-1.7553,1.1456
11.3010,4.7045,-1.8059,1.1910
11.3090,4.8204,-1.8595,1.2398
11.3170,4.9402,-1.9164,1.2926
11.3250,5.0634,-1.9764,1.3493
11.3330,5.1889,-2.0389,1.4092
11.3410,5.3158,-2.1029,1.4714
11.3490,5.4429,-2.1674,1.5345
11.3570,5.5697,-2.2317,1.5975
11.3650,5.6957,-2.2951,1.6592
11.3730,5.8212,-2.3574,1.7192
11.3810,5.9468,-2.4188,1.7773
11.3890,6.0731,-2.4795,1.8339
11.3970,6.2008,-2.5400,1.8897
11.4050,6.3305,-2.6010,1.9456
11.4130,6.4626,-2.6628,2.0028
11.4210,6.5972,-2.7259,2.0621
11.4290,6.7340,-2.7904,2.1240
11.4370,6.8724,-2.8563,2.1888
11.4450,7.0118,-2.9234,2.2560
11.4530,7.1513,-2.9912,2.3247
11.4610,7.2902,-3.0591,2.3939
11.4690,7.4282,-3.1266,2.4623
11.4770,7.5654,-3.1931,2.5287
11.4850,7.7025,-3.2583,2.5924
11.4930,7.8407,-3.3223,2.6532
11.5010,7.9813,-3.3854,2.7114
11.5090,8.1256,-3.4482,2.7678
11.5170,8.2744,-3.5114,2.8234
11.5250,8.4276,-3.5758,2.8796
11.5330,8.5847,-3.6418,2.9375
11.5410,8.7444,-3.7100,2.9980
11.5490,8.9051,-3.7805,3.0615
11.5570,9.0655,-3.8531,3.1279
11.5650,9.2246,-3.9275,3.1966
11.5730,9.3819,-4.0033,3.2669
11.5810,9.5378,-4.0799,3.3376
11.5890,9.6930,-4.1567,3.4080
11.5970,9.8488,-4.2332,3.4774
11.6050,10.0066,-4.3092,3.5457
11.6130,10.1675,-4.3846,3.6133
11.6210,10.3322,-4.4597,3.6809
11.6290,10.5007,-4.5349,3.7494
11.6370,10.6724,-4.6107,3.8194
11.6450,10.8463,-4.6874,3.8915
11.6530,11.0212,-4.7655,3.9656
11.6610,11.1961,-4.8449,4.0415
11.6690,11.3702,-4.9257,4.1185
11.6770,11.5435,-5.0074,4.1958
11.6850,11.7163,-5.0898,4.2728
11.6930,11.8894,-5.1724,4.3492
11.7010,12.0637,-5.2548,4.4250
11.7090,12.2401,-5.3368,4.5004
11.7170,12.4194,-5.4184,4.5758
11.7250,12.6016,-5.4993,4.6515
11.7330,12.7867,-5.5795,4.7276
11.7410,12.9738,-5.6592,4.8040
11.7490,13.1619,-5.7383,4.8805
11.7570,13.3498,-5.8169,4.9569
11.7650,13.5368,-5.8953,5.0333
11.7730,13.7222,-5.9740,5.1101
11.7810,13.9062,-6.0539,5.1883
11.7890,14.0894,-6.1359,5.2688
11.7970,14.2732,-6.2211,5.3530
11.8050,14.4591,-6.3105,5.4416
11.8130,14.6486,-6.4045,5.5350
11.8210,14.8429,-6.5030,5.6326
11.8290,15.0422,-6.6053,5.7331
11.8370,15.2461,-6.7101,5.8348
11.8450,15.4533,-6.8157,5.9357
11.8530,15.6624,-6.9206,6.0344
11.8610,15.8719,-7.0237,6.1301
11.8690,16.0809,-7.1245,6.2227
11.8770,16.2890,-7.2229,6.3129
11.8850,16.4962,-7.3194,6.4020
11.8930,16.7031,-7.4146,6.4911
11.9010,16.9104,-7.5091,6.5814
11.9090,17.1190,-7.6036,6.6735
11.9170,17.3293,-7.6985,6.7674
11.9250,17.5418,-7.7942,6.8627
11.9330,17.7565,-7.8910,6.9585
11.9410,17.9729,-7.9891,7.0538
11.9490,18.1905,-8.0884,7.1477
11.9570,18.4085,-8.1886,7.2393
11.9650,18.6261,-8.2895,7.3285
11.9730,18.8425,-8.3902,7.4154
11.9810,19.0577,-8.4903,7.5006
11.9890,19.2721,-8.5892,7.5853
11.9970,19.4869,-8.6870,7.6706
12.0050,19.7038,-8.7840,7.7579
12.0130,19.9246,-8.8811,7.8487
12.0210,20.1508,-8.9794,7.9440
12.0290,20.3830,-9.0801,8.0444
12.0370,20.6208,-9.1841,8.1504
12.0450,20.8626,-9.2919,8.2614
12.0530,21.1060,-9.4036,8.3764
12.0610,21.3484,-9.5186,8.4942
12.0690,21.5875,-9.6360,8.6130
12.0770,21.8217,-9.7547,8.7310
12.0850,22.0506,-9.8732,8.8467
12.0930,22.2747,-9.9907,8.9588
12.1010,22.4957,-10.1064,9.0669
12.1090,22.7159,-10.2199,9.1712
12.1170,22.9378,-10.3315,9.2724
12.1250,23.1634,-10.4416,9.3720
12.1320,23.3938,-10.5505,9.4716
12.1400,23.6290,-10.6589,9.5725
12.1480,23.8681,-10.7668,9.6761
12.1560,24.1092,-10.8747,9.7835
12.1640,24.3505,-10.9828,9.8953
12.1720,24.5903,-11.0916,10.0120
12.1800,24.8276,-11.2016,10.1338
12.1880,25.0621,-11.3134,10.2604
12.1960,25.2941,-11.4276,10.3912
12.2040,25.5244,-11.5440,10.5246
12.2120,25.7537,-11.6625,10.6590
12.2200,25.9831,-11.7821,10.7922
12.2280,26.2130,-11.9017,10.9220
12.2360,26.4439,-12.0202,11.0468
12.2440,26.6757,-12.1365,11.1657
12.2520,26.9080,-12.2499,11.2784
12.2600,27.1399,-12.3600,11.3860
12.2680,27.3708,-12.4669,11.4902
12.2760,27.5996,-12.5711,11.5931
12.2840,27.8258,-12.6733,11.6971
12.2920,28.0494,-12.7745,11.8040
12.3000,28.2711,-12.8759,11.9152
12.3080,28.4922,-12.9786,12.0311
12.3160,28.7144,-13.0839,12.1514
12.3240,28.9395,-13.1926,12.2752
12.3320,29.1688,-13.3050,12.4008
12.3400,29.4028,-13.4209,12.5264
12.3480,29.6407,-13.5390,12.6498
12.3560,29.8810,-13.6579,12.7695
12.3640,30.1215,-13.7756,12.8841
12.3720,30.3600,-13.8903,12.9934
12.3800,30.5948,-14.0008,13.0978
12.3880,30.8250,-14.1063,13.1984
12.3960,31.0508,-14.2072,13.2973
12.4040,31.2731,-14.3045,13.3967
12.4120,31.4940,-14.4001,13.4988
12.4200,31.7155,-14.4963,13.6056
12.4280,31.9398,-14.5955,13.7182
12.4360,32.1684,-14.6996,13.8366
12.4440,32.4015,-14.8098,13.9597
12.4520,32.6388,-14.9259,14.0853
12.4600,32.8787,-15.0469,14.2108
12.4680,33.1195,-15.1708,14.3334
12.4760,33.3596,-15.2952,14.4512
12.4840,33.5978,-15.4180,14.5631
12.4920,33.8338,-15.5373,14.6692
12.5000,34.0676,-15.6524,14.7703
12.5080,34.2999,-15.7630,14.8685
12.5160,34.5315,-15.8698,14.9657
12.5240,34.7634,-15.9738,15.0642
12.5320,34.9959,-16.0764,15.1658
12.5400,35.2296,-16.1785,15.2718
12.5480,35.4641,-16.2813,15.3826
12.5560,35.6991,-16.3852,15.4978
12.5640,35.9337,-16.4905,15.6161
12.5720,36.1671,-16.5971,15.7360
12.5800,36.3983,-16.7047,15.8554
12.5880,36.6268,-16.8128,15.9728
12.5960,36.8524,-16.9211,16.0870
12.6040,37.0756,-17.0294,16.1974
12.6120,37.2975,-17.1378,16.3041
12.6200,37.5200,-17.2464,16.4078
12.6280,37.7449,-17.3556,16.5095
12.6360,37.9737,-17.4655,16.6105
12.6440,38.2074,-17.5761,16.7123
12.6520,38.4456,-17.6870,16.8162
12.6600,38.6872,-17.7978,16.9233
12.6680,38.9303,-17.9079,17.0343
12.6760,39.1729,-18.0170,17.1492
12.6840,39.4131,-18.1251,17.2672
12.6920,39.6500,-18.2328,17.3870
12.7000,39.8831,-18.3405,17.5069
12.7080,40.1130,-18.4493,17.6251
12.7160,40.3408,-18.5597,17.7401
12.7240,40.5679,-18.6723,17.8509
12.7320,40.7956,-18.7870,17.9572
12.7400,41.0252,-18.9036,18.0592
12.7480,41.2571,-19.0214,18.1578
12.7560,41.4914,-19.1394,18.2543
12.7640,41.7277,-19.2567,18.3501
12.7720,41.9650,-19.3725,18.4468
12.7800,42.2022,-19.4862,18.5459
12.7880,42.4385,-19.5972,18.6485
12.7960,42.6731,-19.7058,18.7553
12.8040,42.9060,-19.8120,18.8662
12.8120,43.1373,-19.9164,18.9810
12.8200,43.3680,-20.0198,19.0987
12.8280,43.5988,-20.1229,19.2182
12.8360,43.8309,-20.2268,19.3383
12.8440,44.0649,-20.3321,19.4580
12.8520,44.3013,-20.4395,19.5765
12.8600,44.5397,-20.5493,19.6931
12.8680,44.7792,-20.6615,19.8073
12.8760,45.0188,-20.7755,19.9189
12.8840,45.2571,-20.8905,20.0279
12.8920,45.4931,-21.0054,20.1347
12.9000,45.7259,-21.1190,20.2398
12.9080,45.9557,-21.2305,20.3441
12.9160,46.1831,-21.3397,20.4486
12.9240,46.4095,-21.4468,20.5542
12.9320,46.6369,-21.5528,20.6619
12.9400,46.8670,-21.6591,20.7719
12.9480,47.1011,-21.7667,20.8840
12.9560,47.3395,-21.8767,20.9973
12.9640,47.5817,-21.9894,21.1105
12.9720,47.8264,-22.1043,21.2218
12.9800,48.0718,-22.2209,21.3301
12.9880,48.3162,-22.3380,21.4346
12.9960,48.5586,-22.4550,21.5355
13.0040,48.7985,-22.5710,21.6338
13.0120,49.0360,-22.6857,21.7313
13.0200,49.2719,-22.7991,21.8301
13.0280,49.5069,-22.9113,21.9321
13.0360,49.7420,-23.0227,22.0385
13.0440,49.9777,-23.1336,22.1499
13.0520,50.2144,-23.2443,22.2659
13.0600,50.4519,-23.3552,22.3854
13.0680,50.6898,-23.4663,22.5067
13.0760,50.9274,-23.5772,22.6280
13.0840,51.1637,-23.6877,22.7478
13.0920,51.3979,-23.7974,22.8647
13.1000,51.6293,-23.9061,22.9780
13.1080,51.8578,-24.0140,23.0873
13.1160,52.0838,-24.1217,23.1932
13.1240,52.3088,-24.2299,23.2964
13.1320,52.5345,-24.3398,23.3982
13.1400,52.7631,-24.4521,23.5002
13.1480,52.9961,-24.5672,23.6038
13.1560,53.2344,-24.6849,23.7101
13.1640,53.4778,-24.8043,23.8198
13.1720,53.7247,-24.9239,23.9326
13.1800,53.9729,-25.0423,24.0478
13.1870,54.2199,-25.1581,24.1642
13.1950,54.4635,-25.2705,24.2803
13.2030,54.7023,-25.3794,24.3945
13.2110,54.9359,-25.4854,24.5059
13.2190,55.1651,-25.5898,24.6141
13.2270,55.3917,-25.6941,24.7191
13.2350,55.6180,-25.8002,24.8219
13.2430,55.8464,-25.9094,24.9235
13.2510,56.0790,-26.0229,25.0256
13.2590,56.3169,-26.1408,25.1294
13.2670,56.5599,-26.2625,25.2363
13.2750,56.8068,-26.3870,25.3468
13.2830,57.0557,-26.5128,25.4614
13.2910,57.3046,-26.6384,25.5800
13.2990,57.5517,-26.7627,25.7021
13.3070,57.7959,-26.8851,25.8270
13.3150,58.0370,-27.0052,25.9536
13.3230,58.2755,-27.1233,26.0809
13.3310,58.5120,-27.2398,26.2074
13.3390,58.7477,-27.3553,26.3321
13.3470,58.9836,-27.4704,26.4538
13.3550,59.2204,-27.5856,26.5717
13.3630,59.4584,-27.7013,26.6853
13.3710,59.6977,-27.8176,26.7948
13.3790,59.9379,-27.9343,26.9005
13.3870,60.1782,-28.0513,27.0035
13.3950,60.4177,-28.1680,27.1048
13.4030,60.6553,-28.2838,27.2055
13.4110,60.8906,-28.3985,27.3067
13.4190,61.1233,-28.5116,27.4090
13.4270,61.3542,-28.6235,27.5130
13.4350,61.5845,-28.7347,27.6188
13.4430,61.8161,-28.8459,27.7263
13.4510,62.0509,-28.9579,27.8353
13.4590,62.2900,-29.0715,27.9453
13.4670,62.5339,-29.1870,28.0556
13.4750,62.7820,-29.3041,28.1656
13.4830,63.0326,-29.4222,28.2746
13.4910,63.2837,-29.5406,28.3820
13.4990,63.5331,-29.6584,28.4877
13.5070,63.7794,-29.7748,28.5919
13.5150,64.0217,-29.8894,28.6951
13.5230,64.2601,-30.0022,28.7982
13.5310,64.4955,-30.1135,28.9021
13.5390,64.7295,-30.2237,29.0078
13.5470,64.9638,-30.3339,29.1164
13.5550,65.2003,-30.4450,29.2285
13.5630,65.4401,-30.5578,29.3446
13.5710,65.6834,-30.6728,29.4645
13.5790,65.9296,-30.7902,29.5870
13.5870,66.1773,-30.9095,29.7105
13.5950,66.4248,-31.0299,29.8329
13.6030,66.6704,-31.1502,29.9520
13.6110,66.9129,-31.2693,30.0661
13.6190,67.1519,-31.3861,30.1744
13.6270,67.3878,-31.4999,30.2772
13.6350,67.6218,-31.6106,30.3758
13.6430,67.8559,-31.7187,30.4723
13.6510,68.0917,-31.8250,30.5689
13.6590,68.3308,-31.9310,30.6675
13.6670,68.5739,-32.0379,30.7696
13.6750,68.8207,-32.1469,30.8755
13.6830,69.0701,-32.2589,30.9850
13.6910,69.3200,-32.3744,31.0976
13.6990,69.5685,-32.4935,31.2124
13.7070,69.8133,-32.6159,31.3287
13.7150,70.0532,-32.7411,31.4461
13.7230,70.2874,-32.8680,31.5645
13.7310,70.5165,-32.9958,31.6839
13.7390,70.7416,-33.1236,31.8047
13.7470,70.9648,-33.2508,31.9273
13.7550,71.1879,-33.3768,32.0521
13.7630,71.4129,-33.5013,32.1789
13.7710,71.6406,-33.6242,32.3074
13.7790,71.8709,-33.7449,32.4366
13.7870,72.1030,-33.8632,32.5651
13.7950,72.3354,-33.9790,32.6914
13.8030,72.5663,-34.0921,32.8143
13.8110,72.7944,-34.2033,32.9330
13.8190,73.0191,-34.3131,33.0471
13.8270,73.2401,-34.4225,33.1569
13.8350,73.4578,-34.5324,33.2630
13.8430,73.6730,-34.6436,33.3662
13.8510,73.8864,-34.7564,33.4675
13.8590,74.0987,-34.8709,33.5680
13.8670,74.3103,-34.9868,33.6685
13.8750,74.5215,-35.1033,33.7696
13.8830,74.7318,-35.2198,33.8717
13.8910,74.9410,-35.3351,33.9746
13.8990,75.1482,-35.4483,34.0779
13.9070,75.3526,-35.5582,34.1809
13.9150,75.5537,-35.6642,34.2832
13.9230,75.7511,-35.7660,34.3841
13.9310,75.9450,-35.8640,34.4837
13.9390,76.1361,-35.9590,34.5820
13.9470,76.3259,-36.0524,34.6796
13.9550,76.5159,-36.1460,34.7769
13.9630,76.7075,-36.2411,34.8744
13.9710,76.9018,-36.3388,34.9721
13.9790,77.0987,-36.4395,35.0695
13.9870,77.2973,-36.5430,35.1659
13.9950,77.4961,-36.6484,35.2602
14.0030,77.6930,-36.7547,35.3515
14.0110,77.8863,-36.8608,35.4394
14.0190,78.0748,-36.9660,35.5240
14.0270,78.2581,-37.0696,35.6061
14.0350,78.4368,-37.1717,35.6871
14.0430,78.6120,-37.2723,35.7683
14.0510,78.7853,-37.3716,35.8513
14.0590,78.9584,-37.4698,35.9367
14.0670,79.1327,-37.5670,36.0246
14.0750,79.3089,-37.6632,36.1146
14.0830,79.4873,-37.7581,36.2056
14.0910,79.6677,-37.8518,36.2966
14.0990,79.8493,-37.9443,36.3866
14.1070,80.0315,-38.0357,36.4751
14.1150,80.2134,-38.1266,36.5619
14.1230,80.3943,-38.2170,36.6470
14.1310,80.5727,-38.3069,36.7300
14.1390,80.7468,-38.3955,36.8101
14.1470,80.9136,-38.4812,36.8862
14.1550,81.0695,-38.5621,36.9565
14.1630,81.2106,-38.6362,37.0196
14.1710,81.3342,-38.7021,37.0746
14.1790,81.4396,-38.7596,37.1220
14.1870,81.5292,-38.8108,37.1640
14.1950,81.6096,-38.8594,37.2044
14.2030,81.6906,-38.9107,37.2485
14.2110,81.7839,-38.9707,37.3017
14.2190,81.9005,-39.0443,37.3683
14.2270,82.0479,-39.1343,37.4504
14.2350,82.2278,-39.2401,37.5471
14.2420,82.4357,-39.3580,37.6545
14.2500,82.6618,-39.4819,37.7664
14.2580,82.8934,-39.6050,37.8763
14.2660,83.1186,-39.7213,37.9784
14.2740,83.3284,-39.8271,38.0693
14.2820,83.5183,-39.9212,38.1481
14.2900,83.6879,-40.0044,38.2161
14.2980,83.8404,-40.0795,38.2761
14.3060,83.9804,-40.1497,38.3314
14.3140,84.1128,-40.2179,38.3850
14.3220,84.2416,-40.2863,38.4390
14.3300,84.3696,-40.3563,38.4943
14.3380,84.4979,-40.4281,38.5511
14.3460,84.6271,-40.5015,38.6090
14.3540,84.7568,-40.5758,38.6674
14.3620,84.8868,-40.6503,38.7258
14.3700,85.0169,-40.7246,38.7839
14.3780,85.1471,-40.7984,38.8419
14.3860,85.2774,-40.8720,38.9000
14.3940,85.4077,-40.9452,38.9584
14.4020,85.5376,-41.0182,39.0172
14.4100,85.6665,-41.0910,39.0765
14.4180,85.7940,-41.1633,39.1362
14.4260,85.9193,-41.2347,39.1961
14.4340,86.0422,-41.3049,39.2562
14.4420,86.1626,-41.3734,39.3164
14.4500,86.2806,-41.4399,39.3765
14.4580,86.3965,-41.5042,39.4364
14.4660,86.5111,-41.5664,39.4956
14.4740,86.6246,-41.6267,39.5536
14.4820,86.7377,-41.6855,39.6097
14.4900,86.8504,-41.7435,39.6635
14.4980,86.9626,-41.8015,39.7148
14.5060,87.0740,-41.8599,39.7634
14.5140,87.1841,-41.9195,39.8097
14.5220,87.2923,-41.9801,39.8539
14.5300,87.3983,-42.0418,39.8966
14.5380,87.5017,-42.1041,39.9386
14.5460,87.6025,-42.1663,39.9804
14.5540,87.7011,-42.2278,40.0227
14.5620,87.7981,-42.2879,40.0662
14.5700,87.8942,-42.3464,40.1110
14.5780,87.9901,-42.4029,40.1574
14.5860,88.0863,-42.4576,40.2049
14.5940,88.1829,-42.5106,40.2529
14.6020,88.2797,-42.5624,40.3004
14.6100,88.3761,-42.6135,40.3465
14.6180,88.4714,-42.6644,40.3903
14.6260,88.5650,-42.7157,40.4312
14.6340,88.6566,-42.7675,40.4690
14.6420,88.7460,-42.8199,40.5040
14.6500,88.8332,-42.8728,40.5365
14.6580,88.9186,-42.9258,40.5673
14.6660,89.0023,-42.9781,40.5970
14.6740,89.0846,-43.0291,40.6263
14.6820,89.1658,-43.0784,40.6555
14.6900,89.2459,-43.1254,40.6850
14.6980,89.3248,-43.1700,40.7148
14.7060,89.4025,-43.2120,40.7450
14.7140,89.4787,-43.2518,40.7755
14.7220,89.5532,-43.2899,40.8061
14.7300,89.6258,-43.3269,40.8366
14.7380,89.6963,-43.3636,40.8670
14.7460,89.7648,-43.4010,40.8969
14.7540,89.8313,-43.4394,40.9262
14.7620,89.8963,-43.4795,40.9545
14.7700,89.9602,-43.5210,40.9816
14.7780,90.0235,-43.5636,41.0074
14.7860,90.0866,-43.6069,41.0319
14.7940,90.1496,-43.6500,41.0553
14.8020,90.2125,-43.6923,41.0780
14.8100,90.2749,-43.7331,41.1003
14.8180,90.3363,-43.7718,41.1226
14.8260,90.3960,-43.8080,41.1452
14.8340,90.4537,-43.8416,41.1685
14.8420,90.5090,-43.8725,41.1924
14.8500,90.5619,-43.9012,41.2172
14.8580,90.6126,-43.9283,41.2427
14.8660,90.6614,-43.9544,41.2689
14.8740,90.7089,-43.9805,41.2954
14.8820,90.7554,-44.0073,41.3220
14.8900,90.8015,-44.0353,41.3482
14.8980,90.8471,-44.0647,41.3734
14.9060,90.8922,-44.0953,41.3971
14.9140,90.9366,-44.1266,41.4188
14.9220,90.9800,-44.1580,41.4383
14.9300,91.0220,-44.1886,41.4554
14.9380,91.0623,-44.2180,41.4706
14.9460,91.1009,-44.2456,41.4844
14.9540,91.1378,-44.2715,41.4973
14.9620,91.1731,-44.2957,41.5099
14.9700,91.2071,-44.3184,41.5227
14.9780,91.2399,-44.3400,41.5359
14.9860,91.2716,-44.3607,41.5495
14.9940,91.3022,-44.3810,41.5632
15.0020,91.3317,-44.4010,41.5766
15.0100,91.3600,-44.4210,41.5892
15.0180,91.3869,-44.4409,41.6005
15.0260,91.4125,-44.4608,41.6100
15.0340,91.4366,-44.4807,41.6176
15.0420,91.4591,-44.5002,41.6234
15.0500,91.4801,-44.5193,41.6276
15.0580,91.4996,-44.5377,41.6307
15.0660,91.5177,-44.5551,41.6335
15.0740,91.5345,-44.5714,41.6365
15.0820,91.5500,-44.5864,41.6402
15.0900,91.5641,-44.5999,41.6449
15.0980,91.5768,-44.6120,41.6505
15.1060,91.5878,-44.6227,41.6567
15.1140,91.5971,-44.6321,41.6630
15.1220,91.6045,-44.6403,41.6690
15.1300,91.6099,-44.6475,41.6742
15.1380,91.6135,-44.6538,41.6782
15.1460,91.6156,-44.6592,41.6808
15.1540,91.6165,-44.6637,41.6821
15.1620,91.6166,-44.6674,41.6820
15.1700,91.6163,-44.6703,41.6806
15.1780,91.6161,-44.6723,41.6783
15.1860,91.6159,-44.6738,41.6751
15.1940,91.6159,-44.6748,41.6713
15.2020,91.6159,-44.6758,41.6673
15.2100,91.6156,-44.6770,41.6633
15.2180,91.6145,-44.6787,41.6594
15.2260,91.6124,-44.6810,41.6559
15.2340,91.6088,-44.6840,41.6526
15.2420,91.6034,-44.6876,41.6497
15.2500,91.5961,-44.6914,41.6468
15.2580,91.5868,-44.6953,41.6438
15.2660,91.5754,-44.6987,41.6405
15.2740,91.5621,-44.7015,41.6364
15.2820,91.5469,-44.7033,41.6313
15.2890,91.5301,-44.7039,41.6249
15.2970,91.5116,-44.7030,41.6171
15.3050,91.4917,-44.7006,41.6077
15.3130,91.4705,-44.6967,41.5968
15.3210,91.4480,-44.6916,41.5846
15.3290,91.4244,-44.6856,41.5715
15.3370,91.3997,-44.6791,41.5580
15.3450,91.3742,-44.6725,41.5445
15.3530,91.3478,-44.6661,41.5313
15.3610,91.3206,-44.6602,41.5187
15.3690,91.2923,-44.6548,41.5067
15.3770,91.2627,-44.6496,41.4950
15.3850,91.2317,-44.6445,41.4832
15.3930,91.1989,-44.6386,41.4705
15.4010,91.1640,-44.6315,41.4564
15.4090,91.1271,-44.6224,41.4405
15.4170,91.0881,-44.6109,41.4225
15.4250,91.0474,-44.5966,41.4026
15.4330,91.0051,-44.5797,41.3813
15.4410,90.9617,-44.5602,41.3588
15.4490,90.9174,-44.5386,41.3359
15.4570,90.8723,-44.5155,41.3128
15.4650,90.8265,-44.4914,41.2896
15.4730,90.7798,-44.4668,41.2666
15.4810,90.7323,-44.4420,41.2436
15.4890,90.6837,-44.4173,41.2205
15.4970,90.6337,-44.3928,41.1971
15.5050,90.5824,-44.3684,41.1734
15.5130,90.5296,-44.3439,41.1495
15.5210,90.4753,-44.3192,41.1253
15.5290,90.4196,-44.2941,41.1010
15.5370,90.3629,-44.2682,41.0768
15.5450,90.3053,-44.2415,41.0526
15.5530,90.2471,-44.2139,41.0284
15.5610,90.1883,-44.1853,41.0041
15.5690,90.1291,-44.1560,40.9793
15.5770,90.0690,-44.1259,40.9536
15.5850,90.0077,-44.0954,40.9266
15.5930,89.9445,-44.0644,40.8981
15.6010,89.8791,-44.0333,40.8679
15.6090,89.8109,-44.0021,40.8362
15.6170,89.7399,-43.9711,40.8034
15.6250,89.6665,-43.9403,40.7699
15.6330,89.5911,-43.9098,40.7362
15.6410,89.5146,-43.8796,40.7027
15.6490,89.4375,-43.8493,40.6698
15.6570,89.3605,-43.8187,40.6373
15.6650,89.2838,-43.7873,40.6053
15.6730,89.2073,-43.7547,40.5734
15.6810,89.1307,-43.7205,40.5415
15.6890,89.0530,-43.6842,40.5092
15.6970,88.9737,-43.6459,40.4765
15.7050,88.8918,-43.6053,40.4430
15.7130,88.8069,-43.5628,40.4087
15.7210,88.7190,-43.5186,40.3733
15.7290,88.6282,-43.4731,40.3367
15.7370,88.5353,-43.4269,40.2988
15.7450,88.4409,-43.3804,40.2596
15.7530,88.3457,-43.3341,40.2192
15.7610,88.2501,-43.2881,40.1778
15.7690,88.1544,-43.2427,40.1357
15.7770,88.0585,-43.1979,40.0931
15.7850,87.9620,-43.1538,40.0504
15.7930,87.8646,-43.1101,40.0077
15.8010,87.7659,-43.0667,39.9652
15.8090,87.6654,-43.0230,39.9231
15.8170,87.5632,-42.9787,39.8814
15.8250,87.4590,-42.9331,39.8400
15.8330,87.3532,-42.8859,39.7987
15.8410,87.2459,-42.8366,39.7570
15.8490,87.1377,-42.7855,39.7146
15.8570,87.0291,-42.7329,39.6710
15.8650,86.9203,-42.6793,39.6258
15.8730,86.8116,-42.6255,39.5786
15.8810,86.7029,-42.5724,39.5294
15.8890,86.5935,-42.5203,39.4783
15.8970,86.4827,-42.4696,39.4258
15.9050,86.3696,-42.4201,39.3725
15.9130,86.2534,-42.3715,39.3192
15.9210,86.1337,-42.3231,39.2667
15.9290,86.0105,-42.2743,39.2158
15.9370,85.8846,-42.2245,39.1670
15.9450,85.7568,-42.1732,39.1206
15.9530,85.6284,-42.1201,39.0763
15.9610,85.5002,-42.0652,39.0337
15.9690,85.3729,-42.0085,38.9918
15.9770,85.2466,-41.9502,38.9495
15.9850,85.1209,-41.8902,38.9053
15.9930,84.9950,-41.8283,38.8577
16.0010,84.8677,-41.7642,38.8058
16.0090,84.7378,-41.6976,38.7489
16.0170,84.6044,-41.6283,38.6875
16.0250,84.4672,-41.5562,38.6226
16.0330,84.3262,-41.4820,38.5560
16.0410,84.1823,-41.4065,38.4896
16.0490,84.0364,-41.3307,38.4250
16.0570,83.8896,-41.2557,38.3634
16.0650,83.7427,-41.1823,38.3050
16.0730,83.5961,-41.1108,38.2491
16.0810,83.4498,-41.0412,38.1945
16.0890,83.3035,-40.9732,38.1396
16.0970,83.1567,-40.9061,38.0831
16.1050,83.0088,-40.8394,38.0242
16.1130,82.8595,-40.7726,37.9624
16.1210,82.7084,-40.7055,37.8982
16.1290,82.5555,-40.6380,37.8321
16.1370,82.4008,-40.5700,37.7649
16.1450,82.2449,-40.5016,37.6977
16.1530,82.0881,-40.4328,37.6309
16.1610,81.9312,-40.3635,37.5649
16.1690,81.7745,-40.2935,37.4998
16.1770,81.6183,-40.2226,37.4354
16.1850,81.4627,-40.1505,37.3714
16.1930,81.3069,-40.0767,37.3071
16.2010,81.1501,-40.0005,37.2423
16.2090,80.9909,-39.9215,37.1764
16.2170,80.8283,-39.8392,37.1093
16.2250,80.6613,-39.7534,37.0408
16.2330,80.4900,-39.6643,36.9713
16.2410,80.3149,-39.5727,36.9011
16.2490,80.1371,-39.4793,36.8306
16.2570,79.9581,-39.3855,36.7604
16.2650,79.7791,-39.2922,36.6906
16.2730,79.6010,-39.2003,36.6212
16.2810,79.4242,-39.1106,36.5523
16.2890,79.2483,-39.0233,36.4833
16.2970,79.0728,-38.9384,36.4139
16.3050,78.8966,-38.8555,36.3435
16.3130,78.7187,-38.7741,36.2715
16.3210,78.5381,-38.6934,36.1974
16.3290,78.3545,-38.6125,36.1209
16.3370,78.1677,-38.5306,36.0417
16.3440,77.9783,-38.4471,35.9602
16.3520,77.7871,-38.3617,35.8769
16.3600,77.5951,-38.2744,35.7928
16.3680,77.4034,-38.1854,35.7090
16.3760,77.2126,-38.0950,35.6268
16.3840,77.0230,-38.0034,35.5469
16.3920,76.8342,-37.9107,35.4697
16.4000,76.6452,-37.8166,35.3950
16.4080,76.4548,-37.7206,35.3219
16.4160,76.2617,-37.6221,35.2493
16.4240,76.0647,-37.5210,35.1756
16.4320,75.8634,-37.4170,35.0998
16.4400,75.6581,-37.3109,35.0209
16.4480,75.4496,-37.2036,34.9389
16.4560,75.2394,-37.0964,34.8540
16.4640,75.0291,-36.9908,34.7670
16.4720,74.8201,-36.8879,34.6787
16.4800,74.6133,-36.7884,34.5899
16.4880,74.4090,-36.6922,34.5011
16.4960,74.2063,-36.5985,34.4123
16.5040,74.0040,-36.5056,34.3232
16.5120,73.8003,-36.4115,34.2335
16.5200,73.5933,-36.3137,34.1425
16.5280,73.3814,-36.2106,34.0499
16.5360,73.1640,-36.1008,33.9555
16.5440,72.9414,-35.9844,33.8595
16.5520,72.7147,-35.8620,33.7624
16.5600,72.4855,-35.7354,33.6647
16.5680,72.2556,-35.6067,33.5671
16.5760,72.0261,-35.4783,33.4703
16.5840,71.7978,-35.3523,33.3744
16.5920,71.5708,-35.2302,33.2798
16.6000,71.3444,-35.1130,33.1861
16.6080,71.1177,-35.0010,33.0930
16.6160,70.8900,-34.8936,32.9997
16.6240,70.6602,-34.7893,32.9056
16.6320,70.4279,-34.6863,32.8101
16.6400,70.1930,-34.5825,32.7131
16.6480,69.9556,-34.4759,32.6149
16.6560,69.7165,-34.3648,32.5162
16.6640,69.4766,-34.2485,32.4177
16.6720,69.2371,-34.1268,32.3204
16.6800,68.9990,-34.0003,32.2247
16.6880,68.7629,-33.8700,32.1303
16.6960,68.5290,-33.7370,32.0362
16.7040,68.2964,-33.6024,31.9407
16.7120,68.0639,-33.4669,31.8413
16.7200,67.8297,-33.3309,31.7359
16.7280,67.5920,-33.1945,31.6227
16.7360,67.3497,-33.0581,31.5012
16.7440,67.1029,-32.9223,31.3724
16.7520,66.8524,-32.7879,31.2383
16.7600,66.6002,-32.6560,31.1022
16.7680,66.3487,-32.5271,30.9676
16.7760,66.1001,-32.4016,30.8376
16.7840,65.8560,-32.2788,30.7141
16.7920,65.6171,-32.1576,30.5982
16.8000,65.3830,-32.0362,30.4895
16.8080,65.1522,-31.9130,30.3866
16.8160,64.9227,-31.7865,30.2877
16.8240,64.6919,-31.6560,30.1907
16.8320,64.4576,-31.5217,30.0938
16.8400,64.2185,-31.3845,29.9956
16.8480,63.9743,-31.2463,29.8951
16.8560,63.7259,-31.1091,29.7921
16.8640,63.4749,-30.9747,29.6864
16.8720,63.2234,-30.8443,29.5787
16.8800,62.9733,-30.7178,29.4693
16.8880,62.7258,-30.5943,29.3589
16.8960,62.4814,-30.4720,29.2481
16.9040,62.2396,-30.3487,29.1373
16.9120,61.9996,-30.2224,29.0269
16.9200,61.7603,-30.0916,28.9172
16.9280,61.5204,-29.9560,28.8082
16.9360,61.2791,-29.8161,28.6999
16.9440,61.0362,-29.6736,28.5924
16.9520,60.7918,-29.5309,28.4858
16.9600,60.5469,-29.3907,28.3802
16.9680,60.3033,-29.2558,28.2760
16.9760,60.0627,-29.1285,28.1735
16.9840,59.8271,-29.0101,28.0731
16.9920,59.5979,-28.9007,27.9750
17.0000,59.3751,-28.7991,27.8790
17.0080,59.1574,-28.7028,27.7843
17.0160,58.9419,-28.6079,27.6893
17.0240,58.7247,-28.5102,27.5923
17.0320,58.5016,-28.4054,27.4915
17.0400,58.2692,-28.2905,27.3858
17.0480,58.0261,-28.1641,27.2750
17.0560,57.7730,-28.0269,27.1603
17.0640,57.5128,-27.8816,27.0434
17.0720,57.2496,-27.7325,26.9268
17.0800,56.9882,-27.5841,26.8121
17.0880,56.7320,-27.4406,26.7004
17.0960,56.4835,-27.3049,26.5914
17.1040,56.2430,-27.1782,26.4840
17.1120,56.0093,-27.0604,26.3764
17.1200,55.7801,-26.9494,26.2669
17.1280,55.5524,-26.8427,26.1540
17.1360,55.3234,-26.7372,26.0372
17.1440,55.0911,-26.6298,25.9168
17.1520,54.8545,-26.5185,25.7940
17.1600,54.6137,-26.4019,25.6707
17.1680,54.3700,-26.2802,25.5493
17.1760,54.1254,-26.1542,25.4320
17.1840,53.8818,-26.0258,25.3207
17.1920,53.6407,-25.8969,25.2162
17.2000,53.4030,-25.7696,25.1181
17.2080,53.1685,-25.6452,25.0251
17.2160,52.9364,-25.5246,24.9346
17.2240,52.7051,-25.4075,24.8438
17.2320,52.4727,-25.2932,24.7499
17.2400,52.2377,-25.1805,24.6505
17.2480,51.9992,-25.0680,24.5446
17.2560,51.7571,-24.9543,24.4321
17.2640,51.5125,-24.8386,24.3142
17.2720,51.2669,-24.7205,24.1931
17.2800,51.0225,-24.5999,24.0714
17.2880,50.7810,-24.4771,23.9518
17.2960,50.5440,-24.3528,23.8363
17.3040,50.3118,-24.2275,23.7266
17.3120,50.0840,-24.1021,23.6229
17.3200,49.8593,-23.9772,23.5243
17.3280,49.6354,-23.8532,23.4292
17.3360,49.4102,-23.7303,23.3349
17.3440,49.1815,-23.6087,23.2387
17.3520,48.9480,-23.4884,23.1384
17.3600,48.7095,-23.3695,23.0327
17.3680,48.4670,-23.2519,22.9213
17.3760,48.2220,-23.1356,22.8053
17.3840,47.9767,-23.0204,22.6864
17.3920,47.7328,-22.9057,22.5666
17.3990,47.4915,-22.7904,22.4480
17.4070,47.2532,-22.6735,22.3322
17.4150,47.0178,-22.5538,22.2204
17.4230,46.7843,-22.4307,22.1128
17.4310,46.5518,-22.3041,22.0091
17.4390,46.3192,-22.1745,21.9086
17.4470,46.0857,-22.0429,21.8101
17.4550,45.8508,-21.9111,21.7121
17.4630,45.6145,-21.7806,21.6134
17.4710,45.3773,-21.6531,21.5129
17.4790,45.1400,-21.5297,21.4100
17.4870,44.9035,-21.4112,21.3045
17.4950,44.6689,-21.2975,21.1969
17.5030,44.4370,-21.1882,21.0878
17.5110,44.2080,-21.0819,20.9784
17.5190,43.9816,-20.9769,20.8696
17.5270,43.7564,-20.8709,20.7627
17.5350,43.5307,-20.7619,20.6585
17.5430,43.3026,-20.6480,20.5572
17.5510,43.0704,-20.5281,20.4587
17.5590,42.8333,-20.4021,20.3624
17.5670,42.5916,-20.2711,20.2671
17.5750,42.3465,-20.1369,20.1718
17.5830,42.1004,-20.0021,20.0753
17.5910,41.8554,-19.8692,19.9768
17.5990,41.6136,-19.7404,19.8759
17.6070,41.3765,-19.6174,19.7724
17.6150,41.1444,-19.5006,19.6667
17.6230,40.9166,-19.3897,19.5589
17.6310,40.6915,-19.2831,19.4496
17.6390,40.4670,-19.1788,19.3390
17.6470,40.2409,-19.0746,19.2280
17.6550,40.0114,-18.9681,19.1174
17.6630,39.7776,-18.8579,19.0083
17.6710,39.5396,-18.7431,18.9017
17.6790,39.2986,-18.6238,18.7985
17.6870,39.0562,-18.5008,18.6990
17.6950,38.8142,-18.3754,18.6030
17.7030,38.5738,-18.2493,18.5092
17.7110,38.3357,-18.1238,18.4160
17.7190,38.1002,-18.0002,18.3212
17.7270,37.8667,-17.8793,18.2231
17.7350,37.6345,-17.7614,18.1200
17.7430,37.4028,-17.6463,18.0111
17.7510,37.1709,-17.5335,17.8964
17.7590,36.9384,-17.4224,17.7767
17.7670,36.7051,-17.3120,17.6537
17.7750,36.4714,-17.2016,17.5296
17.7830,36.2379,-17.0905,17.4067
17.7910,36.0052,-16.9783,17.2875
17.7990,35.7743,-16.8649,17.1738
17.8070,35.5457,-16.7505,17.0666
17.8150,35.3199,-16.6356,16.9661
17.8230,35.0966,-16.5206,16.8717
17.8310,34.8747,-16.4059,16.7816
17.8390,34.6529,-16.2920,16.6937
17.8470,34.4291,-16.1789,16.6056
17.8550,34.2017,-16.0666,16.5149
17.8630,33.9695,-15.9549,16.4195
17.8710,33.7326,-15.8438,16.3182
17.8790,33.4918,-15.7331,16.2107
17.8870,33.2492,-15.6228,16.0978
17.8950,33.0072,-15.5127,15.9810
17.9030,32.7680,-15.4028,15.8629
17.9110,32.5333,-15.2929,15.7461
17.9190,32.3038,-15.1827,15.6331
17.9270,32.0791,-15.0720,15.5258
17.9350,31.8578,-14.9602,15.4250
17.9430,31.6375,-14.8473,15.3307
17.9510,31.4159,-14.7327,15.2413
17.9590,31.1907,-14.6163,15.1548
17.9670,30.9604,-14.4983,15.0689
17.9750,30.7249,-14.3791,14.9812
17.9830,30.4851,-14.2595,14.8899
17.9910,30.2429,-14.1405,14.7940
17.9990,30.0005,-14.0230,14.6930
18.0070,29.7602,-13.9074,14.5875
18.0150,29.5233,-13.7940,14.4785
18.0230,29.2904,-13.6822,14.3674
18.0310,29.0612,-13.5716,14.2560
18.0390,28.8346,-13.4612,14.1461
18.0470,28.6091,-13.3503,14.0391
18.0550,28.3831,-13.2385,13.9358
18.0630,28.1554,-13.1255,13.8363
18.0710,27.9253,-13.0115,13.7402
18.0790,27.6929,-12.8969,13.6463
18.0870,27.4588,-12.7823,13.5533
18.0950,27.2244,-12.6683,13.4603
18.1030,26.9910,-12.5558,13.3664
18.1110,26.7599,-12.4455,13.2713
18.1190,26.5320,-12.3379,13.1750
18.1270,26.3075,-12.2331,13.0773
18.1350,26.0859,-12.1305,12.9784
18.1430,25.8658,-12.0290,12.8780
18.1510,25.6454,-11.9270,12.7757
18.1590,25.4229,-11.8228,12.6713
18.1670,25.1966,-11.7145,12.5647
18.1750,24.9658,-11.6013,12.4560
18.1830,24.7308,-11.4828,12.3460
18.1910,24.4927,-11.3598,12.2359
18.1990,24.2532,-11.2338,12.1270
18.2070,24.0139,-11.1065,12.0205
18.2150,23.7763,-10.9800,11.9173
18.2230,23.5411,-10.8558,11.8178
18.2310,23.3083,-10.7351,11.7216
18.2390,23.0776,-10.6186,11.6276
18.2470,22.8481,-10.5061,11.5345
18.2550,22.6190,-10.3970,11.4410
18.2630,22.3896,-10.2903,11.3460
18.2710,22.1595,-10.1849,11.2488
18.2790,21.9285,-10.0798,11.1497
18.2870,21.6967,-9.9745,11.0493
18.2950,21.4649,-9.8685,10.9489
18.3030,21.2336,-9.7622,10.8494
18.3110,21.0038,-9.6558,10.7519
18.3190,20.7761,-9.5497,10.6565
18.3270,20.5509,-9.4440,10.5630
18.3350,20.3280,-9.3384,10.4703
18.3430,20.1065,-9.2325,10.3771
18.3510,19.8853,-9.1254,10.2815
18.3590,19.6625,-9.0165,10.1821
18.3670,19.4369,-8.9054,10.0775
18.3750,19.2077,-8.7919,9.9670
18.3830,18.9751,-8.6764,9.8508
18.3910,18.7406,-8.5598,9.7297
18.3990,18.5062,-8.4429,9.6056
18.4070,18.2743,-8.3269,9.4807
18.4150,18.0472,-8.2127,9.3576
18.4230,17.8262,-8.1007,9.2384
18.4310,17.6120,-7.9912,9.1244
18.4390,17.4038,-7.8839,9.0162
18.4470,17.2001,-7.7779,8.9130
18.4540,16.9989,-7.6723,8.8135
18.4620,16.7977,-7.5659,8.7154
18.4700,16.5945,-7.4579,8.6169
18.4780,16.3882,-7.3481,8.5161
18.4860,16.1785,-7.2368,8.4120
18.4940,15.9664,-7.1250,8.3044
18.5020,15.7535,-7.0140,8.1935
18.5100,15.5415,-6.9050,8.0803
18.5180,15.3322,-6.7988,7.9658
18.5260,15.1268,-6.6957,7.8512
18.5340,14.9254,-6.5955,7.7377
18.5420,14.7281,-6.4973,7.6263
18.5500,14.5340,-6.4004,7.5179
18.5580,14.3423,-6.3041,7.4128
18.5660,14.1519,-6.2077,7.3111
18.5740,13.9623,-6.1110,7.2125
18.5820,13.7730,-6.0137,7.1162
18.5900,13.5838,-5.9157,7.0214
18.5980,13.3950,-5.8171,6.9272
18.6060,13.2069,-5.7181,6.8328
18.6140,13.0203,-5.6191,6.7379
18.6220,12.8358,-5.5205,6.6425
18.6300,12.6539,-5.4230,6.5468
18.6380,12.4748,-5.3274,6.4512
18.6460,12.2983,-5.2342,6.3561
18.6540,12.1239,-5.1436,6.2618
18.6620,11.9507,-5.0557,6.1685
18.6700,11.7776,-4.9700,6.0760
18.6780,11.6038,-4.8859,5.9842
18.6860,11.4289,-4.8025,5.8927
18.6940,11.2529,-4.7190,5.8016
18.7020,11.0767,-4.6350,5.7110
18.7100,10.9014,-4.5501,5.6216
18.7180,10.7282,-4.4647,5.5338
18.7260,10.5582,-4.3794,5.4483
18.7340,10.3922,-4.2947,5.3652
18.7420,10.2302,-4.2113,5.2842
18.7500,10.0717,-4.1295,5.2046
18.7580,9.9157,-4.0491,5.1253
18.7660,9.7607,-3.9698,5.0452
18.7740,9.6053,-3.8911,4.9634
18.7820,9.4485,-3.8126,4.8797
18.7900,9.2898,-3.7345,4.7946
18.7980,9.1294,-3.6571,4.7091
18.8060,8.9684,-3.5812,4.6245
18.8140,8.8079,-3.5075,4.5424
18.8220,8.6494,-3.4367,4.4637
18.8300,8.4938,-3.3686,4.3887
18.8380,8.3415,-3.3026,4.3168
18.8460,8.1926,-3.2375,4.2469
18.8540,8.0464,-3.1721,4.1772
18.8620,7.9022,-3.1049,4.1059
18.8700,7.7590,-3.0350,4.0314
18.8780,7.6161,-2.9622,3.9532
18.8860,7.4732,-2.8869,3.8715
18.8940,7.3303,-2.8101,3.7876
18.9020,7.1878,-2.7333,3.7033
18.9100,7.0464,-2.6581,3.6208
18.9180,6.9067,-2.5857,3.5420
18.9260,6.7696,-2.5169,3.4681
18.9340,6.6353,-2.4520,3.3992
18.9420,6.5042,-2.3904,3.3346
18.9500,6.3757,-2.3311,3.2728
18.9580,6.2494,-2.2728,3.2118
18.9660,6.1242,-2.2140,3.1497
18.9740,5.9992,-2.1537,3.0847
18.9820,5.8736,-2.0915,3.0160
18.9900,5.7469,-2.0274,2.9435
18.9980,5.6193,-1.9623,2.8682
19.0060,5.4914,-1.8974,2.7918
19.0140,5.3640,-1.8342,2.7164
19.0220,5.2384,-1.7737,2.6440
19.0300,5.1152,-1.7166,2.5763
19.0380,4.9950,-1.6630,2.5139
19.0460,4.8776,-1.6123,2.4566
19.0540,4.7628,-1.5636,2.4033
19.0620,4.6498,-1.5157,2.3523
19.0700,4.5380,-1.4674,2.3015
19.0780,4.4268,-1.4181,2.2491
19.0860,4.3157,-1.3671,2.1936
19.0940,4.2046,-1.3144,2.1342
19.1020,4.0939,-1.2604,2.0711
19.1100,3.9840,-1.2057,2.0051
19.1180,3.8758,-1.1512,1.9378
19.1260,3.7700,-1.0977,1.8709
19.1340,3.6670,-1.0460,1.8063
19.1420,3.5672,-0.9966,1.7457
19.1500,3.4703,-0.9500,1.6900
19.1580,3.3758,-0.9060,1.6396
19.1660,3.2828,-0.8643,1.5941
19.1740,3.1901,-0.8243,1.5522
19.1820,3.0968,-0.7851,1.5123
19.1900,3.0022,-0.7457,1.4723
19.1980,2.9062,-0.7054,1.4304
19.2060,2.8090,-0.6633,1.3849
19.2140,2.7117,-0.6194,1.3348
19.2220,2.6151,-0.5736,1.2802
19.2300,2.5204,-0.5266,1.2218
19.2380,2.4283,-0.4792,1.1610
19.2460,2.3394,-0.4324,1.0995
19.2540,2.2537,-0.3872,1.0392
19.2620,2.1710,-0.3445,0.9817
19.2700,2.0909,-0.3045,0.9280
19.2780,2.0127,-0.2676,0.8789
19.2860,1.9361,-0.2334,0.8342
19.2940,1.8606,-0.2016,0.7936
19.3020,1.7859,-0.1715,0.7564
19.3100,1.7117,-0.1427,0.7216
19.3180,1.6381,-0.1144,0.6881
19.3260,1.5650,-0.0862,0.6548
19.3340,1.4926,-0.0576,0.6207
19.3420,1.4211,-0.0283,0.5846
19.3500,1.3506,0.0020,0.5458
19.3580,1.2813,0.0333,0.5039
19.3660,1.2133,0.0655,0.4589
19.3740,1.1468,0.0984,0.4112
19.3820,1.0818,0.1316,0.3617
19.3900,1.0184,0.1647,0.3116
19.3980,0.9566,0.1972,0.2623
19.4060,0.8963,0.2287,0.2150
19.4140,0.8376,0.2586,0.1706
19.4220,0.7805,0.2868,0.1297
19.4300,0.7250,0.3131,0.0922
19.4380,0.6712,0.3376,0.0577
19.4460,0.6191,0.3605,0.0254
19.4540,0.5688,0.3820,-0.0054
19.4620,0.5202,0.4026,-0.0356
19.4700,0.4731,0.4227,-0.0655
19.4780,0.4273,0.4426,-0.0956
19.4860,0.3823,0.4627,-0.1259
19.4940,0.3379,0.4829,-0.1561
19.5020,0.2940,0.5034,-0.1859
19.5090,0.2504,0.5237,-0.2150
19.5170,0.2074,0.5437,-0.2429
19.5250,0.1653,0.5629,-0.2694
19.5330,0.1244,0.5811,-0.2943
19.5410,0.0851,0.5981,-0.3177
19.5490,0.0477,0.6138,-0.3398
19.5570,0.0121,0.6283,-0.3611
19.5650,-0.0215,0.6419,-0.3820
19.5730,-0.0536,0.6548,-0.4026
19.5810,-0.0842,0.6671,-0.4232
19.5890,-0.1137,0.6790,-0.4437
19.5970,-0.1424,0.6905,-0.4640
19.6050,-0.1703,0.7016,-0.4840
19.6130,-0.1974,0.7124,-0.5033
19.6210,-0.2237,0.7227,-0.5220
19.6290,-0.2487,0.7324,-0.5399
19.6370,-0.2724,0.7414,-0.5571
19.6450,-0.2946,0.7497,-0.5737
19.6530,-0.3151,0.7569,-0.5895
19.6610,-0.3339,0.7629,-0.6045
19.6690,-0.3511,0.7677,-0.6188
19.6770,-0.3668,0.7713,-0.6323
19.6850,-0.3810,0.7737,-0.6450
19.6930,-0.3937,0.7751,-0.6570
19.7010,-0.4049,0.7758,-0.6683
19.7090,-0.4144,0.7760,-0.6793
19.7170,-0.4223,0.7759,-0.6901
19.7250,-0.4285,0.7757,-0.7008
19.7330,-0.4329,0.7757,-0.7116
19.7410,-0.4359,0.7758,-0.7222
19.7490,-0.4376,0.7762,-0.7325
19.7570,-0.4384,0.7767,-0.7419
19.7650,-0.4386,0.7773,-0.7496
19.7730,-0.4385,0.7777,-0.7549
19.7810,-0.4386,0.7777,-0.7574
19.7890,-0.4387,0.7771,-0.7569
19.7970,-0.4390,0.7755,-0.7537
19.8050,-0.4391,0.7728,-0.7486
19.8130,-0.4386,0.7689,-0.7430
19.8210,-0.4370,0.7640,-0.7382
19.8290,-0.4337,0.7583,-0.7357
19.8370,-0.4284,0.7521,-0.7363
19.8450,-0.4208,0.7456,-0.7403
19.8530,-0.4108,0.7389,-0.7471
19.8610,-0.3984,0.7319,-0.7558
19.8690,-0.3841,0.7245,-0.7648
19.8770,-0.3680,0.7162,-0.7727
19.8850,-0.3505,0.7069,-0.7787
19.8930,-0.3317,0.6963,-0.7821
19.9010,-0.3119,0.6844,-0.7830
19.9090,-0.2909,0.6713,-0.7819
19.9170,-0.2687,0.6573,-0.7796
19.9250,-0.2454,0.6426,-0.7767
19.9330,-0.2208,0.6273,-0.7738
19.9410,-0.1950,0.6117,-0.7708
19.9490,-0.1680,0.5956,-0.7677
19.9570,-0.1399,0.5791,-0.7639
19.9650,-0.1107,0.5619,-0.7587
19.9730,-0.0805,0.5439,-0.7517
19.9810,-0.0491,0.5251,-0.7425
19.9890,-0.0164,0.5055,-0.7309
19.9970,0.0179,0.4852,-0.7170
20.0050,0.0538,0.4643,-0.7011
20.0130,0.0917,0.4429,-0.6833
20.0210,0.1313,0.4211,-0.6641
20.0290,0.1727,0.3989,-0.6440
20.0370,0.2155,0.3762,-0.6235
20.0450,0.2594,0.3532,-0.6033
20.0530,0.3041,0.3299,-0.5842
20.0610,0.3494,0.3064,-0.5667
20.0690,0.3951,0.2830,-0.5511
20.0770,0.4413,0.2596,-0.5374
20.0850,0.4884,0.2362,-0.5249
20.0930,0.5366,0.2124,-0.5123
20.1010,0.5864,0.1878,-0.4985
20.1090,0.6383,0.1621,-0.4821
20.1170,0.6925,0.1351,-0.4625
20.1250,0.7490,0.1067,-0.4394
20.1330,0.8076,0.0772,-0.4136
20.1410,0.8680,0.0470,-0.3861
20.1490,0.9298,0.0165,-0.3584
20.1570,0.9926,-0.0138,-0.3317
20.1650,1.0563,-0.0440,-0.3068
20.1730,1.1208,-0.0740,-0.2839
20.1810,1.1862,-0.1044,-0.2624
20.1890,1.2526,-0.1356,-0.2415
20.1970,1.3203,-0.1681,-0.2199
20.2050,1.3893,-0.2023,-0.1966
20.2130,1.4598,-0.2384,-0.1708
20.2210,1.5316,-0.2762,-0.1421
20.2290,1.6047,-0.3156,-0.1107
20.2370,1.6789,-0.3559,-0.0771
20.2450,1.7538,-0.3967,-0.0421
20.2530,1.8292,-0.4374,-0.0065
20.2610,1.9049,-0.4775,0.0288
20.2690,1.9807,-0.5169,0.0634
20.2770,2.0568,-0.5554,0.0969
20.2850,2.1334,-0.5934,0.1296
20.2930,2.2112,-0.6312,0.1619
20.3010,2.2909,-0.6696,0.1944
20.3090,2.3733,-0.7090,0.2277
20.3170,2.4587,-0.7499,0.2624
20.3250,2.5476,-0.7924,0.2987
20.3330,2.6395,-0.8365,0.3364
20.3410,2.7338,-0.8818,0.3752
20.3490,2.8297,-0.9279,0.4148
20.3570,2.9261,-0.9744,0.4548
20.3650,3.0223,-1.0208,0.4950
20.3730,3.1177,-1.0672,0.5358
20.3810,3.2123,-1.1136,0.5774
20.3890,3.3064,-1.1603,0.6203
20.3970,3.4008,-1.2075,0.6647
20.4050,3.4963,-1.2556,0.7107
20.4130,3.5941,-1.3047,0.7580
20.4210,3.6948,-1.3548,0.8060
20.4290,3.7988,-1.4056,0.8538
20.4370,3.9061,-1.4566,0.9008
20.4450,4.0162,-1.5076,0.9461
20.4530,4.1283,-1.5579,0.9895
20.4610,4.2418,-1.6075,1.0308
20.4690,4.3560,-1.6565,1.0706
20.4770,4.4707,-1.7052,1.1095
20.4850,4.5859,-1.7542,1.1487
20.4930,4.7017,-1.8042,1.1890
20.5010,4.8185,-1.8559,1.2316
20.5090,4.9366,-1.9098,1.2773
20.5170,5.0561,-1.9661,1.3265
20.5250,5.1771,-2.0249,1.3794
20.5330,5.2996,-2.0857,1.4355
20.5410,5.4231,-2.1479,1.4941
20.5490,5.5473,-2.2108,1.5540
20.5570,5.6718,-2.2734,1.6139
20.5640,5.7962,-2.3351,1.6725
20.5720,5.9202,-2.3952,1.7286
20.5800,6.0438,-2.4536,1.7818
20.5880,6.1674,-2.5106,1.8322
20.5960,6.2918,-2.5667,1.8805
20.6040,6.4180,-2.6227,1.9282
20.6120,6.5471,-2.6799,1.9771
20.6200,6.6801,-2.7391,2.0288
20.6280,6.8175,-2.8010,2.0847
20.6360,6.9591,-2.8661,2.1453
20.6440,7.1040,-2.9341,2.2103
20.6520,7.2509,-3.0043,2.2784
20.6600,7.3983,-3.0755,2.3480
20.6680,7.5450,-3.1465,2.4169
20.6760,7.6900,-3.2162,2.4833
20.6840,7.8334,-3.2839,2.5463
20.6920,7.9754,-3.3493,2.6054
20.7000,8.1170,-3.4129,2.6615
20.7080,8.2597,-3.4757,2.7161
20.7160,8.4046,-3.5388,2.7713
20.7240,8.5530,-3.6036,2.8289
20.7320,8.7053,-3.6707,2.8905
20.7400,8.8616,-3.7406,2.9567
20.7480,9.0211,-3.8129,3.0270
20.7560,9.1827,-3.8871,3.1002
20.7640,9.3452,-3.9623,3.1744
20.7720,9.5076,-4.0379,3.2478
20.7800,9.6692,-4.1134,3.3192
20.7880,9.8299,-4.1888,3.3881
20.7960,9.9901,-4.2644,3.4548
20.8040,10.1506,-4.3409,3.5205
20.8120,10.3123,-4.4186,3.5870
20.8200,10.4763,-4.4982,3.6558
20.8280,10.6433,-4.5796,3.7281
20.8360,10.8134,-4.6628,3.8045
20.8440,10.9864,-4.7471,3.8845
20.8520,11.1617,-4.8318,3.9669
20.8600,11.3382,-4.9161,4.0501
20.8680,11.5148,-4.9993,4.1327
20.8760,11.6905,-5.0807,4.2135
20.8840,11.8648,-5.1601,4.2921
20.8920,12.0375,-5.2377,4.3688
20.9000,12.2093,-5.3140,4.4446
20.9080,12.3811,-5.3900,4.5205
20.9160,12.5546,-5.4665,4.5978
20.9240,12.7312,-5.5445,4.6770
20.9320,12.9121,-5.6246,4.7582
20.9400,13.0978,-5.7067,4.8411
20.9480,13.2881,-5.7908,4.9248
20.9560,13.4821,-5.8763,5.0085
20.9640,13.6783,-5.9627,5.0916
20.9720,13.8754,-6.0499,5.1739
20.9800,14.0724,-6.1379,5.2556
20.9880,14.2685,-6.2270,5.3373
20.9960,14.4639,-6.3177,5.4194
21.0040,14.6588,-6.4102,5.5026
21.0120,14.8539,-6.5047,5.5870
21.0200,15.0499,-6.6007,5.6728
21.0280,15.2475,-6.6976,5.7600
21.0360,15.4470,-6.7948,5.8484
21.0440,15.6486,-6.8914,5.9382
21.0520,15.8521,-6.9871,6.0294
21.0600,16.0568,-7.0814,6.1219
21.0680,16.2622,-7.1744,6.2155
21.0760,16.4672,-7.2661,6.3100
21.0840,16.6713,-7.3566,6.4049
21.0920,16.8742,-7.4465,6.4995
21.1000,17.0760,-7.5360,6.5937
21.1080,17.2778,-7.6258,6.6873
21.1160,17.4810,-7.7165,6.7807
21.1240,17.6874,-7.8090,6.8745
21.1320,17.8985,-7.9040,6.9692
21.1400,18.1155,-8.0022,7.0655
21.1480,18.3382,-8.1035,7.1633
21.1560,18.5656,-8.2075,7.2622
21.1640,18.7960,-8.3135,7.3615
21.1720,19.0271,-8.4202,7.4604
21.1800,19.2568,-8.5265,7.5583
21.1880,19.4837,-8.6314,7.6551
21.1960,19.7073,-8.7345,7.7515
21.2040,19.9278,-8.8360,7.8486
21.2120,20.1468,-8.9367,7.9482
21.2200,20.3660,-9.0379,8.0519
21.2280,20.5878,-9.1408,8.1612
21.2360,20.8139,-9.2469,8.2768
21.2440,21.0452,-9.3567,8.3988
21.2520,21.2816,-9.4705,8.5258
21.2600,21.5220,-9.5878,8.6562
21.2680,21.7644,-9.7077,8.7877
21.2760,22.0068,-9.8289,8.9181
21.2840,22.2474,-9.9503,9.0460
21.2920,22.4852,-10.0708,9.1702
21.3000,22.7198,-10.1898,9.2905
21.3080,22.9516,-10.3067,9.4074
21.3160,23.1816,-10.4215,9.5214
21.3240,23.4107,-10.5342,9.6336
21.3320,23.6401,-10.6451,9.7452
21.3400,23.8704,-10.7546,9.8573
21.3480,24.1020,-10.8633,9.9708
21.3560,24.3348,-10.9721,10.0864
21.3640,24.5684,-11.0816,10.2047
21.3720,24.8018,-11.1926,10.3252
21.3800,25.0341,-11.3054,10.4476
21.3880,25.2642,-11.4202,10.5706
21.3960,25.4916,-11.5366,10.6933
21.4040,25.7161,-11.6540,10.8147
21.4120,25.9382,-11.7718,10.9342
21.4200,26.1592,-11.8891,11.0520
21.4280,26.3809,-12.0056,11.1687
21.4360,26.6051,-12.1212,11.2854
21.4440,26.8334,-12.2359,11.4029
21.4520,27.0664,-12.3499,11.5219
21.4600,27.3037,-12.4630,11.6425
21.4680,27.5437,-12.5752,11.7645
21.4760,27.7846,-12.6861,11.8872
21.4840,28.0240,-12.7953,12.0098
21.4920,28.2604,-12.9026,12.1314
21.5000,28.4925,-13.0082,12.2514
21.5080,28.7203,-13.1124,12.3691
21.5160,28.9444,-13.2161,12.4844
21.5240,29.1663,-13.3200,12.5975
21.5320,29.3879,-13.4251,12.7088
21.5400,29.6109,-13.5320,12.8191
21.5480,29.8369,-13.6411,12.9295
21.5560,30.0664,-13.7523,13.0405
21.5640,30.2993,-13.8652,13.1526
21.5720,30.5346,-13.9788,13.2654
21.5800,30.7710,-14.0924,13.3787
21.5880,31.0070,-14.2051,13.4918
21.5960,31.2413,-14.3163,13.6045
21.6040,31.4734,-14.4259,13.7166
21.6120,31.7032,-14.5338,13.8285
21.6190,31.9313,-14.6406,13.9403
21.6270,32.1587,-14.7468,14.0523
21.6350,32.3865,-14.8529,14.1644
21.6430,32.6157,-14.9594,14.2760
21.6510,32.8470,-15.0666,14.3865
21.6590,33.0805,-15.1748,14.4950
21.6670,33.3158,-15.2839,14.6011
21.6750,33.5520,-15.3938,14.7045
21.6830,33.7876,-15.5043,14.8053
21.6910,34.0216,-15.6151,14.9043
21.6990,34.2530,-15.7256,15.0026
21.7070,34.4812,-15.8354,15.1016
21.7150,34.7064,-15.9441,15.2028
21.7230,34.9298,-16.0513,15.3076
21.7310,35.1526,-16.1571,15.4171
21.7390,35.3769,-16.2619,15.5319
21.7470,35.6041,-16.3667,15.6514
21.7550,35.8353,-16.4725,15.7748
21.7630,36.0707,-16.5802,15.9000
21.7710,36.3096,-16.6908,16.0251
21.7790,36.5507,-16.8045,16.1479
21.7870,36.7925,-16.9211,16.2670
21.7950,37.0336,-17.0399,16.3815
21.8030,37.2731,-17.1601,16.4915
21.8110,37.5103,-17.2803,16.5975
21.8190,37.7450,-17.3991,16.7004
21.8270,37.9770,-17.5155,16.8014
21.8350,38.2062,-17.6282,16.9015
21.8430,38.4326,-17.7367,17.0017
21.8510,38.6563,-17.8405,17.1028
21.8590,38.8774,-17.9400,17.2050
21.8670,39.0967,-18.0359,17.3086
21.8750,39.3149,-18.1293,17.4131
21.8830,39.5330,-18.2215,17.5180
21.8910,39.7515,-18.3140,17.6220
21.8990,39.9711,-18.4077,17.7242
21.9070,40.1915,-18.5036,17.8236
21.9150,40.4127,-18.6022,17.9196
21.9230,40.6346,-18.7036,18.0124
21.9310,40.8575,-18.8083,18.1028
21.9390,41.0821,-18.9164,18.1924
21.9470,41.3097,-19.0281,18.2832
21.9550,41.5412,-19.1433,18.3774
21.9630,41.7774,-19.2616,18.4765
21.9710,42.0179,-19.3819,18.5818
21.9790,42.2616,-19.5028,18.6933
21.9870,42.5066,-19.6228,18.8100
21.9950,42.7505,-19.7405,18.9302
22.0030,42.9913,-19.8550,19.0515
22.0110,43.2275,-19.9660,19.1718
22.0190,43.4586,-20.0739,19.2891
22.0270,43.6854,-20.1799,19.4022
22.0350,43.9095,-20.2853,19.5111
22.0430,44.1330,-20.3916,19.6163
22.0510,44.3585,-20.5004,19.7189
22.0590,44.5880,-20.6124,19.8204
22.0670,44.8227,-20.7280,19.9219
22.0750,45.0627,-20.8466,20.0244
22.0830,45.3069,-20.9670,20.1284
22.0910,45.5534,-21.0874,20.2342
22.0990,45.8002,-21.2061,20.3418
22.1070,46.0455,-21.3217,20.4514
22.1150,46.2881,-21.4333,20.5628
22.1230,46.5277,-21.5410,20.6758
22.1310,46.7646,-21.6455,20.7900
22.1390,46.9994,-21.7480,20.9049
22.1470,47.2332,-21.8502,21.0198
22.1550,47.4669,-21.9537,21.1340
22.1630,47.7013,-22.0597,21.2467
22.1710,47.9369,-22.1690,21.3575
22.1790,48.1736,-22.2817,21.4661
22.1870,48.4110,-22.3973,21.5724
22.1950,48.6485,-22.5150,21.6767
22.2030,48.8852,-22.6335,21.7796
22.2110,49.1201,-22.7513,21.8819
22.2190,49.3526,-22.8672,21.9845
22.2270,49.5826,-22.9804,22.0884
22.2350,49.8106,-23.0904,22.1942
22.2430,50.0379,-23.1974,22.3025
22.2510,50.2660,-23.3020,22.4131
22.2590,50.4969,-23.4053,22.5256
22.2670,50.7319,-23.5084,22.6394
22.2750,50.9714,-23.6120,22.7531
22.2830,51.2148,-23.7170,22.8657
22.2910,51.4606,-23.8236,22.9757
22.2990,51.7066,-23.9317,23.0824
22.3070,51.9505,-24.0412,23.1849
22.3150,52.1907,-24.1518,23.2833
22.3230,52.4261,-24.2632,23.3781
22.3310,52.6568,-24.3753,23.4705
22.3390,52.8841,-24.4879,23.5623
22.3470,53.1097,-24.6011,23.6554
22.3550,53.3361,-24.7149,23.7519
22.3630,53.5654,-24.8296,23.8535
22.3710,53.7992,-24.9450,23.9610
22.3790,54.0381,-25.0612,24.0744
22.3870,54.2816,-25.1777,24.1926
22.3950,54.5280,-25.2942,24.3139
22.4030,54.7756,-25.4102,24.4362
22.4110,55.0225,-25.5255,24.5577
22.4190,55.2672,-25.6404,24.6765
22.4270,55.5093,-25.7550,24.7916
22.4350,55.7489,-25.8701,24.9026
22.4430,55.9866,-25.9860,25.0099
22.4510,56.2234,-26.1032,25.1142
22.4590,56.4602,-26.2218,25.2171
22.4670,56.6979,-26.3416,25.3205
22.4750,56.9368,-26.4621,25.4260
22.4830,57.1769,-26.5827,25.5352
22.4910,57.4177,-26.7027,25.6490
22.4990,57.6586,-26.8216,25.7672
22.5070,57.8985,-26.9389,25.8891
22.5150,58.1364,-27.0543,26.0131
22.5230,58.3716,-27.1679,26.1372
22.5310,58.6038,-27.2800,26.2594
22.5390,58.8334,-27.3913,26.3782
22.5470,59.0614,-27.5024,26.4927
22.5550,59.2895,-27.6144,26.6031
22.5630,59.5199,-27.7277,26.7100
22.5710,59.7541,-27.8431,26.8148
22.5790,59.9934,-27.9604,26.9191
22.5870,60.2377,-28.0792,27.0242
22.5950,60.4859,-28.1987,27.1308
22.6030,60.7361,-28.3179,27.2393
22.6110,60.9863,-28.4358,27.3496
22.6190,61.2346,-28.5517,27.4611
22.6270,61.4796,-28.6654,27.5733
22.6350,61.7210,-28.7771,27.6857
22.6430,61.9592,-28.8874,27.7976
22.6510,62.1952,-28.9969,27.9087
22.6590,62.4304,-29.1066,28.0187
22.6670,62.6663,-29.2172,28.1273
22.6740,62.9042,-29.3294,28.2342
22.6820,63.1448,-29.4433,28.3396
22.6900,63.3879,-29.5586,28.4437
22.6980,63.6329,-29.6750,28.5469
22.7060,63.8784,-29.7916,28.6496
22.7140,64.1227,-29.9076,28.7524
22.7220,64.3644,-30.0221,28.8555
22.7300,64.6025,-30.1345,28.9588
22.7380,64.8368,-30.2447,29.0624
22.7460,65.0680,-30.3530,29.1663
22.7540,65.2979,-30.4601,29.2706
22.7620,65.5285,-30.5674,29.3758
22.7700,65.7621,-30.6762,29.4823
22.7780,66.0004,-30.7877,29.5903
22.7860,66.2440,-30.9023,29.6996
22.7940,66.4923,-31.0201,29.8099
22.8020,66.7436,-31.1401,29.9203
22.8100,66.9955,-31.2610,30.0300
22.8180,67.2456,-31.3812,30.1383
22.8260,67.4918,-31.4991,30.2446
22.8340,67.7332,-31.6138,30.3491
22.8420,67.9696,-31.7249,30.4522
22.8500,68.2022,-31.8331,30.5548
22.8580,68.4328,-31.9396,30.6581
22.8660,68.6637,-32.0463,30.7634
22.8740,68.8973,-32.1554,30.8719
22.8820,69.1350,-32.2686,30.9842
22.8900,69.3773,-32.3869,31.1006
22.8980,69.6234,-32.5105,31.2203
22.9060,69.8716,-32.6389,31.3422
22.9140,70.1197,-32.7706,31.4646
22.9220,70.3657,-32.9039,31.5861
22.9300,70.6081,-33.0375,31.7057
22.9380,70.8461,-33.1699,31.8230
22.9460,71.0796,-33.3006,31.9384
22.9540,71.3094,-33.4293,32.0528
22.9620,71.5363,-33.5560,32.1671
22.9700,71.7613,-33.6809,32.2822
22.9780,71.9853,-33.8042,32.3987
22.9860,72.2089,-33.9259,32.5166
22.9940,72.4322,-34.0461,32.6356
23.0020,72.6551,-34.1646,32.7547
23.0100,72.8770,-34.2813,32.8730
23.0180,73.0971,-34.3961,32.9893
23.0260,73.3145,-34.5089,33.1027
23.0340,73.5285,-34.6201,33.2128
23.0420,73.7388,-34.7300,33.3194
23.0500,73.9455,-34.8394,33.4230
23.0580,74.1496,-34.9491,33.5244
23.0660,74.3525,-35.0600,33.6243
23.0740,74.5558,-35.1728,33.7239
23.0820,74.7610,-35.2878,33.8239
23.0900,74.9690,-35.4046,33.9247
23.0980,75.1796,-35.5222,34.0264
23.1060,75.3919,-35.6392,34.1288
23.1140,75.6039,-35.7540,34.2315
23.1220,75.8138,-35.8653,34.3340
23.1300,76.0198,-35.9723,34.4358
23.1380,76.2205,-36.0749,34.5364
23.1460,76.4157,-36.1736,34.6355
23.1540,76.6058,-36.2697,34.7329
23.1620,76.7923,-36.3648,34.8285
23.1700,76.9769,-36.4604,34.9228
23.1780,77.1618,-36.5583,35.0163
23.1860,77.3484,-36.6596,35.1100
23.1940,77.5378,-36.7650,35.2046
23.2020,77.7301,-36.8743,35.3007
23.2100,77.9242,-36.9866,35.3985
23.2180,78.1188,-37.1004,35.4974
23.2260,78.3122,-37.2137,35.5969
23.2340,78.5030,-37.3247,35.6958
23.2420,78.6903,-37.4319,35.7934
23.2500,78.8739,-37.5345,35.8889
23.2580,79.0541,-37.6323,35.9819
23.2660,79.2314,-37.7254,36.0721
23.2740,79.4066,-37.8147,36.1597
23.2820,79.5806,-37.9008,36.2445
23.2900,79.7538,-37.9848,36.3269
23.2980,79.9267,-38.0676,36.4070
23.3060,80.0990,-38.1500,36.4854
23.3140,80.2707,-38.2329,36.5623
23.3220,80.4411,-38.3170,36.6383
23.3300,80.6095,-38.4029,36.7139
23.3380,80.7754,-38.4907,36.7892
23.3460,80.9383,-38.5804,36.8643
23.3540,81.0981,-38.6717,36.9390
23.3620,81.2552,-38.7641,37.0129
23.3700,81.4105,-38.8573,37.0858
23.3780,81.5652,-38.9507,37.1574
23.3860,81.7204,-39.0441,37.2279
23.3940,81.8770,-39.1369,37.2975
23.4020,82.0355,-39.2288,37.3668
23.4100,82.1954,-39.3190,37.4364
23.4180,82.3559,-39.4070,37.5069
23.4260,82.5155,-39.4923,37.5788
23.4340,82.6732,-39.5748,37.6522
23.4420,82.8277,-39.6544,37.7271
23.4500,82.9788,-39.7315,37.8029
23.4580,83.1262,-39.8069,37.8788
23.4660,83.2706,-39.8811,37.9540
23.4740,83.4127,-39.9549,38.0276
23.4820,83.5534,-40.0289,38.0992
23.4900,83.6936,-40.1039,38.1685
23.4980,83.8340,-40.1800,38.2357
23.5060,83.9748,-40.2575,38.3012
23.5140,84.1159,-40.3364,38.3654
23.5220,84.2567,-40.4163,38.4287
23.5300,84.3963,-40.4964,38.4909
23.5380,84.5338,-40.5759,38.5520
23.5460,84.6686,-40.6537,38.6114
23.5540,84.8000,-40.7292,38.6688
23.5620,84.9282,-40.8017,38.7240
23.5700,85.0539,-40.8716,38.7776
23.5780,85.1779,-40.9394,38.8304
23.5860,85.3017,-41.0063,38.8839
23.5940,85.4263,-41.0737,38.9392
23.6020,85.5527,-41.1425,38.9975
23.6100,85.6809,-41.2133,39.0590
23.6180,85.8102,-41.2856,39.1231
23.6260,85.9397,-41.3585,39.1886
23.6340,86.0676,-41.4305,39.2538
23.6420,86.1928,-41.5002,39.3173
23.6500,86.3140,-41.5662,39.3778
23.6580,86.4310,-41.6283,39.4349
23.6660,86.5439,-41.6866,39.4889
23.6740,86.6536,-41.7422,39.5407
23.6820,86.7612,-41.7965,39.5914
23.6900,86.8682,-41.8514,39.6423
23.6980,86.9756,-41.9081,39.6942
23.7060,87.0841,-41.9678,39.7474
23.7140,87.1938,-42.0306,39.8017
23.7220,87.3041,-42.0961,39.8562
23.7290,87.4142,-42.1633,39.9103
23.7370,87.5231,-42.2311,39.9631
23.7450,87.6299,-42.2981,40.0144
23.7530,87.7341,-42.3634,40.0640
23.7610,87.8355,-42.4264,40.1123
23.7690,87.9343,-42.4866,40.1597
23.7770,88.0308,-42.5442,40.2064
23.7850,88.1255,-42.5995,40.2526
23.7930,88.2188,-42.6530,40.2982
23.8010,88.3112,-42.7053,40.3427
23.8090,88.4028,-42.7570,40.3857
23.8170,88.4937,-42.8084,40.4267
23.8250,88.5837,-42.8599,40.4653
23.8330,88.6726,-42.9114,40.5014
23.8410,88.7600,-42.9626,40.5351
23.8490,88.8456,-43.0132,40.5669
23.8570,88.9291,-43.0627,40.5972
23.8650,89.0105,-43.1107,40.6269
23.8730,89.0898,-43.1570,40.6567
23.8810,89.1675,-43.2016,40.6872
23.8890,89.2442,-43.2445,40.7187
23.8970,89.3203,-43.2861,40.7514
23.9050,89.3964,-43.3265,40.7852
23.9130,89.4727,-43.3659,40.8197
23.9210,89.5489,-43.4048,40.8542
23.9290,89.6246,-43.4434,40.8884
23.9370,89.6991,-43.4821,40.9218
23.9450,89.7718,-43.5213,40.9540
23.9530,89.8421,-43.5616,40.9849
23.9610,89.9097,-43.6030,41.0146
23.9690,89.9746,-43.6457,41.0432
23.9770,90.0371,-43.6893,41.0710
23.9850,90.0977,-43.7334,41.0981
23.9930,90.1570,-43.7774,41.1250
24.0010,90.2156,-43.8207,41.1519
24.0090,90.2740,-43.8626,41.1789
24.0170,90.3324,-43.9024,41.2059
24.0250,90.3906,-43.9395,41.2324
24.0330,90.4482,-43.9733,41.2580
24.0410,90.5049,-44.0036,41.2820
24.0490,90.5601,-44.0305,41.3040
24.0570,90.6135,-44.0546,41.3239
24.0650,90.6650,-44.0768,41.3417
24.0730,90.7145,-44.0982,41.3582
24.0810,90.7622,-44.1201,41.3738
24.0890,90.8082,-44.1434,41.3893
24.0970,90.8528,-44.1686,41.4053
24.1050,90.8960,-44.1959,41.4223
24.1130,90.9381,-44.2248,41.4401
24.1210,90.9790,-44.2547,41.4587
24.1290,91.0187,-44.2847,41.4775
24.1370,91.0573,-44.3141,41.4960
24.1450,91.0946,-44.3418,41.5136
24.1530,91.1305,-44.3675,41.5297
24.1610,91.1649,-44.3908,41.5441
24.1690,91.1978,-44.4119,41.5567
24.1770,91.2293,-44.4311,41.5677
24.1850,91.2593,-44.4491,41.5773
24.1930,91.2880,-44.4666,41.5861
24.2010,91.3156,-44.4841,41.5943
24.2090,91.3423,-44.5023,41.6022
24.2170,91.3681,-44.5214,41.6097
24.2250,91.3931,-44.5411,41.6168
24.2330,91.4171,-44.5613,41.6232
24.2410,91.4400,-44.5814,41.6289
24.2490,91.4617,-44.6008,41.6337
24.2570,91.4820,-44.6193,41.6378
24.2650,91.5007,-44.6363,41.6415
24.2730,91.5178,-44.6518,41.6451
24.2810,91.5332,-44.6656,41.6488
24.2890,91.5468,-44.6780,41.6529
24.2970,91.5586,-44.6889,41.6575
24.3050,91.5685,-44.6987,41.6625
24.3130,91.5764,-44.7074,41.6676
24.3210,91.5825,-44.7153,41.6723
24.3290,91.5868,-44.7223,41.6764
24.3370,91.5896,-44.7285,41.6794
24.3450,91.5912,-44.7337,41.6810
24.3530,91.5919,-44.7378,41.6812
24.3610,91.5921,-44.7407,41.6802
24.3690,91.5921,-44.7426,41.6782
24.3770,91.5922,-44.7436,41.6756
24.3850,91.5923,-44.7440,41.6728
24.3930,91.5925,-44.7444,41.6701
24.4010,91.5926,-44.7450,41.6676
24.4090,91.5922,-44.7461,41.6655
24.4170,91.5908,-44.7481,41.6638
24.4250,91.5882,-44.7510,41.6624
24.4330,91.5839,-44.7547,41.6612
24.4410,91.5777,-44.7591,41.6603
24.4490,91.5695,-44.7638,41.6594
24.4570,91.5594,-44.7685,41.6584
24.4650,91.5473,-44.7729,41.6570
24.4730,91.5336,-44.7764,41.6549
24.4810,91.5185,-44.7786,41.6517
24.4890,91.5020,-44.7791,41.6471
24.4970,91.4841,-44.7776,41.6409
24.5050,91.4649,-44.7738,41.6329
24.5130,91.4440,-44.7679,41.6230
24.5210,91.4213,-44.7601,41.6112
24.5290,91.3967,-44.7507,41.5978
24.5370,91.3702,-44.7404,41.5832
24.5450,91.3418,-44.7298,41.5677
24.5530,91.3119,-44.7192,41.5519
24.5610,91.2809,-44.7093,41.5365
24.5690,91.2494,-44.7004,41.5221
24.5770,91.2179,-44.6927,41.5096
24.5850,91.1870,-44.6862,41.4992
24.5930,91.1568,-44.6808,41.4914
24.6010,91.1272,-44.6757,41.4857
24.6090,91.0975,-44.6703,41.4812
24.6170,91.0666,-44.6635,41.4767
24.6250,91.0332,-44.6540,41.4706
24.6330,90.9961,-44.6410,41.4611
24.6410,90.9545,-44.6238,41.4472
24.6490,90.9082,-44.6026,41.4284
24.6570,90.8580,-44.5781,41.4052
24.6650,90.8050,-44.5514,41.3786
24.6730,90.7506,-44.5240,41.3503
24.6810,90.6964,-44.4973,41.3218
24.6890,90.6430,-44.4723,41.2944
24.6970,90.5907,-44.4495,41.2690
24.7050,90.5390,-44.4289,41.2453
24.7130,90.4872,-44.4097,41.2231
24.7210,90.4343,-44.3911,41.2013
24.7290,90.3794,-44.3720,41.1789
24.7370,90.3222,-44.3514,41.1551
24.7450,90.2626,-44.3285,41.1293
24.7530,90.2009,-44.3028,41.1012
24.7610,90.1376,-44.2744,41.0709
24.7690,90.0733,-44.2434,41.0388
24.7770,90.0083,-44.2106,41.0054
24.7840,89.9430,-44.1766,40.9713
24.7920,89.8773,-44.1422,40.9370
24.8000,89.8111,-44.1081,40.9031
24.8080,89.7445,-44.0748,40.8702
24.8160,89.6776,-44.0428,40.8386
24.8240,89.6113,-44.0122,40.8088
24.8320,89.5465,-43.9833,40.7809
24.8400,89.4846,-43.9562,40.7555
24.8480,89.4269,-43.9313,40.7327
24.8560,89.3741,-43.9090,40.7128
24.8640,89.3260,-43.8893,40.6958
24.8720,89.2809,-43.8721,40.6816
24.8800,89.2357,-43.8565,40.6691
24.8880,89.1860,-43.8408,40.6568
24.8960,89.1272,-43.8225,40.6422
24.9040,89.0549,-43.7985,40.6225
24.9120,88.9662,-43.7658,40.5950
24.9200,88.8606,-43.7224,40.5577
24.9280,88.7402,-43.6677,40.5101
24.9360,88.6092,-43.6032,40.4533
24.9440,88.4734,-43.5320,40.3902
24.9520,88.3388,-43.4584,40.3248
24.9600,88.2103,-43.3870,40.2609
24.9680,88.0910,-43.3211,40.2018
24.9760,87.9817,-43.2631,40.1495
24.9840,87.8813,-43.2132,40.1042
24.9920,87.7875,-43.1703,40.0652
25.0000,87.6969,-43.1321,40.0303
25.0080,87.6063,-43.0955,39.9973
25.0160,87.5130,-43.0579,39.9640
25.0240,87.4151,-43.0166,39.9285
25.0320,87.3118,-42.9703,39.8896
25.0400,87.2032,-42.9185,39.8468
25.0480,87.0901,-42.8618,39.8002
25.0560,86.9740,-42.8017,39.7504
25.0640,86.8565,-42.7399,39.6984
25.0720,86.7389,-42.6784,39.6451
25.0800,86.6223,-42.6187,39.5916
25.0880,86.5070,-42.5616,39.5387
25.0960,86.3930,-42.5074,39.4870
25.1040,86.2796,-42.4558,39.4368
25.1120,86.1660,-42.4056,39.3883
25.1200,86.0510,-42.3556,39.3413
25.1280,85.9337,-42.3047,39.2955
25.1360,85.8133,-42.2519,39.2505
25.1440,85.6895,-42.1965,39.2056
25.1520,85.5624,-42.1386,39.1602
25.1600,85.4326,-42.0783,39.1135
25.1680,85.3010,-42.0163,39.0646
