RehabEngGroup/ob-ik-opensim-plugin/test_data/out_data/experimental/trial01.csv
time,shoulder_pan,shoulder_lift,elbow
0.0080,0.0007,-0.0006,-0.0014
0.0160,0.0027,0.0008,0.0000
0.0240,0.0014,-0.0006,-0.0014
0.0320,0.0034,0.0008,-0.0020
0.0400,0.0014,0.0022,0.0000
0.0480,0.0041,0.0022,0.0007
0.0560,0.0021,-0.0033,-0.0014
0.0640,0.0021,-0.0012,-0.0027
0.0720,0.0027,0.0008,-0.0007
0.0800,0.0021,-0.0006,-0.0027
0.0880,0.0034,-0.0006,-0.0014
0.0960,0.0021,0.0008,-0.0007
0.1040,0.0021,0.0001,0.0007
0.1120,0.0034,0.0015,0.0000
0.1200,0.0007,-0.0019,-0.0014
0.1280,0.0034,-0.0012,-0.0014
0.1360,0.0034,0.0001,0.0014
0.1440,0.0021,-0.0006,0.0000
0.1520,0.0014,-0.0019,-0.0034
0.1600,0.0021,-0.0006,-0.0020
0.1680,0.0034,-0.0019,0.0000
0.1760,0.0027,-0.0019,0.0007
0.1840,0.0041,0.0022,-0.0027
0.1920,0.0021,0.0008,-0.0027
0.2000,0.0014,0.0015,0.0000
0.2080,0.0014,0.0001,0.0007
0.2160,0.0014,-0.0006,-0.0007
0.2240,0.0007,-0.0006,0.0000
0.2320,0.0007,-0.0012,-0.0007
0.2400,0.0041,-0.0006,-0.0014
0.2480,0.0034,-0.0006,0.0000
0.2560,0.0041,-0.0026,0.0014
0.2640,0.0034,0.0001,-0.0007
0.2720,0.0034,-0.0006,-0.0020
0.2800,0.0007,0.0001,0.0000
0.2880,0.0021,-0.0026,-0.0027
0.2960,0.0027,-0.0012,-0.0020
0.3040,0.0027,-0.0012,-0.0014
0.3120,0.0007,0.0015,0.0000
0.3200,0.0014,-0.0026,0.0000
0.3280,0.0000,0.0008,0.0007
0.3360,0.0021,-0.0012,-0.0007
0.3440,0.0007,0.0001,-0.0014
0.3520,0.0055,0.0008,0.0007
0.3600,0.0007,-0.0019,0.0007
0.3680,0.0041,-0.0012,0.0007
0.3760,0.0007,-0.0026,0.0000
0.3840,0.0014,-0.0012,-0.0007
0.3920,0.0014,0.0022,0.0000
0.4000,0.0021,-0.0006,-0.0007
0.4080,0.0021,0.0008,0.0007
0.4160,0.0027,-0.0006,-0.0027
0.4240,0.0014,-0.0012,0.0000
0.4320,0.0021,0.0015,-0.0007
0.4400,0.0034,-0.0019,0.0000
0.4480,0.0000,-0.0006,-0.0020
0.4560,-0.0014,0.0008,-0.0020
0.4640,0.0041,-0.0006,0.0000
0.4720,0.0014,-0.0026,-0.0007
0.4800,0.0041,0.0022,-0.0007
0.4880,0.0014,-0.0006,0.0000
0.4960,0.0034,0.0001,0.0020
0.5040,0.0041,-0.0006,0.0000
0.5120,0.0034,-0.0012,0.0007
0.5200,0.0034,0.0008,0.0007
0.5270,0.0021,0.0001,-0.0027
0.5350,0.0014,0.0001,-0.0014
0.5430,-0.0014,-0.0019,0.0000
0.5510,0.0027,-0.0006,0.0014
0.5590,0.0000,-0.0019,-0.0014
0.5670,0.0007,-0.0012,0.0007
0.5750,0.0041,-0.0012,0.0000
0.5830,0.0014,-0.0006,-0.0020
0.5910,0.0021,-0.0012,-0.0007
0.5990,0.0007,0.0008,-0.0007
0.6070,0.0027,0.0029,0.0014
0.6150,0.0007,-0.0012,-0.0014
0.6230,0.0014,0.0015,0.0020
0.6310,0.0021,0.0001,0.0014
0.6390,0.0021,-0.0006,0.0000
0.6470,0.0027,-0.0012,0.0000
0.6550,0.0000,-0.0006,0.0000
0.6630,0.0041,0.0008,-0.0007
0.6710,0.0007,0.0001,0.0000
0.6790,0.0021,0.0001,0.0000
0.6870,0.0014,-0.0012,-0.0007
0.6950,-0.0014,0.0001,0.0000
0.7030,0.0007,0.0015,-0.0007
0.7110,0.0027,-0.0012,-0.0020
0.7190,0.0034,-0.0019,-0.0014
0.7270,-0.0014,0.0001,0.0007
0.7350,0.0021,-0.0006,-0.0007
0.7430,0.0007,0.0001,-0.0020
0.7510,0.0027,0.0008,-0.0014
0.7590,0.0021,-0.0006,-0.0014
0.7670,0.0007,0.0008,-0.0020
0.7750,0.0014,0.0001,0.0007
0.7830,0.0000,0.0001,0.0007
0.7910,0.0007,-0.0033,0.0000
0.7990,0.0014,0.0008,-0.0014
0.8070,0.0021,0.0001,0.0000
0.8150,0.0027,-0.0019,-0.0014
0.8230,0.0014,0.0001,0.0000
0.8310,0.0034,-0.0012,-0.0014
0.8390,0.0014,0.0008,0.0000
0.8470,0.0007,-0.0006,-0.0020
0.8550,0.0021,-0.0019,-0.0014
0.8630,0.0000,-0.0006,0.0000
0.8710,0.0021,0.0022,0.0000
0.8790,0.0007,0.0008,-0.0034
0.8870,0.0027,0.0001,0.0007
0.8950,0.0014,0.0008,0.0000
0.9030,0.0007,-0.0006,-0.0020
0.9110,0.0021,-0.0026,-0.0020
0.9190,0.0021,0.0001,0.0000
0.9270,0.0034,-0.0006,0.0007
0.9350,0.0014,0.0001,-0.0020
0.9430,0.0014,-0.0012,-0.0014
0.9510,0.0007,-0.0006,0.0000
0.9590,0.0014,0.0008,0.0007
0.9670,0.0007,0.0008,-0.0014
0.9750,0.0041,0.0001,-0.0007
0.9830,0.0007,-0.0012,-0.0020
0.9910,0.0000,0.0008,-0.0014
0.9990,0.0041,0.0001,0.0007
1.0070,0.0014,0.0001,-0.0020
1.0150,0.0041,-0.0006,0.0000
1.0230,0.0034,-0.0012,-0.0014
1.0310,-0.0007,0.0015,-0.0027
1.0390,0.0007,-0.0012,0.0000
1.0470,0.0021,0.0008,0.0000
1.0550,0.0021,0.0001,-0.0007
1.0630,0.0021,0.0008,0.0000
1.0710,0.0021,-0.0012,-0.0007
1.0790,0.0007,-0.0006,0.0000
1.0870,0.0007,-0.0006,0.0020
1.0950,0.0034,-0.0006,-0.0007
1.1030,0.0014,-0.0019,-0.0007
1.1110,0.0048,-0.0019,-0.0007
1.1190,0.0041,0.0008,-0.0007
1.1270,0.0048,-0.0019,-0.0007
1.1350,0.0007,0.0008,-0.0014
1.1430,0.0041,-0.0012,-0.0020
1.1510,0.0007,0.0022,-0.0020
1.1590,-0.0020,-0.0006,0.0014
1.1670,0.0021,-0.0006,-0.0007
1.1750,0.0021,-0.0006,-0.0014
1.1830,0.0021,0.0008,-0.0027
1.1910,-0.0007,-0.0019,0.0000
1.1990,0.0021,0.0015,0.0000
1.2070,-0.0007,0.0008,-0.0027
1.2150,0.0014,0.0001,0.0007
1.2230,0.0014,-0.0012,0.0000
1.2310,0.0014,-0.0006,0.0014
1.2390,0.0021,-0.0019,-0.0027
1.2470,0.0000,0.0001,0.0000
1.2550,0.0034,0.0036,0.0014
1.2630,0.0021,0.0008,0.0000
1.2710,0.0034,-0.0006,-0.0020
1.2790,-0.0007,-0.0019,0.0014
1.2870,0.0014,0.0001,0.0000
1.2950,0.0014,0.0008,-0.0014
1.3030,0.0027,0.0001,-0.0007
1.3110,0.0034,0.0008,-0.0007
1.3190,0.0021,-0.0006,-0.0007
1.3270,0.0014,-0.0012,-0.0007
1.3350,0.0014,0.0001,0.0007
1.3430,0.0014,-0.0019,-0.0014
1.3510,0.0014,0.0015,-0.0007
1.3590,0.0014,-0.0006,0.0000
1.3670,0.0027,0.0022,-0.0014
1.3750,0.0014,-0.0006,0.0000
1.3830,0.0027,0.0001,-0.0020
1.3910,0.0021,0.0022,0.0014
1.3990,0.0021,-0.0012,-0.0014
1.4070,0.0014,0.0008,-0.0027
1.4150,0.0014,0.0001,-0.0034
1.4230,0.0041,-0.0012,-0.0014
1.4310,0.0034,-0.0012,0.0014
1.4390,0.0034,-0.0006,-0.0007
1.4470,0.0034,-0.0012,0.0000
1.4550,-0.0007,0.0001,-0.0007
1.4630,0.0027,0.0015,0.0007
1.4710,0.0069,0.0001,-0.0007
1.4790,0.0089,-0.0012,0.0007
1.4870,0.0130,-0.0026,0.0062
1.4950,0.0192,-0.0067,0.0096
1.5030,0.0254,-0.0088,0.0137
1.5110,0.0377,-0.0129,0.0199
1.5190,0.0515,-0.0177,0.0234
1.5270,0.0624,-0.0225,0.0317
1.5350,0.0769,-0.0287,0.0378
1.5430,0.0933,-0.0356,0.0440
1.5510,0.1139,-0.0424,0.0509
1.5590,0.1290,-0.0486,0.0613
1.5670,0.1530,-0.0623,0.0675
1.5750,0.1709,-0.0720,0.0750
1.5820,0.1970,-0.0830,0.0846
1.5900,0.2169,-0.0953,0.0922
1.5980,0.2429,-0.1049,0.1011
1.6060,0.2663,-0.1214,0.1135
1.6140,0.2889,-0.1331,0.1239
1.6220,0.3171,-0.1468,0.1342
1.6300,0.3466,-0.1585,0.1486
1.6380,0.3754,-0.1757,0.1610
1.6460,0.4104,-0.1935,0.1761
1.6540,0.4440,-0.2073,0.1927
1.6620,0.4784,-0.2251,0.2058
1.6700,0.5127,-0.2423,0.2243
1.6780,0.5504,-0.2608,0.2415
1.6860,0.5909,-0.2801,0.2580
1.6940,0.6287,-0.2972,0.2787
1.7020,0.6678,-0.3206,0.2973
1.7100,0.7131,-0.3384,0.3193
1.7180,0.7556,-0.3618,0.3365
1.7260,0.7961,-0.3852,0.3592
1.7340,0.8435,-0.4085,0.3778
1.7420,0.8915,-0.4305,0.3971
1.7500,0.9403,-0.4524,0.4191
1.7580,0.9849,-0.4793,0.4411
1.7660,1.0425,-0.5033,0.4658
1.7740,1.0913,-0.5301,0.4851
1.7820,1.1448,-0.5541,0.5133
1.7900,1.2004,-0.5809,0.5374
1.7980,1.2546,-0.6056,0.5615
1.8060,1.3164,-0.6365,0.5890
1.8140,1.3720,-0.6640,0.6145
1.8220,1.4371,-0.6956,0.6420
1.8300,1.4907,-0.7251,0.6709
1.8380,1.5600,-0.7547,0.6998
1.8460,1.6197,-0.7849,0.7267
1.8540,1.6911,-0.8178,0.7569
1.8620,1.7535,-0.8529,0.7865
1.8700,1.8284,-0.8844,0.8175
1.8780,1.8901,-0.9167,0.8450
1.8860,1.9643,-0.9490,0.8766
1.8940,2.0336,-0.9875,0.9090
1.9020,2.1091,-1.0211,0.9393
1.9100,2.1763,-1.0582,0.9709
1.9180,2.2566,-1.0932,1.0060
1.9260,2.3294,-1.1338,1.0404
1.9340,2.4111,-1.1688,1.0755
1.9420,2.4824,-1.2093,1.1106
1.9500,2.5696,-1.2450,1.1478
1.9580,2.6437,-1.2883,1.1849
1.9660,2.7309,-1.3302,1.2221
1.9740,2.8085,-1.3721,1.2606
1.9820,2.9032,-1.4140,1.2999
1.9900,2.9821,-1.4586,1.3370
1.9980,3.0775,-1.5005,1.3783
2.0060,3.1612,-1.5445,1.4182
2.0140,3.2560,-1.5877,1.4602
2.0220,3.3459,-1.6324,1.5008
2.0300,3.4419,-1.6811,1.5421
2.0380,3.5326,-1.7251,1.5827
2.0460,3.6327,-1.7752,1.6267
2.0540,3.7261,-1.8233,1.6659
2.0620,3.8297,-1.8721,1.7113
2.0700,3.9251,-1.9208,1.7547
2.0780,4.0288,-1.9662,1.7987
2.0860,4.1221,-2.0211,1.8462
2.0940,4.2313,-2.0698,1.8916
2.1020,4.3273,-2.1241,1.9370
2.1100,4.4379,-2.1729,1.9852
2.1180,4.5374,-2.2244,2.0306
2.1260,4.6540,-2.2787,2.0822
2.1340,4.7577,-2.3322,2.1325
2.1420,4.8737,-2.3858,2.1793
2.1500,4.9835,-2.4400,2.2336
2.1580,5.1036,-2.4977,2.2825
2.1660,5.2113,-2.5527,2.3389
2.1740,5.3390,-2.6083,2.3891
2.1820,5.4591,-2.6639,2.4428
2.1900,5.5710,-2.7216,2.4958
2.1980,5.7014,-2.7793,2.5501
2.2060,5.8236,-2.8377,2.6045
2.2140,5.9355,-2.8954,2.6589
2.2220,6.0679,-2.9565,2.7139
2.2300,6.1942,-3.0163,2.7690
2.2380,6.3136,-3.0794,2.8247
2.2460,6.4468,-3.1440,2.8811
2.2540,6.5683,-3.2071,2.9403
2.2620,6.7063,-3.2703,2.9995
2.2700,6.8394,-3.3342,3.0566
2.2780,6.9698,-3.4001,3.1130
2.2860,7.1050,-3.4654,3.1750
2.2940,7.2430,-3.5327,3.2321
2.3020,7.3789,-3.6007,3.2919
2.3100,7.5196,-3.6694,3.3532
2.3180,7.6589,-3.7346,3.4130
2.3260,7.8010,-3.8026,3.4763
2.3340,7.9417,-3.8720,3.5403
2.3420,8.0859,-3.9406,3.6043
2.3500,8.2286,-4.0107,3.6683
2.3580,8.3755,-4.0821,3.7344
2.3660,8.5203,-4.1515,3.7984
2.3740,8.6686,-4.2243,3.8658
2.3820,8.8209,-4.2957,3.9312
2.3900,8.9754,-4.3699,4.0021
2.3980,9.1229,-4.4420,4.0674
2.4060,9.2808,-4.5161,4.1390
2.4140,9.4318,-4.5903,4.2071
2.4220,9.5911,-4.6672,4.2814
2.4300,9.7496,-4.7455,4.3530
2.4380,9.9061,-4.8183,4.4245
2.4460,10.0667,-4.8987,4.4954
2.4540,10.2287,-4.9763,4.5683
2.4620,10.3914,-5.0587,4.6392
2.4700,10.5547,-5.1363,4.7121
2.4780,10.7256,-5.2194,4.7885
2.4860,10.8897,-5.3032,4.8642
2.4940,11.0565,-5.3890,4.9372
2.5020,11.2240,-5.4708,5.0108
2.5100,11.3983,-5.5573,5.0885
2.5180,11.5706,-5.6424,5.1601
2.5260,11.7422,-5.7283,5.2330
2.5340,11.9213,-5.8148,5.3108
2.5420,12.0971,-5.9006,5.3892
2.5500,12.2776,-5.9879,5.4677
2.5580,12.4547,-6.0716,5.5441
2.5660,12.6352,-6.1499,5.6253
2.5740,12.8164,-6.2420,5.7051
2.5820,12.9962,-6.3299,5.7890
2.5900,13.1829,-6.4157,5.8702
2.5980,13.3641,-6.5064,5.9535
2.6060,13.5495,-6.5977,6.0422
2.6140,13.7369,-6.6822,6.1268
2.6220,13.9270,-6.7756,6.2115
2.6300,14.1164,-6.8703,6.2989
2.6370,14.3121,-6.9610,6.3883
2.6450,14.5008,-7.0530,6.4764
2.6530,14.6958,-7.1512,6.5658
2.6610,14.8921,-7.2474,6.6539
2.6690,15.0843,-7.3401,6.7378
2.6770,15.2840,-7.4362,6.8232
2.6850,15.4817,-7.5310,6.9106
2.6930,15.6828,-7.6299,6.9959
2.7010,15.8840,-7.7274,7.0833
2.7090,16.0878,-7.8270,7.1734
2.7170,16.2924,-7.9245,7.2642
2.7250,16.4983,-8.0213,7.3530
2.7330,16.7022,-8.1216,7.4459
2.7410,16.9101,-8.2205,7.5401
2.7490,17.1195,-8.3125,7.6344
2.7570,17.3289,-8.4238,7.7287
2.7650,17.5382,-8.5240,7.8270
2.7730,17.7545,-8.6291,7.9234
2.7810,17.9686,-8.7314,8.0232
2.7890,18.1835,-8.8372,8.1208
2.7970,18.3963,-8.9470,8.2193
2.8050,18.6132,-9.0535,8.3128
2.8130,18.8301,-9.1654,8.4119
2.8210,19.0477,-9.2712,8.5075
2.8290,19.2701,-9.3817,8.6060
2.8370,19.4911,-9.4889,8.7029
2.8450,19.7142,-9.5988,8.7986
2.8530,19.9360,-9.7031,8.8991
2.8610,20.1604,-9.8185,8.9968
2.8690,20.3862,-9.9195,9.1000
2.8770,20.6107,-10.0369,9.2011
2.8850,20.8366,-10.1516,9.3023
2.8930,21.0658,-10.2642,9.4096
2.9010,21.2951,-10.3679,9.5142
2.9090,21.5292,-10.4901,9.6180
2.9170,21.7592,-10.6014,9.7240
2.9250,21.9857,-10.7140,9.8286
2.9330,22.2177,-10.8328,9.9339
2.9410,22.4443,-10.9434,10.0316
2.9490,22.6797,-11.0574,10.1334
2.9570,22.9104,-11.1693,10.2386
2.9650,23.1438,-11.2819,10.3384
2.9730,23.3765,-11.3925,10.4409
2.9810,23.6009,-11.5051,10.5421
2.9890,23.8316,-11.6170,10.6411
2.9970,24.0609,-11.7249,10.7389
3.0050,24.2895,-11.8375,10.8455
3.0130,24.5194,-11.9501,10.9494
3.0210,24.7515,-12.0600,11.0485
3.0290,24.9821,-12.1698,11.1551
3.0370,25.2183,-12.2852,11.2611
3.0450,25.4483,-12.3978,11.3657
3.0530,25.6803,-12.5105,11.4695
3.0610,25.9109,-12.6285,11.5748
3.0690,26.1402,-12.7391,11.6753
3.0770,26.3715,-12.8552,11.7778
3.0850,26.6008,-12.9685,11.8789
3.0930,26.8329,-13.0825,11.9780
3.1010,27.0628,-13.1985,12.0805
3.1090,27.2949,-13.3091,12.1823
3.1170,27.5235,-13.4203,12.2841
3.1250,27.7541,-13.5275,12.3853
3.1330,27.9890,-13.6421,12.4850
3.1410,28.2210,-13.7493,12.5862
3.1490,28.4530,-13.8578,12.6921
3.1570,28.6878,-13.9745,12.7926
3.1650,28.9185,-14.0858,12.8965
3.1730,29.1519,-14.2004,13.0010
3.1810,29.3812,-14.3144,13.1036
3.1890,29.6139,-14.4291,13.2067
3.1970,29.8439,-14.5444,13.3093
3.2050,30.0732,-14.6578,13.4152
3.2130,30.3080,-14.7718,13.5157
3.2210,30.5372,-14.8844,13.6161
3.2290,30.7679,-14.9970,13.7179
3.2370,30.9986,-15.1096,13.8204
3.2450,31.2286,-15.2216,13.9222
3.2530,31.4586,-15.3300,14.0248
3.2610,31.6906,-15.4413,14.1300
3.2690,31.9185,-15.5505,14.2312
3.2770,32.1526,-15.6610,14.3323
3.2850,32.3833,-15.7723,14.4362
3.2930,32.6126,-15.8862,14.5401
3.3010,32.8412,-15.9989,14.6432
3.3090,33.0747,-16.1080,14.7478
3.3170,33.3040,-16.2213,14.8497
3.3250,33.5298,-16.3360,14.9515
3.3330,33.7612,-16.4534,15.0554
3.3410,33.9967,-16.5660,15.1551
3.3490,34.2294,-16.6800,15.2563
3.3570,34.4615,-16.7947,15.3595
3.3650,34.6915,-16.9087,15.4626
3.3730,34.9221,-17.0179,15.5652
3.3810,35.1542,-17.1312,15.6670
3.3890,35.3856,-17.2383,15.7715
3.3970,35.6183,-17.3544,15.8754
3.4050,35.8545,-17.4649,15.9814
3.4130,36.0852,-17.5768,16.0860
3.4210,36.3214,-17.6881,16.1878
3.4290,36.5513,-17.8007,16.2937
3.4370,36.7806,-17.9147,16.3955
3.4450,37.0148,-18.0273,16.5001
3.4530,37.2482,-18.1420,16.6026
3.4610,37.4824,-18.2580,16.7065
3.4690,37.7110,-18.3706,16.8076
3.4770,37.9451,-18.4853,16.9094
3.4850,38.1758,-18.6000,17.0133
3.4930,38.4113,-18.7133,17.1151
3.5010,38.6426,-18.8286,17.2217
3.5090,38.8727,-18.9412,17.3243
3.5170,39.1081,-19.0518,17.4295
3.5250,39.3430,-19.1637,17.5327
3.5330,39.5791,-19.2749,17.6386
3.5410,39.8126,-19.3834,17.7418
3.5490,40.0460,-19.4988,17.8471
3.5570,40.2733,-19.6100,17.9516
3.5650,40.5074,-19.7261,18.0555
3.5730,40.7381,-19.8346,18.1594
3.5810,40.9729,-19.9520,18.2619
3.5890,41.2070,-20.0674,18.3617
3.5970,41.4398,-20.1834,18.4655
3.6050,41.6712,-20.2974,18.5694
3.6130,41.9032,-20.4107,18.6740
3.6210,42.1339,-20.5247,18.7758
3.6290,42.3646,-20.6373,18.8797
3.6370,42.5960,-20.7540,18.9835
3.6450,42.8302,-20.8632,19.0922
3.6530,43.0636,-20.9751,19.1968
3.6610,43.2964,-21.0911,19.3048
3.6690,43.5298,-21.2051,19.4087
3.6770,43.7571,-21.3157,19.5187
3.6850,43.9905,-21.4310,19.6191
3.6920,44.2240,-21.5436,19.7223
3.7000,44.4540,-21.6576,19.8221
3.7080,44.6902,-21.7757,19.9273
3.7160,44.9243,-21.8911,20.0305
3.7240,45.1592,-22.0057,20.1351
3.7320,45.3947,-22.1218,20.2383
3.7400,45.6261,-22.2371,20.3435
3.7480,45.8609,-22.3511,20.4508
3.7560,46.0923,-22.4651,20.5554
3.7640,46.3258,-22.5818,20.6627
3.7720,46.5626,-22.6924,20.7714
3.7800,46.7988,-22.8036,20.8753
3.7880,47.0344,-22.9176,20.9846
3.7960,47.2678,-23.0330,21.0913
3.8040,47.5068,-23.1456,21.1986
3.8120,47.7389,-23.2486,21.3045
3.8200,47.9730,-23.3653,21.4104
3.8280,48.2126,-23.4800,21.5115
3.8360,48.4495,-23.5967,21.6120
3.8440,48.6864,-23.7127,21.7152
3.8520,48.9220,-23.8281,21.8177
3.8600,49.1533,-23.9434,21.9229
3.8680,49.3875,-24.0595,22.0233
3.8760,49.6251,-24.1721,22.1279
3.8840,49.8606,-24.2874,22.2317
3.8920,50.0996,-24.4021,22.3397
3.9000,50.3392,-24.5140,22.4470
3.9080,50.5768,-24.6301,22.5585
3.9160,50.8137,-24.7413,22.6651
3.9240,51.0486,-24.8525,22.7738
3.9320,51.2854,-24.9679,22.8811
3.9400,51.5224,-25.0825,22.9891
3.9480,51.7579,-25.1958,23.0978
3.9560,51.9969,-25.3112,23.1982
3.9640,52.2049,-25.4265,23.3041
3.9720,52.4562,-25.5405,23.4038
3.9800,52.6931,-25.6600,23.5063
3.9880,52.9259,-25.7739,23.6102
3.9960,53.1457,-25.8907,23.7113
4.0040,53.3977,-26.0067,23.8186
4.0120,53.6332,-26.1214,23.9156
4.0200,53.8550,-26.2361,24.0243
4.0280,54.1091,-26.3521,24.1337
4.0360,54.3247,-26.4661,24.2389
4.0440,54.5774,-26.5834,24.3497
4.0520,54.8130,-26.6981,24.4597
4.0600,55.0458,-26.8155,24.5670
4.0680,55.2696,-26.9329,24.6757
4.0760,55.5237,-27.0483,24.7816
4.0840,55.7565,-27.1637,24.8861
4.0920,55.9838,-27.2783,24.9886
4.1000,56.2351,-27.3964,25.0932
4.1080,56.4583,-27.5117,25.1963
4.1160,56.7062,-27.6278,25.2989
4.1240,56.9493,-27.7445,25.4006
4.1320,57.1876,-27.8585,25.5024
4.1400,57.4135,-27.9725,25.6056
4.1480,57.6669,-28.0906,25.7156
4.1560,57.8929,-28.2059,25.8236
4.1640,58.1476,-28.3212,25.9323
4.1720,58.3818,-28.4338,26.0396
4.1800,58.6098,-28.5519,26.1517
4.1880,58.8611,-28.6666,26.2590
4.1960,59.0994,-28.7854,26.3677
4.2040,59.3398,-28.9035,26.4757
4.2120,59.5609,-29.0243,26.5809
4.2200,59.8164,-29.1369,26.6868
4.2280,60.0389,-29.2571,26.7886
4.2360,60.2875,-29.3744,26.8911
4.2440,60.5265,-29.4905,26.9943
4.2520,60.7497,-29.6079,27.0974
4.2600,61.0051,-29.7260,27.2061
4.2680,61.2455,-29.8448,27.3093
4.2760,61.4707,-29.9636,27.4165
4.2840,61.7255,-30.0755,27.5225
4.2920,61.9618,-30.1956,27.6353
4.3000,62.1870,-30.3137,27.7446
4.3080,62.4391,-30.4304,27.8553
4.3160,62.6636,-30.5492,27.9689
4.3240,62.9198,-30.6673,28.0741
4.3320,63.1588,-30.7806,28.1800
4.3400,63.3957,-30.9021,28.2846
4.3480,63.6326,-31.0174,28.3897
4.3560,63.8716,-31.1376,28.4957
4.3640,64.1086,-31.2516,28.5995
4.3720,64.3517,-31.3689,28.7020
4.3800,64.5921,-31.4836,28.8031
4.3880,64.8331,-31.6010,28.9069
4.3960,65.0769,-31.7184,29.0163
4.4040,65.3173,-31.8351,29.1215
4.4120,65.5563,-31.9539,29.2315
4.4200,65.7946,-32.0672,29.3402
4.4280,66.0350,-32.1853,29.4468
4.4360,66.2740,-32.3034,29.5582
4.4440,66.5130,-32.4222,29.6683
4.4520,66.7540,-32.5402,29.7790
4.4600,66.9923,-32.6583,29.8835
4.4680,67.2327,-32.7744,29.9894
4.4760,67.4704,-32.8911,30.0995
4.4840,67.7128,-33.0071,30.2033
4.4920,67.9525,-33.1231,30.3099
4.5000,68.1963,-33.2392,30.4158
4.5080,68.4353,-33.3511,30.5211
4.5160,68.6722,-33.4657,30.6249
4.5240,68.9106,-33.5824,30.7308
4.5320,69.1516,-33.6971,30.8388
4.5400,69.3886,-33.8138,30.9440
4.5480,69.6310,-33.9298,31.0540
4.5560,69.8686,-34.0500,31.1572
4.5640,70.1070,-34.1667,31.2624
4.5720,70.3432,-34.2834,31.3683
4.5800,70.5788,-34.3953,31.4783
4.5880,70.8117,-34.5141,31.5781
4.5960,71.0404,-34.6274,31.6771
4.6040,71.2718,-34.7407,31.7788
4.6120,71.5032,-34.8498,31.8786
4.6200,71.7313,-34.9617,31.9797
4.6280,71.9545,-35.0674,32.0794
4.6360,72.1791,-35.1773,32.1846
4.6440,72.4030,-35.2871,32.2850
4.6520,72.6248,-35.3901,32.3861
4.6600,72.8453,-35.4986,32.4865
4.6680,73.0692,-35.6050,32.5848
4.6760,73.2924,-35.7135,32.6804
4.6840,73.5115,-35.8192,32.7815
4.6920,73.7313,-35.9242,32.8778
4.7000,73.9511,-36.0293,32.9761
4.7080,74.1633,-36.1364,33.0738
4.7160,74.3769,-36.2414,33.1673
4.7240,74.5885,-36.3437,33.2636
4.7320,74.7993,-36.4481,33.3564
4.7400,75.0102,-36.5497,33.4478
4.7470,75.2169,-36.6499,33.5407
4.7550,75.4216,-36.7488,33.6356
4.7630,75.6229,-36.8476,33.7236
4.7710,75.8289,-36.9472,33.8165
4.7790,76.0274,-37.0405,33.9045
4.7870,76.2280,-37.1380,33.9953
4.7950,76.4292,-37.2321,34.0812
4.8030,76.6257,-37.3303,34.1692
4.8110,76.8256,-37.4270,34.2607
4.8190,77.0220,-37.5211,34.3473
4.8270,77.2136,-37.6165,34.4374
4.8350,77.4039,-37.7140,34.5240
4.8430,77.5976,-37.8081,34.6079
4.8510,77.7885,-37.9069,34.6953
4.8590,77.9767,-38.0003,34.7798
4.8670,78.1642,-38.0923,34.8637
4.8750,78.3538,-38.1850,34.9476
4.8830,78.5358,-38.2770,35.0315
4.8910,78.7213,-38.3621,35.1120
4.8990,78.9040,-38.4520,35.1924
4.9070,79.0860,-38.5385,35.2763
4.9150,79.2646,-38.6243,35.3526
4.9230,79.4425,-38.7081,35.4352
4.9310,79.6190,-38.7912,35.5122
4.9390,79.7921,-38.8756,35.5940
4.9470,79.9693,-38.9498,35.6751
4.9550,80.1390,-39.0383,35.7522
4.9630,80.3080,-39.1221,35.8257
4.9710,80.4817,-39.2031,35.9000
4.9790,80.6521,-39.2855,35.9743
4.9870,80.8211,-39.3665,36.0478
4.9950,80.9873,-39.4488,36.1234
5.0030,81.1515,-39.5312,36.1957
5.0110,81.3156,-39.6150,36.2686
5.0190,81.4791,-39.6967,36.3401
5.0270,81.6446,-39.7784,36.4109
5.0350,81.8047,-39.8539,36.4858
5.0430,81.9695,-39.9342,36.5560
5.0510,82.1262,-40.0098,36.6268
5.0590,82.2835,-40.0887,36.6983
5.0670,82.4366,-40.1594,36.7698
5.0750,82.5939,-40.2384,36.8399
5.0830,82.7478,-40.3125,36.9108
5.0910,82.8975,-40.3818,36.9802
5.0990,83.0486,-40.4532,37.0497
5.1070,83.1984,-40.5274,37.1136
5.1150,83.3481,-40.5953,37.1824
5.1230,83.4917,-40.6654,37.2477
5.1310,83.6352,-40.7367,37.3102
5.1390,83.7788,-40.8061,37.3749
5.1470,83.9224,-40.8747,37.4388
5.1550,84.0632,-40.9448,37.5021
5.1630,84.2074,-41.0134,37.5612
5.1710,84.3407,-41.0827,37.6224
5.1790,84.4788,-41.1534,37.6816
5.1870,84.6155,-41.2180,37.7413
5.1950,84.7515,-41.2859,37.7991
5.2030,84.8799,-41.3539,37.8596
5.2110,85.0132,-41.4198,37.9174
5.2190,85.1437,-41.4837,37.9765
5.2270,85.2701,-41.5475,38.0336
5.2350,85.3985,-41.6093,38.0913
5.2430,85.5249,-41.6752,38.1443
5.2510,85.6500,-41.7335,38.2089
5.2590,85.7743,-41.7974,38.2632
5.2670,85.8986,-41.8550,38.3196
5.2750,86.0202,-41.9134,38.3746
5.2830,86.1397,-41.9724,38.4324
5.2910,86.2613,-42.0260,38.4867
5.2990,86.3801,-42.0864,38.5417
5.3070,86.4990,-42.1427,38.5939
5.3150,86.6137,-42.1942,38.6490
5.3230,86.7298,-42.2498,38.7005
5.3310,86.8431,-42.3047,38.7493
5.3390,86.9551,-42.3569,38.8002
5.3470,87.0671,-42.4118,38.8476
5.3550,87.1776,-42.4646,38.8978
5.3630,87.2855,-42.5175,38.9460
5.3710,87.3947,-42.5697,38.9927
5.3790,87.4984,-42.6218,39.0395
5.3870,87.6028,-42.6699,39.0862
5.3950,87.7073,-42.7255,39.1302
5.4030,87.8062,-42.7749,39.1742
5.4110,87.9085,-42.8244,39.2210
5.4190,88.0095,-42.8717,39.2616
5.4270,88.1091,-42.9198,39.3069
5.4350,88.2060,-42.9678,39.3482
5.4430,88.2973,-43.0118,39.3908
5.4510,88.3949,-43.0612,39.4300
5.4590,88.4862,-43.1072,39.4719
5.4670,88.5755,-43.1546,39.5139
5.4750,88.6676,-43.1992,39.5531
5.4830,88.7562,-43.2418,39.5929
5.4910,88.8421,-43.2857,39.6314
5.4990,88.9307,-43.3303,39.6713
5.5070,89.0179,-43.3695,39.7091
5.5150,89.1017,-43.4134,39.7463
5.5230,89.1841,-43.4518,39.7813
5.5310,89.2645,-43.4916,39.8178
5.5390,89.3483,-43.5294,39.8528
5.5470,89.4273,-43.5658,39.8920
5.5550,89.5050,-43.6049,39.9250
5.5630,89.5839,-43.6420,39.9608
5.5710,89.6581,-43.6804,39.9938
5.5790,89.7337,-43.7134,40.0288
5.5870,89.8058,-43.7484,40.0625
5.5950,89.8759,-43.7848,40.0969
5.6030,89.9439,-43.8211,40.1272
5.6110,90.0133,-43.8527,40.1574
5.6190,90.0827,-43.8857,40.1869
5.6270,90.1479,-43.9186,40.2172
5.6350,90.2152,-43.9516,40.2454
5.6430,90.2791,-43.9818,40.2722
5.6510,90.3423,-44.0141,40.3011
5.6590,90.4000,-44.0429,40.3251
5.6670,90.4611,-44.0697,40.3533
5.6750,90.5189,-44.0951,40.3788
5.6830,90.5786,-44.1253,40.4049
5.6910,90.6274,-44.1520,40.4297
5.6990,90.6837,-44.1761,40.4585
5.7070,90.7407,-44.2008,40.4853
5.7150,90.7936,-44.2269,40.5080
5.7230,90.8410,-44.2516,40.5294
5.7310,90.8891,-44.2742,40.5534
5.7390,90.9379,-44.2976,40.5706
5.7470,90.9867,-44.3202,40.5940
5.7550,91.0341,-44.3456,40.6146
5.7630,91.0760,-44.3635,40.6325
5.7710,91.1193,-44.3861,40.6497
5.7790,91.1632,-44.4074,40.6703
5.7870,91.2017,-44.4266,40.6847
5.7950,91.2422,-44.4486,40.7033
5.8020,91.2800,-44.4671,40.7205
5.8100,91.3143,-44.4843,40.7377
5.8180,91.3521,-44.5042,40.7528
5.8260,91.3844,-44.5220,40.7672
5.8340,91.4153,-44.5344,40.7817
5.8420,91.4497,-44.5529,40.7975
5.8500,91.4833,-44.5674,40.8078
5.8580,91.5122,-44.5824,40.8202
5.8660,91.5403,-44.5941,40.8353
5.8740,91.5664,-44.6072,40.8449
5.8820,91.5919,-44.6195,40.8532
5.8900,91.6145,-44.6353,40.8649
5.8980,91.6372,-44.6456,40.8724
5.9060,91.6578,-44.6552,40.8807
5.9140,91.6750,-44.6655,40.8903
5.9220,91.6970,-44.6737,40.8972
5.9300,91.7121,-44.6820,40.9068
5.9380,91.7299,-44.6895,40.9137
5.9460,91.7402,-44.6950,40.9205
5.9540,91.7533,-44.7026,40.9261
5.9620,91.7650,-44.7046,40.9350
5.9700,91.7780,-44.7129,40.9405
5.9780,91.7856,-44.7115,40.9426
5.9860,91.7911,-44.7190,40.9487
5.9940,91.8041,-44.7190,40.9515
6.0020,91.8055,-44.7218,40.9522
6.0100,91.8124,-44.7225,40.9529
6.0180,91.8144,-44.7211,40.9522
6.0260,91.8151,-44.7211,40.9529
6.0340,91.8144,-44.7211,40.9522
6.0420,91.8130,-44.7218,40.9529
6.0500,91.8144,-44.7218,40.9529
6.0580,91.8110,-44.7211,40.9536
6.0660,91.8055,-44.7177,40.9501
6.0740,91.8027,-44.7190,40.9480
6.0820,91.7952,-44.7149,40.9487
6.0900,91.7870,-44.7129,40.9474
6.0980,91.7794,-44.7122,40.9419
6.1060,91.7712,-44.7067,40.9391
6.1140,91.7588,-44.6998,40.9315
6.1220,91.7464,-44.6957,40.9274
6.1300,91.7313,-44.6895,40.9199
6.1380,91.7148,-44.6840,40.9144
6.1460,91.6990,-44.6786,40.9034
6.1540,91.6825,-44.6703,40.8993
6.1620,91.6605,-44.6628,40.8937
6.1700,91.6400,-44.6518,40.8820
6.1780,91.6173,-44.6442,40.8704
6.1860,91.5960,-44.6339,40.8614
6.1940,91.5719,-44.6181,40.8511
6.2020,91.5438,-44.6085,40.8387
6.2100,91.5156,-44.5948,40.8298
6.2180,91.4881,-44.5797,40.8140
6.2260,91.4593,-44.5701,40.8009
6.2340,91.4270,-44.5516,40.7865
6.2420,91.3940,-44.5413,40.7748
6.2500,91.3597,-44.5227,40.7597
6.2580,91.3267,-44.5083,40.7432
6.2660,91.2889,-44.4877,40.7274
6.2740,91.2539,-44.4692,40.7102
6.2820,91.2154,-44.4513,40.6943
6.2900,91.1721,-44.4294,40.6785
6.2980,91.1296,-44.4094,40.6579
6.3060,91.0856,-44.3875,40.6394
6.3140,91.0451,-44.3648,40.6208
6.3220,90.9956,-44.3415,40.5988
6.3300,90.9496,-44.3182,40.5795
6.3380,90.8987,-44.2962,40.5527
6.3460,90.8500,-44.2708,40.5335
6.3540,90.8005,-44.2461,40.5080
6.3620,90.7490,-44.2220,40.4812
6.3700,90.6954,-44.1953,40.4585
6.3780,90.6404,-44.1651,40.4338
6.3860,90.5827,-44.1417,40.4077
6.3940,90.5271,-44.1143,40.3843
6.4020,90.4673,-44.0827,40.3568
6.4100,90.4062,-44.0573,40.3300
6.4180,90.3471,-44.0250,40.3018
6.4260,90.2839,-43.9989,40.2784
6.4340,90.2235,-43.9653,40.2475
6.4420,90.1555,-43.9344,40.2172
6.4500,90.0895,-43.9049,40.1897
6.4580,90.0236,-43.8699,40.1581
6.4660,89.9569,-43.8362,40.1272
6.4740,89.8889,-43.8040,40.0969
6.4820,89.8161,-43.7690,40.0612
6.4900,89.7447,-43.7340,40.0302
6.4980,89.6726,-43.6989,39.9965
6.5060,89.5984,-43.6619,39.9628
6.5140,89.5262,-43.6235,39.9250
6.5220,89.4431,-43.5871,39.8941
6.5300,89.3682,-43.5465,39.8590
6.5380,89.2885,-43.5088,39.8226
6.5460,89.2068,-43.4669,39.7910
6.5540,89.1244,-43.4285,39.7518
6.5620,89.0412,-43.3832,39.7139
6.5700,88.9588,-43.3406,39.6768
6.5780,88.8695,-43.2960,39.6383
6.5860,88.7830,-43.2555,39.5998
6.5940,88.6944,-43.2116,39.5620
6.6020,88.6023,-43.1669,39.5235
6.6100,88.5137,-43.1189,39.4836
6.6180,88.4196,-43.0756,39.4431
6.6260,88.3269,-43.0282,39.4004
6.6340,88.2355,-42.9816,39.3537
6.6420,88.1393,-42.9369,39.3118
6.6500,88.0425,-42.8896,39.2725
6.6580,87.9394,-42.8388,39.2251
6.6660,87.8419,-42.7928,39.1811
6.6740,87.7416,-42.7420,39.1344
6.6820,87.6406,-42.6933,39.0910
6.6900,87.5348,-42.6425,39.0429
6.6980,87.4304,-42.5930,38.9948
6.7060,87.3212,-42.5395,38.9453
6.7140,87.2127,-42.4894,38.8985
6.7220,87.1028,-42.4379,38.8504
6.7300,86.9922,-42.3857,38.7988
6.7380,86.8774,-42.3308,38.7493
6.7460,86.7689,-42.2800,38.7019
6.7540,86.6522,-42.2251,38.6483
6.7620,86.5340,-42.1729,38.5960
6.7700,86.4165,-42.1125,38.5445
6.7780,86.3039,-42.0562,38.4908
6.7860,86.1823,-41.9978,38.4351
6.7940,86.0641,-41.9388,38.3767
6.8020,85.9433,-41.8756,38.3251
6.8100,85.8203,-41.8153,38.2701
6.8180,85.7001,-41.7527,38.2151
6.8260,85.5737,-41.6930,38.1601
6.8340,85.4466,-41.6299,38.1072
6.8420,85.3202,-41.5660,38.0487
6.8500,85.1890,-41.4995,37.9916
6.8570,85.0585,-41.4342,37.9332
6.8650,84.9232,-41.3635,37.8734
6.8730,84.7913,-41.2990,37.8142
6.8810,84.6525,-41.2296,37.7579
6.8890,84.5179,-41.1637,37.6946
6.8970,84.3785,-41.0951,37.6369
6.9050,84.2404,-41.0278,37.5743
6.9130,84.0996,-40.9606,37.5152
6.9210,83.9560,-40.8898,37.4526
6.9290,83.8173,-40.8205,37.3866
6.9370,83.6696,-40.7525,37.3247
6.9450,83.5260,-40.6866,37.2594
6.9530,83.3763,-40.6145,37.1906
6.9610,83.2293,-40.5418,37.1239
6.9690,83.0775,-40.4731,37.0559
6.9770,82.9277,-40.4024,36.9891
6.9850,82.7766,-40.3317,36.9197
6.9930,82.6241,-40.2576,36.8496
7.0010,82.4689,-40.1827,36.7794
7.0090,82.3123,-40.1086,36.7114
7.0170,82.1536,-40.0303,36.6405
7.0250,81.9942,-39.9527,36.5697
7.0330,81.8363,-39.8738,36.4968
7.0410,81.6735,-39.7962,36.4239
7.0490,81.5141,-39.7139,36.3504
7.0570,81.3500,-39.6342,36.2795
7.0650,81.1851,-39.5484,36.2053
7.0730,81.0209,-39.4660,36.1338
7.0810,80.8520,-39.3871,36.0602
7.0890,80.6837,-39.2992,35.9880
7.0970,80.5175,-39.2203,35.9144
7.1050,80.3437,-39.1365,35.8416
7.1130,80.1692,-39.0486,35.7652
7.1210,79.9996,-38.9662,35.6882
7.1290,79.8251,-38.8825,35.6098
7.1370,79.6492,-38.8001,35.5342
7.1450,79.4734,-38.7163,35.4551
7.1530,79.2948,-38.6278,35.3746
7.1610,79.1183,-38.5461,35.2963
7.1690,78.9356,-38.4589,35.2137
7.1770,78.7529,-38.3676,35.1271
7.1850,78.5695,-38.2818,35.0418
7.1930,78.3834,-38.1912,34.9580
7.2010,78.1965,-38.1012,34.8741
7.2090,78.0049,-38.0079,34.7922
7.2170,77.8133,-37.9124,34.7056
7.2250,77.6271,-37.8184,34.6196
7.2330,77.4348,-37.7209,34.5316
7.2410,77.2397,-37.6206,34.4498
7.2490,77.0474,-37.5252,34.3618
7.2570,76.8572,-37.4291,34.2772
7.2650,76.6566,-37.3337,34.1967
7.2730,76.4588,-37.2355,34.1115
7.2810,76.2603,-37.1387,34.0248
7.2890,76.0583,-37.0378,33.9389
7.2970,75.8564,-36.9458,33.8481
7.3050,75.6552,-36.8469,33.7621
7.3130,75.4539,-36.7502,33.6714
7.3210,75.2485,-36.6534,33.5778
7.3290,75.0425,-36.5579,33.4836
7.3370,74.8316,-36.4536,33.3922
7.3450,74.6221,-36.3554,33.2945
7.3530,74.4113,-36.2538,33.1976
7.3610,74.1990,-36.1501,33.1020
7.3690,73.9854,-36.0471,33.0057
7.3770,73.7732,-35.9400,32.9108
7.3850,73.5507,-35.8343,32.8145
7.3930,73.3357,-35.7245,32.7217
7.4010,73.1193,-35.6187,32.6261
7.4090,72.8961,-35.5103,32.5319
7.4170,72.6743,-35.4011,32.4384
7.4250,72.4573,-35.2899,32.3435
7.4330,72.2361,-35.1842,32.2486
7.4410,72.0115,-35.0777,32.1489
7.4490,71.7910,-34.9686,32.0533
7.4570,71.5644,-34.8601,31.9515
7.4650,71.3350,-34.7510,31.8490
7.4730,71.1365,-34.6404,31.7424
7.4810,70.8934,-34.5306,31.6379
7.4890,70.6743,-34.4173,31.5299
7.4970,70.4277,-34.3026,31.4220
7.5050,70.2079,-34.1900,31.3174
7.5130,69.9593,-34.0720,31.2095
7.5210,69.7230,-33.9539,31.1001
7.5290,69.4957,-33.8372,30.9983
7.5370,69.2409,-33.7204,30.8917
7.5450,68.9991,-33.5989,30.7858
7.5530,68.7739,-33.4822,30.6813
7.5610,68.5259,-33.3792,30.5802
7.5690,68.2828,-33.2557,30.4743
7.5770,68.0555,-33.1424,30.3691
7.5850,67.8007,-33.0263,30.2625
7.5930,67.5741,-32.9124,30.1538
7.6010,67.3165,-32.7950,30.0444
7.6090,67.0748,-32.6789,29.9331
7.6170,66.8502,-32.5629,29.8230
7.6250,66.5968,-32.4462,29.7116
7.6330,66.3722,-32.3260,29.6023
7.6410,66.1194,-32.2059,29.4943
7.6490,65.8928,-32.0837,29.3849
7.6570,65.6394,-31.9704,29.2790
7.6650,65.4148,-31.8454,29.1717
7.6730,65.1580,-31.7315,29.0713
7.6810,64.9299,-31.6141,28.9668
7.6890,64.6779,-31.4966,28.8650
7.6970,64.4512,-31.3820,28.7584
7.7050,64.1972,-31.2687,28.6525
7.7130,63.9712,-31.1493,28.5493
7.7210,63.7171,-31.0325,28.4420
7.7290,63.4925,-30.9193,28.3313
7.7370,63.2384,-30.8053,28.2220
7.7450,63.0001,-30.6851,28.1105
7.7530,62.7742,-30.5691,27.9998
7.7610,62.5242,-30.4503,27.8897
7.7690,62.2983,-30.3302,27.7804
7.7770,62.0401,-30.2148,27.6752
7.7850,61.8162,-30.0954,27.5658
7.7930,61.5614,-29.9766,27.4633
7.8010,61.3231,-29.8592,27.3595
7.8090,61.0820,-29.7404,27.2529
7.8170,60.8437,-29.6265,27.1463
7.8250,60.5986,-29.5097,27.0431
7.8330,60.3719,-29.3964,26.9399
7.8410,60.1171,-29.2831,26.8299
7.8490,59.8802,-29.1692,26.7226
7.8570,59.6426,-29.0518,26.6056
7.8650,59.4002,-28.9364,26.4970
7.8730,59.1605,-28.8190,26.3849
7.8810,58.9188,-28.7037,26.2748
7.8890,58.6798,-28.5883,26.1655
7.8970,58.4409,-28.4675,26.0595
7.9050,58.2005,-28.3501,25.9550
7.9120,57.9622,-28.2347,25.8505
7.9200,57.7260,-28.1173,25.7459
7.9280,57.4877,-28.0047,25.6386
7.9360,57.2501,-27.8901,25.5361
7.9440,57.0084,-27.7727,25.4330
7.9520,56.7687,-27.6580,25.3277
7.9600,56.5297,-27.5447,25.2232
7.9680,56.2914,-27.4321,25.1145
7.9760,56.0525,-27.3188,25.0058
7.9840,55.8176,-27.2069,24.8999
7.9920,55.5828,-27.0902,24.7871
8.0000,55.3465,-26.9721,24.6771
8.0080,55.1068,-26.8540,24.5711
8.0160,54.8734,-26.7318,24.4631
8.0240,54.6372,-26.6178,24.3593
8.0320,54.4030,-26.5031,24.2588
8.0400,54.1674,-26.3837,24.1543
8.0480,53.9285,-26.2697,24.0504
8.0560,53.6902,-26.1516,23.9466
8.0640,53.4526,-26.0369,23.8393
8.0720,53.2129,-25.9243,23.7361
8.0800,52.9740,-25.8096,23.6329
8.0880,52.7350,-25.6950,23.5297
8.0960,52.4954,-25.5817,23.4204
8.1040,52.2571,-25.4677,23.3117
8.1120,52.0236,-25.3551,23.2030
8.1200,51.7812,-25.2425,23.0957
8.1280,51.5423,-25.1292,22.9898
8.1360,51.3040,-25.0111,22.8832
8.1440,51.0643,-24.8923,22.7807
8.1520,50.8323,-24.7791,22.6747
8.1600,50.5926,-24.6582,22.5736
8.1680,50.3605,-24.5435,22.4739
8.1760,50.1215,-24.4302,22.3714
8.1840,49.8901,-24.3128,22.2675
8.1920,49.6546,-24.1981,22.1630
8.2000,49.4170,-24.0835,22.0577
8.2080,49.1822,-23.9729,21.9539
8.2160,48.9460,-23.8583,21.8431
8.2240,48.7173,-23.7443,21.7372
8.2320,48.4770,-23.6324,21.6312
8.2400,48.2435,-23.5205,21.5253
8.2480,48.0046,-23.4023,21.4166
8.2560,47.7684,-23.2850,21.3128
8.2640,47.5397,-23.1710,21.2068
8.2720,47.3028,-23.0529,21.1043
8.2800,47.0728,-22.9368,21.0053
8.2880,46.8366,-22.8174,20.9041
8.2960,46.6059,-22.7020,20.8044
8.3040,46.3717,-22.5846,20.7019
8.3120,46.1410,-22.4727,20.5980
8.3200,45.9042,-22.3566,20.4962
8.3280,45.6735,-22.2454,20.3910
8.3360,45.4380,-22.1369,20.2802
8.3440,45.2031,-22.0195,20.1750
8.3520,44.9731,-21.9083,20.0642
8.3600,44.7355,-21.7963,19.9542
8.3680,44.5027,-21.6851,19.8496
8.3760,44.2659,-21.5711,19.7416
8.3840,44.0324,-21.4565,19.6377
8.3920,43.8010,-21.3370,19.5338
8.4000,43.5696,-21.2216,19.4348
8.4080,43.3410,-21.1063,19.3330
8.4160,43.1096,-20.9909,19.2312
8.4240,42.8727,-20.8776,19.1349
8.4320,42.6400,-20.7602,19.0344
8.4400,42.4024,-20.6448,18.9326
8.4480,42.1724,-20.5357,18.8288
8.4560,41.9383,-20.4258,18.7235
8.4640,41.7014,-20.3118,18.6182
8.4720,41.4714,-20.1985,18.5096
8.4800,41.2338,-20.0907,18.3995
8.4880,40.9963,-19.9781,18.2908
8.4960,40.7628,-19.8675,18.1855
8.5040,40.5246,-19.7522,18.0803
8.5120,40.2932,-19.6382,17.9744
8.5200,40.0597,-19.5235,17.8691
8.5280,39.8270,-19.4061,17.7714
8.5360,39.5942,-19.2955,17.6730
8.5440,39.3608,-19.1788,17.5712
8.5520,39.1260,-19.0614,17.4715
8.5600,38.8891,-18.9481,17.3676
8.5680,38.6522,-18.8328,17.2658
8.5760,38.4236,-18.7222,17.1639
8.5840,38.1895,-18.6103,17.0622
8.5920,37.9560,-18.4963,16.9548
8.6000,37.7316,-18.3885,16.8475
8.6080,37.4967,-18.2711,16.7361
8.6160,37.2585,-18.1605,16.6267
8.6240,37.0271,-18.0493,16.5214
8.6320,36.7930,-17.9339,16.4120
8.6400,36.5610,-17.8192,16.3075
8.6480,36.3296,-17.7059,16.2043
8.6560,36.0975,-17.5947,16.1032
8.6640,35.8696,-17.4807,16.0027
8.6720,35.6389,-17.3640,15.9029
8.6800,35.4020,-17.2493,15.8059
8.6880,35.1700,-17.1381,15.7069
8.6960,34.9414,-17.0206,15.6057
8.7040,34.7073,-16.9115,15.5067
8.7120,34.4793,-16.7988,15.4028
8.7200,34.2479,-16.6869,15.2969
8.7280,34.0193,-16.5750,15.1868
8.7360,33.7818,-16.4651,15.0794
8.7440,33.5539,-16.3518,14.9735
8.7520,33.3205,-16.2433,14.8648
8.7600,33.0905,-16.1252,14.7582
8.7680,32.8564,-16.0133,14.6536
8.7760,32.6305,-15.9027,14.5504
8.7840,32.4025,-15.7839,14.4472
8.7920,32.1719,-15.6713,14.3475
8.8000,31.9377,-15.5573,14.2491
8.8080,31.7057,-15.4413,14.1514
8.8160,31.4730,-15.3280,14.0530
8.8240,31.2416,-15.2160,13.9505
8.8320,31.0117,-15.1062,13.8500
8.8400,30.7810,-14.9949,13.7482
8.8480,30.5510,-14.8844,13.6402
8.8560,30.3155,-14.7697,13.5322
8.8640,30.0828,-14.6591,13.4221
8.8720,29.8494,-14.5465,13.3155
8.8800,29.6160,-14.4346,13.2075
8.8880,29.3846,-14.3165,13.1029
8.8960,29.1519,-14.2032,12.9969
8.9040,28.9281,-14.0919,12.8937
8.9120,28.6940,-13.9759,12.7905
8.9200,28.4633,-13.8612,12.6935
8.9280,28.2299,-13.7472,12.5972
8.9360,27.9972,-13.6360,12.4981
8.9440,27.7679,-13.5247,12.4004
8.9520,27.5400,-13.4121,12.2972
8.9600,27.3086,-13.3015,12.1968
8.9670,27.0793,-13.1924,12.0942
8.9750,26.8514,-13.0804,11.9862
8.9830,26.6215,-12.9719,11.8817
8.9910,26.3901,-12.8600,11.7757
8.9990,26.1588,-12.7494,11.6677
9.0070,25.9322,-12.6347,11.5604
9.0150,25.7009,-12.5221,11.4572
9.0230,25.4730,-12.4068,11.3491
9.0310,25.2437,-12.2948,11.2452
9.0390,25.0110,-12.1788,11.1448
9.0470,24.7831,-12.0696,11.0457
9.0550,24.5517,-11.9528,10.9467
9.0630,24.3190,-11.8423,10.8455
9.0710,24.0918,-11.7297,10.7478
9.0790,23.8625,-11.6205,10.6480
9.0870,23.6373,-11.5113,10.5448
9.0950,23.4080,-11.4000,10.4457
9.1030,23.1781,-11.2922,10.3405
9.1110,22.9763,-11.1789,10.2324
9.1190,22.7312,-11.0684,10.1245
9.1270,22.5136,-10.9606,10.0226
9.1350,22.2678,-10.8472,9.9167
9.1430,22.0564,-10.7339,9.8128
9.1510,21.8161,-10.6192,9.7068
9.1590,21.6013,-10.5039,9.6022
9.1670,21.3590,-10.3919,9.5004
9.1750,21.1455,-10.2773,9.4020
9.1830,20.8997,-10.1660,9.3036
9.1910,20.6883,-10.0527,9.2025
9.1990,20.4474,-9.9373,9.1027
9.2070,20.2325,-9.8288,9.0057
9.2150,19.9950,-9.7189,8.9025
9.2230,19.7829,-9.6098,8.8055
9.2310,19.5412,-9.5040,8.7043
9.2390,19.3271,-9.3969,8.6011
9.2470,19.0882,-9.2897,8.4993
9.2550,18.8795,-9.1847,8.4002
9.2630,18.6441,-9.0892,8.3005
9.2710,18.4381,-8.9752,8.1986
9.2790,18.2075,-8.8708,8.0995
9.2870,18.0036,-8.7623,8.0018
9.2950,17.7778,-8.6566,7.9076
9.3030,17.5781,-8.5522,7.8160
9.3110,17.3501,-8.4451,7.7225
9.3190,17.1532,-8.3475,7.6330
9.3270,16.9287,-8.2438,7.5408
9.3350,16.7358,-8.1422,7.4521
9.3430,16.5148,-8.0461,7.3606
9.3510,16.3191,-7.9465,7.2698
9.3590,16.1050,-7.8600,7.1789
9.3670,15.9087,-7.7556,7.0888
9.3750,15.6918,-7.6587,6.9986
9.3830,15.5002,-7.5667,6.9058
9.3910,15.2929,-7.4706,6.8156
9.3990,15.1090,-7.3772,6.7248
9.4070,14.8989,-7.2803,6.6347
9.4150,14.7191,-7.1808,6.5473
9.4230,14.5125,-7.0833,6.4606
9.4310,14.3327,-6.9892,6.3773
9.4390,14.1295,-6.8930,6.2941
9.4470,13.9373,-6.7955,6.2101
9.4550,13.7472,-6.7021,6.1303
9.4630,13.5666,-6.6101,6.0477
9.4710,13.3806,-6.5208,5.9672
9.4790,13.1953,-6.4274,5.8867
9.4870,13.0120,-6.3429,5.8048
9.4950,12.8418,-6.2543,5.7202
9.5030,12.6517,-6.1651,5.6376
9.5110,12.4704,-6.0827,5.5578
9.5190,12.2934,-5.9989,5.4794
9.5270,12.1142,-5.9130,5.3968
9.5350,11.9419,-5.8327,5.3163
9.5430,11.7669,-5.7434,5.2399
9.5510,11.5926,-5.6624,5.1629
9.5590,11.4203,-5.5717,5.0872
9.5670,11.2514,-5.4865,5.0122
9.5750,11.0839,-5.4034,4.9392
9.5830,10.9144,-5.3169,4.8656
9.5910,10.7490,-5.2338,4.7899
9.5990,10.5836,-5.1569,4.7204
9.6070,10.4182,-5.0690,4.6468
9.6150,10.2569,-4.9900,4.5780
9.6230,10.0949,-4.9090,4.5078
9.6310,9.9308,-4.8334,4.4383
9.6390,9.7736,-4.7586,4.3667
9.6470,9.6185,-4.6824,4.2973
9.6550,9.4620,-4.6082,4.2250
9.6630,9.3062,-4.5367,4.1534
9.6710,9.1538,-4.4633,4.0833
9.6790,9.0001,-4.3925,4.0137
9.6870,8.8498,-4.3239,3.9422
9.6950,8.6995,-4.2565,3.8768
9.7030,8.5519,-4.1844,3.8094
9.7110,8.4030,-4.1164,3.7412
9.7190,8.2567,-4.0402,3.6766
9.7270,8.1133,-3.9722,3.6112
9.7350,7.9691,-3.9001,3.5486
9.7430,7.8264,-3.8321,3.4846
9.7510,7.6850,-3.7586,3.4268
9.7590,7.5450,-3.6941,3.3656
9.7670,7.4056,-3.6199,3.3057
9.7750,7.2739,-3.5499,3.2472
9.7830,7.1373,-3.4832,3.1846
9.7910,7.0014,-3.4146,3.1289
9.7990,6.8669,-3.3507,3.0676
9.8070,6.7385,-3.2813,3.0091
9.8150,6.6067,-3.2182,2.9520
9.8230,6.4750,-3.1543,2.8956
9.8310,6.3459,-3.0918,2.8392
9.8390,6.2196,-3.0334,2.7820
9.8470,6.0940,-2.9716,2.7249
9.8550,5.9705,-2.9098,2.6678
9.8630,5.8476,-2.8528,2.6114
9.8710,5.7289,-2.7917,2.5543
9.8790,5.6040,-2.7360,2.4992
9.8870,5.4873,-2.6811,2.4456
9.8950,5.3692,-2.6269,2.3933
9.9030,5.2539,-2.5678,2.3389
9.9110,5.1420,-2.5135,2.2866
9.9190,5.0240,-2.4599,2.2357
9.9270,4.9101,-2.4064,2.1848
9.9350,4.7961,-2.3494,2.1366
9.9430,4.6890,-2.2944,2.0871
9.9510,4.5779,-2.2422,2.0361
9.9590,4.4701,-2.1894,1.9914
9.9670,4.3658,-2.1372,1.9439
9.9750,4.2656,-2.0856,1.8999
9.9830,4.1619,-2.0314,1.8510
9.9910,4.0597,-1.9840,1.8091
9.9990,3.9615,-1.9297,1.7636
10.0070,3.8654,-1.8810,1.7210
10.0150,3.7666,-1.8295,1.6776
10.0220,3.6705,-1.7807,1.6322
10.0300,3.5724,-1.7319,1.5930
10.0380,3.4776,-1.6859,1.5517
10.0460,3.3843,-1.6406,1.5097
10.0540,3.2917,-1.5946,1.4685
10.0620,3.1942,-1.5486,1.4299
10.0700,3.1063,-1.5046,1.3886
10.0780,3.0130,-1.4634,1.3480
10.0860,2.9258,-1.4181,1.3109
10.0940,2.8373,-1.3796,1.2703
10.1020,2.7556,-1.3384,1.2324
10.1100,2.6712,-1.2965,1.1953
10.1180,2.5881,-1.2601,1.1581
10.1260,2.5078,-1.2210,1.1196
10.1340,2.4310,-1.1818,1.0824
10.1420,2.3555,-1.1461,1.0487
10.1500,2.2786,-1.1097,1.0129
10.1580,2.2038,-1.0726,0.9799
10.1660,2.1290,-1.0376,0.9455
10.1740,2.0562,-1.0047,0.9117
10.1820,1.9835,-0.9689,0.8794
10.1900,1.9142,-0.9346,0.8484
10.1980,1.8428,-0.9030,0.8223
10.2060,1.7707,-0.8700,0.7872
10.2140,1.7028,-0.8398,0.7576
10.2220,1.6362,-0.8055,0.7301
10.2300,1.5731,-0.7780,0.7026
10.2380,1.5065,-0.7464,0.6716
10.2460,1.4454,-0.7203,0.6448
10.2540,1.3823,-0.6880,0.6186
10.2620,1.3246,-0.6571,0.5904
10.2700,1.2710,-0.6297,0.5656
10.2780,1.2134,-0.6036,0.5416
10.2860,1.1585,-0.5720,0.5140
10.2940,1.1050,-0.5473,0.4913
10.3020,1.0535,-0.5211,0.4672
10.3100,1.0034,-0.4930,0.4452
10.3180,0.9526,-0.4669,0.4252
10.3260,0.9039,-0.4435,0.4046
10.3340,0.8572,-0.4229,0.3840
10.3420,0.8099,-0.3982,0.3654
10.3500,0.7652,-0.3749,0.3454
10.3580,0.7227,-0.3543,0.3275
10.3660,0.6801,-0.3323,0.3076
10.3740,0.6438,-0.3144,0.2890
10.3820,0.6005,-0.2938,0.2725
10.3900,0.5648,-0.2746,0.2539
10.3980,0.5250,-0.2574,0.2367
10.4060,0.4907,-0.2396,0.2181
10.4140,0.4571,-0.2217,0.2023
10.4220,0.4207,-0.2059,0.1858
10.4300,0.3871,-0.1901,0.1706
10.4380,0.3541,-0.1736,0.1548
10.4460,0.3274,-0.1606,0.1438
10.4540,0.2979,-0.1441,0.1321
10.4620,0.2649,-0.1297,0.1184
10.4700,0.2450,-0.1194,0.1066
10.4780,0.2182,-0.1077,0.0984
10.4860,0.1935,-0.0905,0.0894
10.4940,0.1743,-0.0836,0.0826
10.5020,0.1537,-0.0747,0.0743
10.5100,0.1338,-0.0637,0.0626
10.5180,0.1160,-0.0541,0.0578
10.5260,0.1002,-0.0459,0.0495
10.5340,0.0858,-0.0411,0.0413
10.5420,0.0700,-0.0314,0.0372
10.5500,0.0563,-0.0239,0.0296
10.5580,0.0446,-0.0225,0.0248
10.5660,0.0384,-0.0164,0.0193
10.5740,0.0254,-0.0129,0.0172
10.5820,0.0185,-0.0088,0.0131
10.5900,0.0137,-0.0040,0.0090
10.5980,0.0076,-0.0047,0.0117
10.6060,0.0014,-0.0040,0.0090
10.6140,0.0014,-0.0012,0.0090
10.6220,-0.0014,-0.0026,0.0096
10.6300,-0.0007,-0.0026,0.0076
10.6380,0.0041,-0.0012,0.0117
10.6460,0.0021,-0.0026,0.0090
10.6540,0.0103,-0.0040,0.0076
10.6620,0.0089,-0.0067,0.0076
10.6700,0.0171,-0.0074,0.0096
10.6780,0.0247,-0.0067,0.0137
10.6860,0.0343,-0.0108,0.0158
10.6940,0.0432,-0.0136,0.0165
10.7020,0.0528,-0.0184,0.0234
10.7100,0.0652,-0.0246,0.0296
10.7180,0.0789,-0.0280,0.0344
10.7260,0.0913,-0.0335,0.0399
10.7340,0.1071,-0.0411,0.0461
10.7420,0.1215,-0.0465,0.0544
10.7500,0.1441,-0.0568,0.0619
10.7580,0.1633,-0.0671,0.0675
10.7660,0.1832,-0.0782,0.0784
10.7740,0.2066,-0.0912,0.0860
10.7820,0.2313,-0.1008,0.0970
10.7900,0.2546,-0.1132,0.1073
10.7980,0.2827,-0.1283,0.1211
10.8060,0.3061,-0.1400,0.1287
10.8140,0.3370,-0.1544,0.1397
10.8220,0.3678,-0.1709,0.1528
10.8300,0.4001,-0.1860,0.1686
10.8380,0.4310,-0.2025,0.1830
10.8460,0.4646,-0.2196,0.1995
10.8540,0.5024,-0.2348,0.2188
10.8620,0.5388,-0.2554,0.2340
10.8700,0.5772,-0.2773,0.2546
10.8780,0.6163,-0.2945,0.2725
10.8860,0.6582,-0.3137,0.2918
10.8940,0.7021,-0.3364,0.3104
10.9020,0.7467,-0.3591,0.3330
10.9100,0.7907,-0.3797,0.3509
10.9180,0.8346,-0.4023,0.3730
10.9260,0.8826,-0.4264,0.3936
10.9340,0.9286,-0.4483,0.4163
10.9420,0.9814,-0.4744,0.4377
10.9500,1.0295,-0.5005,0.4604
10.9580,1.0844,-0.5246,0.4817
10.9660,1.1379,-0.5500,0.5044
10.9740,1.1914,-0.5795,0.5319
10.9820,1.2470,-0.6042,0.5519
10.9900,1.3054,-0.6331,0.5815
10.9980,1.3617,-0.6599,0.6111
11.0060,1.4241,-0.6901,0.6365
11.0140,1.4831,-0.7183,0.6641
11.0220,1.5491,-0.7492,0.6916
11.0300,1.6142,-0.7821,0.7212
11.0380,1.6835,-0.8117,0.7494
11.0460,1.7487,-0.8432,0.7797
11.0540,1.8181,-0.8776,0.8078
11.0620,1.8853,-0.9105,0.8416
11.0700,1.9546,-0.9449,0.8719
11.0770,2.0260,-0.9806,0.9014
11.0850,2.0988,-1.0156,0.9365
11.0930,2.1709,-1.0534,0.9654
11.1010,2.2484,-1.0891,1.0019
11.1090,2.3267,-1.1276,1.0370
11.1170,2.4015,-1.1667,1.0700
11.1250,2.4811,-1.2059,1.1079
11.1330,2.5621,-1.2429,1.1423
11.1410,2.6444,-1.2835,1.1787
11.1490,2.7227,-1.3247,1.2194
11.1570,2.8064,-1.3666,1.2558
11.1650,2.8963,-1.4058,1.2943
11.1730,2.9821,-1.4497,1.3322
11.1810,3.0734,-1.4936,1.3749
11.1890,3.1605,-1.5369,1.4134
11.1970,3.2518,-1.5836,1.4533
11.2050,3.3431,-1.6296,1.4967
11.2130,3.4358,-1.6708,1.5373
11.2210,3.5305,-1.7196,1.5779
11.2290,3.6259,-1.7684,1.6192
11.2370,3.7254,-1.8144,1.6604
11.2450,3.8229,-1.8638,1.7038
11.2530,3.9203,-1.9146,1.7506
11.2610,4.0226,-1.9641,1.7919
11.2690,4.1221,-2.0156,1.8379
11.2770,4.2223,-2.0643,1.8847
11.2850,4.3273,-2.1166,1.9295
11.2930,4.4337,-2.1653,1.9749
11.3010,4.5367,-2.2216,2.0237
11.3090,4.6479,-2.2759,2.0726
11.3170,4.7556,-2.3281,2.1242
11.3250,4.8696,-2.3803,2.1765
11.3330,4.9821,-2.4352,2.2288
11.3410,5.0981,-2.4895,2.2770
11.3490,5.2148,-2.5437,2.3279
11.3570,5.3321,-2.5973,2.3795
11.3650,5.4530,-2.6557,2.4304
11.3730,5.5696,-2.7154,2.4876
11.3810,5.6932,-2.7731,2.5398
11.3890,5.8112,-2.8301,2.5956
11.3970,5.9403,-2.8892,2.6499
11.4050,6.0590,-2.9496,2.7050
11.4130,6.1839,-3.0087,2.7607
11.4210,6.3136,-3.0691,2.8158
11.4290,6.4365,-3.1323,2.8729
11.4370,6.5710,-3.1962,2.9327
11.4450,6.6966,-3.2621,2.9885
11.4530,6.8291,-3.3260,3.0477
11.4610,6.9616,-3.3912,3.1061
11.4690,7.0968,-3.4558,3.1681
11.4770,7.2375,-3.5231,3.2245
11.4850,7.3706,-3.5897,3.2850
11.4930,7.5127,-3.6563,3.3449
11.5010,7.6500,-3.7243,3.4055
11.5090,7.7955,-3.7909,3.4750
11.5170,7.9362,-3.8610,3.5355
11.5250,8.0783,-3.9324,3.5995
11.5330,8.2217,-4.0038,3.6663
11.5410,8.3700,-4.0739,3.7296
11.5490,8.5176,-4.1446,3.7943
11.5570,8.6638,-4.2167,3.8596
11.5650,8.8106,-4.2875,3.9284
11.5730,8.9630,-4.3623,3.9965
11.5810,9.1154,-4.4344,4.0647
11.5890,9.2691,-4.5072,4.1369
11.5970,9.4222,-4.5834,4.2044
11.6050,9.5801,-4.6597,4.2759
11.6130,9.7400,-4.7325,4.3461
11.6210,9.8958,-4.8114,4.4183
11.6290,10.0544,-4.8891,4.4919
11.6370,10.2184,-4.9673,4.5628
11.6450,10.3783,-5.0491,4.6351
11.6530,10.5431,-5.1253,4.7094
11.6610,10.7071,-5.2112,4.7837
11.6690,10.8746,-5.2915,4.8546
11.6770,11.0434,-5.3780,4.9296
11.6850,11.2095,-5.4618,5.0074
11.6930,11.3804,-5.5463,5.0817
11.7010,11.5534,-5.6328,5.1560
11.7090,11.7271,-5.7187,5.2303
11.7170,11.9042,-5.8011,5.3060
11.7250,12.0806,-5.8883,5.3851
11.7330,12.2597,-5.9762,5.4636
11.7410,12.4375,-6.0655,5.5420
11.7490,12.6180,-6.1541,5.6211
11.7570,12.7965,-6.2399,5.7030
11.7650,12.9791,-6.3251,5.7842
11.7730,13.1610,-6.4137,5.8654
11.7810,13.3442,-6.5029,5.9445
11.7890,13.5289,-6.5915,6.0340
11.7970,13.7156,-6.6829,6.1220
11.8050,13.9036,-6.7721,6.2080
11.8130,14.0938,-6.8621,6.2927
11.8210,14.2853,-6.9582,6.3787
11.8290,14.4796,-7.0489,6.4640
11.8370,14.6745,-7.1444,6.5507
11.8450,14.8653,-7.2412,6.6374
11.8530,15.0650,-7.3339,6.7241
11.8610,15.2621,-7.4328,6.8080
11.8690,15.4591,-7.5186,6.8975
11.8770,15.6588,-7.6230,6.9821
11.8850,15.8606,-7.7199,7.0702
11.8930,16.0631,-7.8160,7.1583
11.9010,16.2670,-7.9169,7.2463
11.9090,16.4502,-8.0097,7.3358
11.9170,16.6678,-8.1024,7.4273
11.9250,16.8607,-8.2095,7.5209
11.9330,17.0817,-8.3104,7.6179
11.9410,17.2781,-8.4121,7.7149
11.9490,17.5032,-8.5069,7.8071
11.9570,17.7023,-8.6167,7.9062
11.9650,17.9309,-8.7198,8.0053
11.9730,18.1313,-8.8276,8.1009
11.9810,18.3592,-8.9340,8.1993
11.9890,18.5603,-9.0411,8.2950
11.9970,18.7944,-9.1483,8.3920
12.0050,18.9976,-9.2575,8.4883
12.0130,19.2289,-9.3660,8.5853
12.0210,19.4396,-9.4758,8.6837
12.0290,19.6758,-9.5850,8.7807
12.0370,19.8865,-9.6942,8.8791
12.0450,20.1240,-9.8055,8.9802
12.0530,20.3307,-9.9161,9.0821
12.0610,20.5743,-10.0259,9.1818
12.0690,20.7830,-10.1406,9.2837
12.0770,21.0240,-10.2505,9.3924
12.0850,21.2423,-10.3617,9.4963
12.0930,21.4853,-10.4743,9.5988
12.1010,21.7001,-10.5801,9.7061
12.1090,21.9486,-10.7010,9.8100
12.1170,22.1607,-10.8170,9.9139
12.1250,22.4065,-10.9227,10.0185
12.1320,22.6234,-11.0402,10.1169
12.1400,22.8692,-11.1563,10.2201
12.1480,23.0874,-11.2668,10.3212
12.1560,23.3346,-11.3774,10.4210
12.1640,23.5488,-11.4886,10.5207
12.1720,23.7911,-11.6006,10.6239
12.1800,24.0067,-11.7097,10.7230
12.1880,24.2483,-11.8210,10.8255
12.1960,24.4625,-11.9288,10.9295
12.2040,24.7117,-12.0414,11.0334
12.2120,24.9272,-12.1554,11.1386
12.2200,25.1778,-12.2626,11.2445
12.2280,25.3926,-12.3697,11.3443
12.2360,25.6411,-12.4926,11.4517
12.2440,25.8704,-12.5977,11.5569
12.2520,26.1032,-12.7192,11.6574
12.2600,26.3146,-12.8346,11.7633
12.2680,26.5604,-12.9486,11.8658
12.2760,26.7787,-13.0640,11.9656
12.2840,27.0224,-13.1786,12.0681
12.2920,27.2551,-13.2933,12.1699
12.3000,27.4864,-13.4011,12.2711
12.3080,27.7164,-13.5137,12.3729
12.3160,27.9478,-13.6229,12.4733
12.3240,28.1784,-13.7342,12.5779
12.3320,28.4125,-13.8489,12.6804
12.3400,28.6432,-13.9594,12.7816
12.3480,28.8786,-14.0713,12.8848
12.3560,29.1100,-14.1853,12.9893
12.3640,29.3393,-14.3014,13.0953
12.3720,29.5679,-14.4140,13.1951
12.3800,29.8041,-14.5280,13.3003
12.3880,30.0313,-14.6441,13.4063
12.3960,30.2640,-14.7587,13.5102
12.4040,30.4961,-14.8700,13.6113
12.4120,30.7261,-14.9867,13.7145
12.4200,30.9588,-15.0972,13.8135
12.4280,31.1888,-15.2071,13.9161
12.4360,31.4188,-15.3170,14.0179
12.4440,31.6508,-15.4310,14.1225
12.4520,31.8767,-15.5367,14.2264
12.4600,32.1115,-15.6487,14.3289
12.4680,32.3449,-15.7572,14.4279
12.4760,32.5783,-15.8698,14.5353
12.4840,32.8035,-15.9830,14.6364
12.4920,33.0383,-16.0950,14.7430
12.5000,33.2642,-16.2096,14.8448
12.5080,33.4941,-16.3237,14.9473
12.5160,33.7241,-16.4404,15.0492
12.5240,33.9596,-16.5530,15.1517
12.5320,34.1924,-16.6663,15.2528
12.5400,34.4223,-16.7824,15.3526
12.5480,34.6565,-16.8936,15.4558
12.5560,34.8865,-17.0062,15.5555
12.5640,35.1185,-17.1161,15.6601
12.5720,35.3519,-17.2287,15.7598
12.5800,35.5860,-17.3386,15.8637
12.5880,35.8215,-17.4491,15.9683
12.5960,36.0577,-17.5624,16.0736
12.6040,36.2891,-17.6764,16.1774
12.6120,36.5246,-17.7870,16.2827
12.6200,36.7546,-17.9002,16.3859
12.6280,36.9839,-18.0149,16.4884
12.6360,37.2221,-18.1282,16.5923
12.6440,37.4528,-18.2450,16.6934
12.6520,37.6842,-18.3576,16.7966
12.6600,37.9149,-18.4743,16.8991
12.6680,38.1503,-18.5897,17.0016
12.6760,38.3804,-18.7030,17.1027
12.6840,38.6118,-18.8135,17.2059
12.6920,38.8431,-18.9261,17.3098
12.7000,39.0793,-19.0388,17.4157
12.7080,39.3141,-19.1493,17.5224
12.7160,39.5510,-19.2585,17.6256
12.7240,39.7830,-19.3745,17.7308
12.7320,40.0151,-19.4851,17.8368
12.7400,40.2479,-19.5984,17.9406
12.7480,40.4792,-19.7110,18.0438
12.7560,40.7093,-19.8250,18.1484
12.7640,40.9454,-19.9376,18.2502
12.7720,41.1803,-20.0523,18.3548
12.7800,41.4103,-20.1690,18.4559
12.7880,41.6444,-20.2843,18.5557
12.7960,41.8744,-20.3990,18.6609
12.8040,42.1031,-20.5123,18.7655
12.8120,42.3338,-20.6256,18.8659
12.8200,42.5699,-20.7382,18.9725
12.8280,42.8034,-20.8508,19.0771
12.8360,43.0348,-20.9655,19.1823
12.8440,43.2689,-21.0781,19.2883
12.8520,43.5003,-21.1887,19.3977
12.8600,43.7296,-21.3033,19.5029
12.8680,43.9617,-21.4146,19.6068
12.8760,44.1945,-21.5327,19.7120
12.8840,44.4259,-21.6473,19.8152
12.8920,44.6620,-21.7634,19.9191
12.9000,44.8948,-21.8767,20.0216
12.9080,45.1289,-21.9927,20.1248
12.9160,45.3652,-22.1067,20.2266
12.9240,45.5973,-22.2214,20.3291
12.9320,45.8307,-22.3367,20.4371
12.9400,46.0642,-22.4507,20.5409
12.9480,46.3003,-22.5660,20.6476
12.9560,46.5345,-22.6773,20.7542
12.9640,46.7714,-22.7906,20.8581
12.9720,47.0083,-22.9039,20.9620
12.9800,47.2410,-23.0179,21.0727
12.9880,47.4759,-23.1318,21.1738
12.9960,47.7066,-23.2472,21.2832
13.0040,47.9476,-23.3584,21.3870
13.0120,48.1824,-23.4752,21.4888
13.0200,48.4193,-23.5905,21.5913
13.0280,48.6583,-23.7059,21.6938
13.0360,48.8917,-23.8226,21.7936
13.0440,49.1286,-23.9352,21.8968
13.0520,49.3600,-24.0361,22.0006
13.0600,49.5962,-24.1611,22.1045
13.0680,49.8345,-24.2723,22.2070
13.0760,50.0714,-24.3904,22.3164
13.0840,50.3111,-24.5017,22.4285
13.0920,50.5473,-24.6163,22.5399
13.1000,50.7842,-24.7303,22.6479
13.1080,51.0183,-24.8422,22.7552
13.1160,51.2594,-24.9521,22.8660
13.1240,51.4928,-25.0674,22.9733
13.1320,51.7325,-25.1821,23.0840
13.1400,51.9687,-25.2974,23.1872
13.1480,52.2042,-25.4135,23.2890
13.1560,52.4404,-25.5288,23.3922
13.1640,52.6780,-25.6442,23.4919
13.1720,52.9101,-25.7609,23.5972
13.1800,53.1443,-25.8783,23.6996
13.1870,53.3791,-25.9937,23.8042
13.1950,53.6181,-26.1097,23.9087
13.2030,53.8537,-26.2244,24.0147
13.2110,54.0933,-26.3404,24.1213
13.2190,54.3268,-26.4523,24.2300
13.2270,54.5651,-26.5718,24.3393
13.2350,54.7972,-26.6858,24.4501
13.2430,55.0327,-26.8011,24.5574
13.2510,55.2703,-26.9158,24.6633
13.2590,55.5093,-27.0325,24.7692
13.2670,55.7434,-27.1479,24.8779
13.2750,55.9851,-27.2632,24.9824
13.2830,56.2166,-27.3813,25.0843
13.2910,56.4555,-27.4953,25.1874
13.2990,56.6945,-27.6127,25.2913
13.3070,56.9040,-27.7273,25.3883
13.3150,57.1581,-27.8440,25.4928
13.3230,57.3977,-27.9601,25.6008
13.3310,57.6388,-28.0775,25.7026
13.3390,57.8770,-28.1915,25.8126
13.3470,58.1153,-28.3089,25.9206
13.3550,58.3536,-28.4229,26.0300
13.3630,58.5919,-28.5389,26.1366
13.3710,58.8192,-28.6549,26.2453
13.3790,59.0706,-28.7716,26.3546
13.3870,59.2924,-28.8884,26.4592
13.3950,59.5486,-29.0085,26.5679
13.4030,59.7882,-29.1245,26.6731
13.4110,60.0080,-29.2378,26.7769
13.4190,60.2586,-29.3573,26.8794
13.4270,60.4969,-29.4754,26.9833
13.4350,60.7201,-29.5894,27.0864
13.4430,60.9742,-29.7095,27.1930
13.4510,61.2166,-29.8242,27.2969
13.4590,61.4433,-29.9416,27.4070
13.4670,61.6967,-30.0569,27.5142
13.4750,61.9226,-30.1771,27.6236
13.4830,62.1719,-30.2910,27.7350
13.4910,62.3958,-30.4119,27.8444
13.4990,62.6540,-30.5286,27.9523
13.5070,62.8903,-30.6433,28.0603
13.5150,63.1320,-30.7614,28.1662
13.5230,63.3669,-30.8794,28.2714
13.5310,63.6038,-30.9975,28.3774
13.5390,63.8442,-31.1177,28.4812
13.5470,64.0784,-31.2323,28.5844
13.5550,64.3222,-31.3504,28.6848
13.5630,64.5605,-31.4651,28.7935
13.5710,64.8050,-31.5805,28.8953
13.5790,65.0481,-31.6985,29.0032
13.5870,65.2877,-31.8166,29.1078
13.5950,65.5281,-31.9313,29.2178
13.6030,65.7692,-32.0501,29.3244
13.6110,66.0068,-32.1654,29.4351
13.6190,66.2465,-32.2876,29.5438
13.6270,66.4834,-32.4029,29.6525
13.6350,66.7279,-32.5244,29.7604
13.6430,66.9635,-32.6405,29.8691
13.6510,67.2052,-32.7586,29.9757
13.6590,67.4429,-32.8746,30.0816
13.6670,67.6839,-32.9920,30.1889
13.6750,67.9257,-33.1060,30.2934
13.6830,68.1688,-33.2206,30.4000
13.6910,68.4085,-33.3374,30.5066
13.6990,68.6455,-33.4506,30.6118
13.7070,68.8845,-33.5646,30.7212
13.7150,69.1214,-33.6820,30.8278
13.7230,69.3591,-33.7994,30.9357
13.7310,69.6035,-33.9161,31.0430
13.7390,69.8439,-34.0356,31.1510
13.7470,70.0850,-34.1516,31.2562
13.7550,70.3206,-34.2690,31.3601
13.7630,70.5575,-34.3816,31.4680
13.7710,70.7917,-34.4969,31.5691
13.7790,71.0197,-34.6130,31.6723
13.7870,71.2540,-34.7269,31.7727
13.7950,71.4820,-34.8402,31.8751
13.8030,71.7141,-34.9494,31.9721
13.8110,71.9408,-35.0578,32.0691
13.8190,72.1661,-35.1629,32.1716
13.8270,72.3886,-35.2720,32.2719
13.8350,72.6070,-35.3826,32.3696
13.8430,72.8275,-35.4869,32.4707
13.8510,73.0520,-35.5933,32.5697
13.8590,73.2698,-35.6963,32.6660
13.8670,73.4902,-35.8076,32.7643
13.8750,73.7093,-35.9105,32.8627
13.8830,73.9243,-36.0156,32.9596
13.8910,74.1413,-36.1220,33.0552
13.8990,74.3529,-36.2291,33.1494
13.9070,74.5658,-36.3307,33.2471
13.9150,74.7739,-36.4337,33.3379
13.9230,74.9855,-36.5352,33.4321
13.9310,75.1929,-36.6376,33.5276
13.9390,75.3990,-36.7385,33.6198
13.9470,75.6050,-36.8373,33.7154
13.9550,75.8063,-36.9341,33.8062
13.9630,76.0082,-37.0316,33.8928
13.9710,76.2095,-37.1291,33.9815
13.9790,76.4038,-37.2238,34.0737
13.9870,76.6058,-37.3179,34.1589
13.9950,76.8029,-37.4161,34.2510
14.0030,76.9979,-37.5122,34.3404
14.0110,77.1916,-37.6069,34.4271
14.0190,77.3833,-37.7023,34.5130
14.0270,77.5735,-37.7984,34.5997
14.0350,77.7659,-37.8925,34.6850
14.0430,77.9520,-37.9845,34.7661
14.0510,78.1436,-38.0806,34.8541
14.0590,78.3298,-38.1699,34.9387
14.0670,78.5145,-38.2632,35.0212
14.0750,78.7007,-38.3552,35.1058
14.0830,78.8841,-38.4431,35.1862
14.0910,79.0640,-38.5282,35.2667
14.0990,79.2433,-38.6161,35.3478
14.1070,79.4226,-38.6992,35.4262
14.1150,79.5991,-38.7823,35.5080
14.1230,79.7722,-38.8674,35.5844
14.1310,79.9474,-38.9511,35.6648
14.1390,80.1191,-39.0335,35.7480
14.1470,80.2908,-39.1152,35.8189
14.1550,80.4604,-39.1955,35.8931
14.1630,80.6322,-39.2766,35.9687
14.1710,80.7984,-39.3610,36.0423
14.1790,80.9680,-39.4454,36.1166
14.1870,81.1336,-39.5264,36.1901
14.1950,81.2984,-39.6102,36.2623
14.2030,81.4605,-39.6898,36.3387
14.2110,81.6247,-39.7701,36.4095
14.2190,81.7854,-39.8511,36.4824
14.2270,81.9489,-39.9287,36.5484
14.2350,82.1042,-40.0056,36.6220
14.2420,82.2642,-40.0832,36.6914
14.2500,82.4215,-40.1580,36.7623
14.2580,82.5747,-40.2335,36.8324
14.2660,82.7265,-40.3056,36.9004
14.2740,82.8803,-40.3777,36.9706
14.2820,83.0308,-40.4512,37.0414
14.2900,83.1791,-40.5233,37.1060
14.2980,83.3261,-40.5919,37.1741
14.3060,83.4752,-40.6640,37.2415
14.3140,83.6167,-40.7326,37.3041
14.3220,83.7637,-40.8013,37.3687
14.3300,83.9045,-40.8741,37.4333
14.3380,84.0494,-40.9434,37.4986
14.3460,84.1868,-41.0086,37.5571
14.3540,84.3256,-41.0793,37.6162
14.3620,84.4643,-41.1486,37.6760
14.3700,84.5983,-41.2145,37.7365
14.3780,84.7350,-41.2832,37.7943
14.3860,84.8669,-41.3484,37.8541
14.3940,84.9953,-41.4164,37.9098
14.4020,85.1279,-41.4823,37.9683
14.4100,85.2570,-41.5441,38.0281
14.4180,85.3827,-41.6086,38.0831
14.4260,85.5098,-41.6711,38.1422
14.4340,85.6362,-41.7294,38.1986
14.4420,85.7578,-41.7926,38.2557
14.4500,85.8814,-41.8523,38.3093
14.4580,86.0023,-41.9107,38.3691
14.4660,86.1260,-41.9697,38.4255
14.4740,86.2469,-42.0239,38.4819
14.4820,86.3657,-42.0850,38.5341
14.4900,86.4811,-42.1365,38.5850
14.4980,86.5986,-42.1914,38.6393
14.5060,86.7119,-42.2477,38.6902
14.5140,86.8273,-42.3033,38.7418
14.5220,86.9400,-42.3569,38.7926
14.5300,87.0533,-42.4084,38.8415
14.5380,87.1646,-42.4612,38.8916
14.5460,87.2724,-42.5161,38.9384
14.5540,87.3823,-42.5614,38.9879
14.5620,87.4868,-42.6150,39.0340
14.5700,87.5925,-42.6665,39.0794
14.5780,87.6921,-42.7145,39.1240
14.5860,87.7979,-42.7647,39.1660
14.5940,87.8982,-42.8189,39.2114
14.6020,87.9971,-42.8635,39.2588
14.6100,88.0961,-42.9136,39.3014
14.6180,88.1929,-42.9589,39.3427
14.6260,88.2877,-43.0063,39.3860
14.6340,88.3825,-43.0530,39.4266
14.6420,88.4773,-43.0983,39.4651
14.6500,88.5645,-43.1457,39.5056
14.6580,88.6566,-43.1889,39.5469
14.6660,88.7418,-43.2356,39.5868
14.6740,88.8297,-43.2795,39.6239
14.6820,88.9190,-43.3180,39.6638
14.6900,89.0042,-43.3626,39.7016
14.6980,89.0900,-43.4038,39.7359
14.7060,89.1752,-43.4450,39.7724
14.7140,89.2563,-43.4841,39.8088
14.7220,89.3380,-43.5232,39.8446
14.7300,89.4184,-43.5624,39.8817
14.7380,89.4947,-43.6015,39.9188
14.7460,89.5723,-43.6365,39.9546
14.7540,89.6506,-43.6742,39.9897
14.7620,89.7199,-43.7072,40.0206
14.7700,89.7955,-43.7429,40.0591
14.7780,89.8690,-43.7765,40.0886
14.7860,89.9356,-43.8115,40.1217
14.7940,90.0057,-43.8452,40.1526
14.8020,90.0723,-43.8822,40.1842
14.8100,90.1410,-43.9152,40.2151
14.8180,90.2063,-43.9454,40.2447
14.8260,90.2695,-43.9763,40.2708
14.8340,90.3306,-44.0086,40.2983
14.8420,90.3925,-44.0381,40.3231
14.8500,90.4550,-44.0683,40.3533
14.8580,90.5113,-44.0944,40.3774
14.8660,90.5704,-44.1205,40.4049
14.8740,90.6301,-44.1479,40.4331
14.8820,90.6776,-44.1719,40.4578
14.8900,90.7332,-44.1953,40.4799
14.8980,90.7847,-44.2227,40.5080
14.9060,90.8355,-44.2475,40.5300
14.9140,90.8850,-44.2687,40.5500
14.9220,90.9324,-44.2928,40.5727
14.9300,90.9839,-44.3140,40.5919
14.9380,91.0251,-44.3401,40.6098
14.9460,91.0739,-44.3600,40.6284
14.9540,91.1172,-44.3834,40.6497
14.9620,91.1591,-44.4026,40.6675
14.9700,91.1962,-44.4232,40.6847
14.9780,91.2360,-44.4445,40.7033
14.9860,91.2738,-44.4617,40.7191
14.9940,91.3123,-44.4823,40.7349
15.0020,91.3466,-44.4980,40.7521
15.0100,91.3803,-44.5165,40.7672
15.0180,91.4133,-44.5337,40.7817
15.0260,91.4455,-44.5502,40.7947
15.0340,91.4765,-44.5632,40.8085
15.0420,91.5026,-44.5783,40.8195
15.0500,91.5348,-44.5941,40.8319
15.0580,91.5616,-44.6058,40.8422
15.0660,91.5857,-44.6181,40.8525
15.0740,91.6097,-44.6326,40.8628
15.0820,91.6317,-44.6435,40.8697
15.0900,91.6537,-44.6545,40.8800
15.0980,91.6757,-44.6648,40.8882
15.1060,91.6929,-44.6751,40.8965
15.1140,91.7093,-44.6827,40.9047
15.1220,91.7231,-44.6902,40.9130
15.1300,91.7402,-44.6950,40.9199
15.1380,91.7540,-44.7012,40.9254
15.1460,91.7650,-44.7074,40.9336
15.1540,91.7753,-44.7095,40.9384
15.1620,91.7863,-44.7177,40.9432
15.1700,91.7945,-44.7156,40.9494
15.1780,91.8007,-44.7184,40.9522
15.1860,91.8062,-44.7190,40.9536
15.1940,91.8124,-44.7204,40.9536
15.2020,91.8144,-44.7211,40.9556
15.2100,91.8151,-44.7225,40.9556
15.2180,91.8144,-44.7211,40.9556
15.2260,91.8130,-44.7239,40.9529
15.2340,91.8138,-44.7218,40.9536
15.2420,91.8103,-44.7197,40.9529
15.2500,91.8069,-44.7197,40.9529
15.2580,91.8034,-44.7197,40.9522
15.2660,91.8000,-44.7170,40.9515
15.2740,91.7890,-44.7149,40.9467
15.2820,91.7794,-44.7129,40.9453
15.2890,91.7718,-44.7053,40.9398
15.2970,91.7588,-44.7046,40.9343
15.3050,91.7485,-44.6971,40.9274
15.3130,91.7361,-44.6916,40.9226
15.3210,91.7190,-44.6854,40.9171
15.3290,91.7025,-44.6792,40.9068
15.3370,91.6853,-44.6703,40.8972
15.3450,91.6667,-44.6628,40.8903
15.3530,91.6448,-44.6531,40.8814
15.3610,91.6242,-44.6442,40.8717
15.3690,91.6001,-44.6333,40.8607
15.3770,91.5747,-44.6230,40.8525
15.3850,91.5500,-44.6113,40.8408
15.3930,91.5211,-44.5969,40.8264
15.4010,91.4936,-44.5845,40.8126
15.4090,91.4641,-44.5715,40.8030
15.4170,91.4318,-44.5550,40.7886
15.4250,91.4009,-44.5406,40.7741
15.4330,91.3679,-44.5227,40.7590
15.4410,91.3315,-44.5056,40.7439
15.4490,91.2944,-44.4877,40.7287
15.4570,91.2566,-44.4706,40.7122
15.4650,91.2161,-44.4506,40.6964
15.4730,91.1763,-44.4321,40.6778
15.4810,91.1385,-44.4102,40.6607
15.4890,91.0883,-44.3889,40.6407
15.4970,91.0464,-44.3655,40.6208
15.5050,91.0031,-44.3443,40.6009
15.5130,90.9523,-44.3223,40.5809
15.5210,90.9049,-44.2982,40.5562
15.5290,90.8568,-44.2729,40.5335
15.5370,90.8067,-44.2475,40.5115
15.5450,90.7538,-44.2248,40.4874
15.5530,90.7050,-44.1980,40.4640
15.5610,90.6466,-44.1706,40.4379
15.5690,90.5917,-44.1431,40.4132
15.5770,90.5360,-44.1150,40.3891
15.5850,90.4776,-44.0868,40.3623
15.5930,90.4172,-44.0600,40.3334
15.6010,90.3581,-44.0298,40.3093
15.6090,90.2956,-43.9983,40.2825
15.6170,90.2317,-43.9674,40.2523
15.6250,90.1672,-43.9358,40.2234
15.6330,90.1019,-43.9035,40.1966
15.6410,90.0380,-43.8740,40.1663
15.6490,89.9693,-43.8404,40.1354
15.6570,89.8992,-43.8054,40.0997
15.6650,89.8264,-43.7717,40.0680
15.6730,89.7543,-43.7381,40.0337
15.6810,89.6829,-43.7037,40.0020
15.6890,89.6121,-43.6674,39.9683
15.6970,89.5324,-43.6283,39.9319
15.7050,89.4568,-43.5891,39.8955
15.7130,89.3765,-43.5507,39.8645
15.7210,89.2975,-43.5129,39.8288
15.7290,89.2185,-43.4710,39.7951
15.7370,89.1361,-43.4264,39.7545
15.7450,89.0515,-43.3859,39.7188
15.7530,88.9664,-43.3427,39.6816
15.7610,88.8805,-43.3015,39.6431
15.7690,88.7926,-43.2562,39.6074
15.7770,88.7054,-43.2095,39.5661
15.7850,88.6154,-43.1683,39.5269
15.7930,88.5240,-43.1209,39.4864
15.8010,88.4313,-43.0791,39.4472
15.8090,88.3433,-43.0317,39.4032
15.8170,88.2458,-42.9857,39.3613
15.8250,88.1496,-42.9390,39.3138
15.8330,88.0548,-42.8923,39.2719
15.8410,87.9532,-42.8436,39.2292
15.8490,87.8549,-42.7962,39.1859
15.8570,87.7533,-42.7482,39.1406
15.8650,87.6530,-42.6974,39.0938
15.8730,87.5479,-42.6473,39.0470
15.8810,87.4421,-42.5944,38.9996
15.8890,87.3363,-42.5443,38.9529
15.8970,87.2257,-42.4942,38.9033
15.9050,87.1165,-42.4406,38.8525
15.9130,87.0032,-42.3891,38.8057
15.9210,86.8932,-42.3342,38.7555
15.9290,86.7785,-42.2896,38.7053
15.9370,86.6645,-42.2312,38.6538
15.9450,86.5498,-42.1777,38.5994
15.9530,86.4330,-42.1187,38.5479
15.9610,86.3197,-42.0631,38.4929
15.9690,86.2001,-42.0067,38.4392
15.9770,86.0793,-41.9484,38.3842
15.9850,85.9577,-41.8887,38.3306
15.9930,85.8375,-41.8248,38.2735
16.0010,85.7138,-41.7644,38.2199
16.0090,85.5874,-41.7020,38.1635
16.0170,85.4652,-41.6361,38.1092
16.0250,85.3340,-41.5736,38.0549
16.0330,85.2041,-41.5118,37.9951
16.0410,85.0729,-41.4452,37.9387
16.0490,84.9397,-41.3779,37.8802
16.0570,84.8098,-41.3079,37.8211
16.0650,84.6711,-41.2413,37.7654
16.0730,84.5337,-41.1740,37.7056
16.0810,84.3991,-41.1081,37.6472
16.0890,84.2583,-41.0374,37.5825
16.0970,84.1154,-40.9729,37.5234
16.1050,83.9766,-40.9015,37.4650
16.1130,83.8338,-40.8329,37.3962
16.1210,83.6875,-40.7670,37.3329
16.1290,83.5425,-40.6949,37.2690
16.1370,83.3969,-40.6248,37.2002
16.1450,83.2437,-40.5562,37.1342
16.1530,83.0974,-40.4848,37.0682
16.1610,82.9470,-40.4141,37.0008
16.1690,82.7938,-40.3441,36.9362
16.1770,82.6420,-40.2713,36.8647
16.1850,82.4833,-40.1964,36.7932
16.1930,82.3308,-40.1223,36.7244
16.2010,82.1770,-40.0441,36.6543
16.2090,82.0148,-39.9692,36.5848
16.2170,81.8534,-39.8896,36.5085
16.2250,81.6948,-39.8100,36.4356
16.2330,81.5327,-39.7290,36.3648
16.2410,81.3671,-39.6486,36.2926
16.2490,81.2030,-39.5656,36.2183
16.2570,81.0409,-39.4832,36.1468
16.2650,80.8712,-39.4008,36.0739
16.2730,80.7036,-39.3157,35.9983
16.2810,80.5367,-39.2354,35.9254
16.2890,80.3650,-39.1509,35.8525
16.2970,80.1912,-39.0671,35.7755
16.3050,80.0215,-38.9834,35.7019
16.3130,79.8464,-38.8990,35.6229
16.3210,79.6740,-38.8138,35.5465
16.3290,79.4967,-38.7321,35.4688
16.3370,79.3189,-38.6470,35.3891
16.3440,79.1375,-38.5619,35.3073
16.3520,78.9576,-38.4733,35.2247
16.3600,78.7762,-38.3841,35.1450
16.3680,78.5901,-38.2962,35.0597
16.3760,78.4060,-38.2063,34.9744
16.3840,78.2158,-38.1136,34.8912
16.3920,78.0303,-38.0216,34.8074
16.4000,77.8366,-37.9289,34.7214
16.4080,77.6477,-37.8328,34.6368
16.4160,77.4575,-37.7360,34.5460
16.4240,77.2665,-37.6392,34.4622
16.4320,77.0707,-37.5403,34.3783
16.4400,76.8791,-37.4463,34.2944
16.4480,76.6820,-37.3495,34.2091
16.4560,76.4821,-37.2506,34.1266
16.4640,76.2864,-37.1552,34.0413
16.4720,76.0824,-37.0570,33.9547
16.4800,75.8825,-36.9588,33.8667
16.4880,75.6819,-36.8613,33.7766
16.4960,75.4759,-36.7645,33.6872
16.5040,75.2726,-36.6698,33.5929
16.5120,75.0652,-36.5696,33.5015
16.5200,74.8591,-36.4707,33.4080
16.5280,74.6469,-36.3712,33.3131
16.5360,74.4374,-36.2661,33.2182
16.5440,74.2245,-36.1638,33.1233
16.5520,74.0115,-36.0608,33.0243
16.5600,73.7986,-35.9544,32.9314
16.5680,73.5795,-35.8487,32.8352
16.5760,73.3618,-35.7403,32.7368
16.5840,73.1434,-35.6331,32.6419
16.5920,72.9222,-35.5226,32.5491
16.6000,72.7038,-35.4176,32.4487
16.6080,72.4806,-35.3057,32.3538
16.6160,72.2622,-35.1993,32.2568
16.6240,72.0410,-35.0901,32.1599
16.6320,71.8151,-34.9830,32.0601
16.6400,71.5919,-34.8739,31.9577
16.6480,71.3652,-34.7626,31.8545
16.6560,71.1633,-34.6562,31.7486
16.6640,70.9181,-34.5436,31.6434
16.6720,70.6880,-34.4303,31.5375
16.6800,70.4538,-34.3184,31.4309
16.6880,70.2368,-34.2065,31.3243
16.6960,69.9875,-34.0843,31.2150
16.7040,69.7485,-33.9676,31.1084
16.7120,69.5232,-33.8509,31.0045
16.7200,69.2698,-33.7342,30.9000
16.7280,69.0287,-33.6154,30.7934
16.7360,68.8034,-33.4973,30.6902
16.7440,68.5520,-33.3778,30.5871
16.7520,68.3096,-33.2646,30.4812
16.7600,68.0850,-33.1471,30.3746
16.7680,67.8261,-33.0346,30.2693
16.7760,67.5871,-32.9206,30.1614
16.7840,67.3598,-32.8012,30.0486
16.7920,67.1070,-32.6872,29.9392
16.8000,66.8632,-32.5691,29.8292
16.8080,66.6400,-32.4496,29.7150
16.8160,66.3880,-32.3336,29.6071
16.8240,66.1634,-32.2141,29.4970
16.8320,65.9086,-32.0919,29.3890
16.8400,65.6813,-31.9745,29.2845
16.8480,65.4237,-31.8551,29.1786
16.8560,65.1998,-31.7397,29.0747
16.8640,64.9457,-31.6202,28.9716
16.8720,64.7074,-31.5056,28.8671
16.8800,64.4801,-31.3882,28.7667
16.8880,64.2253,-31.2770,28.6593
16.8960,63.9987,-31.1555,28.5555
16.9040,63.7466,-31.0422,28.4510
16.9120,63.5193,-30.9261,28.3457
16.9200,63.2666,-30.8101,28.2309
16.9280,63.0441,-30.6954,28.1209
16.9360,62.7907,-30.5739,28.0087
16.9440,62.5640,-30.4558,27.9001
16.9520,62.3086,-30.3405,27.7907
16.9600,62.0854,-30.2210,27.6834
16.9680,61.8299,-30.1036,27.5782
16.9760,61.6046,-29.9821,27.4716
16.9840,61.3485,-29.8667,27.3650
16.9920,61.1267,-29.7500,27.2604
17.0000,60.8657,-29.6326,27.1552
17.0080,60.6439,-29.5166,27.0513
17.0160,60.3878,-29.4033,26.9441
17.0240,60.1481,-29.2921,26.8375
17.0320,59.9070,-29.1754,26.7281
17.0400,59.6680,-29.0600,26.6222
17.0480,59.4297,-28.9433,26.5101
17.0560,59.2017,-28.8272,26.4007
17.0640,58.9511,-28.7112,26.2934
17.0720,58.7093,-28.5931,26.1840
17.0800,58.4711,-28.4737,26.0788
17.0880,58.2300,-28.3590,25.9749
17.0960,57.9911,-28.2436,25.8697
17.1040,57.7555,-28.1242,25.7638
17.1120,57.5145,-28.0075,25.6592
17.1200,57.2803,-27.8963,25.5533
17.1280,57.0372,-27.7788,25.4502
17.1360,56.7968,-27.6683,25.3484
17.1440,56.5579,-27.5536,25.2410
17.1520,56.3210,-27.4403,25.1338
17.1600,56.0806,-27.3236,25.0251
17.1680,55.8430,-27.2096,24.9157
17.1760,55.6081,-27.0964,24.8071
17.1840,55.3740,-26.9762,24.6956
17.1920,55.1364,-26.8581,24.5904
17.2000,54.8995,-26.7421,24.4810
17.2080,54.6639,-26.6267,24.3792
17.2160,54.4298,-26.5079,24.2767
17.2240,54.1922,-26.3912,24.1729
17.2320,53.9539,-26.2738,24.0697
17.2400,53.7184,-26.1571,23.9645
17.2480,53.4801,-26.0410,23.8572
17.2560,53.2425,-25.9319,23.7581
17.2640,53.0028,-25.8179,23.6529
17.2720,52.7625,-25.7039,23.5428
17.2800,52.5263,-25.5927,23.4369
17.2880,52.2859,-25.4801,23.3268
17.2960,52.0490,-25.3661,23.2195
17.3040,51.8087,-25.2528,23.1115
17.3120,51.5739,-25.1361,23.0049
17.3200,51.3328,-25.0180,22.8990
17.3280,51.0939,-24.9026,22.7924
17.3360,50.8570,-24.7825,22.6899
17.3440,50.6201,-24.6685,22.5867
17.3520,50.3886,-24.5559,22.4869
17.3600,50.1525,-24.4399,22.3845
17.3680,49.9169,-24.3218,22.2820
17.3760,49.6793,-24.2084,22.1802
17.3840,49.4438,-24.0972,22.0749
17.3920,49.2124,-23.9819,21.9683
17.3990,48.9748,-23.8679,21.8589
17.4070,48.7434,-23.7560,21.7544
17.4150,48.5065,-23.6434,21.6457
17.4230,48.2738,-23.5322,21.5391
17.4310,48.0355,-23.4175,21.4249
17.4390,47.7979,-23.2994,21.3190
17.4470,47.5631,-23.1840,21.2130
17.4550,47.3303,-23.0652,21.1105
17.4630,47.0962,-22.9657,21.0094
17.4710,46.8662,-22.8380,20.9090
17.4790,46.6334,-22.7233,20.8072
17.4870,46.4006,-22.6059,20.7040
17.4950,46.1671,-22.4912,20.6035
17.5030,45.9323,-22.3779,20.5024
17.5110,45.6996,-22.2646,20.3944
17.5190,45.4661,-22.1520,20.2892
17.5270,45.2313,-22.0415,20.1812
17.5350,44.9985,-21.9281,20.0711
17.5430,44.7650,-21.8183,19.9645
17.5510,44.5295,-21.7036,19.8572
17.5590,44.2968,-21.5903,19.7492
17.5670,44.0626,-21.4750,19.6439
17.5750,43.8312,-21.3596,19.5428
17.5830,43.5985,-21.2436,19.4410
17.5910,43.3692,-21.1248,19.3364
17.5990,43.1378,-21.0094,19.2374
17.6070,42.9023,-20.8955,19.1369
17.6150,42.6702,-20.7828,19.0365
17.6230,42.4340,-20.6682,18.9360
17.6310,42.1992,-20.5542,18.8349
17.6390,41.9651,-20.4436,18.7304
17.6470,41.7309,-20.3303,18.6224
17.6550,41.4982,-20.2178,18.5151
17.6630,41.2613,-20.1086,18.4071
17.6710,41.0278,-19.9994,18.2977
17.6790,40.7896,-19.8861,18.1903
17.6870,40.5520,-19.7693,18.0872
17.6950,40.3193,-19.6574,17.9778
17.7030,40.0858,-19.5441,17.8767
17.7110,39.8545,-19.4302,17.7776
17.7190,39.6231,-19.3141,17.6751
17.7270,39.3876,-19.1974,17.5767
17.7350,39.1528,-19.0868,17.4776
17.7430,38.9214,-18.9694,17.3793
17.7510,38.6859,-18.8534,17.2795
17.7590,38.4531,-18.7435,17.1798
17.7670,38.2190,-18.6302,17.0780
17.7750,37.9870,-18.5169,16.9706
17.7830,37.7535,-18.4063,16.8640
17.7910,37.5215,-18.2951,16.7553
17.7990,37.2887,-18.1832,16.6487
17.8070,37.0532,-18.0678,16.5379
17.8150,36.8205,-17.9580,16.4313
17.8230,36.5877,-17.8405,16.3254
17.8310,36.3564,-17.7300,16.2311
17.8390,36.1250,-17.6146,16.1224
17.8470,35.8943,-17.4999,16.0261
17.8550,35.6636,-17.3853,15.9222
17.8630,35.4295,-17.2699,15.8245
17.8710,35.1988,-17.1580,15.7241
17.8790,34.9695,-17.0433,15.6250
17.8870,34.7381,-16.9321,15.5211
17.8950,34.5075,-16.8194,15.4200
17.9030,34.2754,-16.7089,15.3134
17.9110,34.0434,-16.5990,15.2101
17.9190,33.8106,-16.4857,15.1001
17.9270,33.5779,-16.3751,14.9921
17.9350,33.3452,-16.2605,14.8840
17.9430,33.1172,-16.1499,14.7774
17.9510,32.8893,-16.0318,14.6735
17.9590,32.6593,-15.9199,14.5696
17.9670,32.4286,-15.8073,14.4671
17.9750,32.1973,-15.6892,14.3674
17.9830,31.9694,-15.5779,14.2718
17.9910,31.7373,-15.4633,14.1713
17.9990,31.5039,-15.3493,14.0716
18.0070,31.2698,-15.2366,13.9718
18.0150,31.0370,-15.1254,13.8693
18.0230,30.8084,-15.0135,13.7668
18.0310,30.5764,-14.9009,13.6588
18.0390,30.3451,-14.7999,13.5528
18.0470,30.1075,-14.6798,13.4413
18.0550,29.8761,-14.5658,13.3340
18.0630,29.6427,-14.4545,13.2274
18.0710,29.4128,-14.3392,13.1221
18.0790,29.1800,-14.2313,13.0155
18.0870,28.9521,-14.1077,12.9116
18.0950,28.7221,-13.9979,12.8111
18.1030,28.4908,-13.8894,12.7107
18.1110,28.2567,-13.7699,12.6130
18.1190,28.0253,-13.6552,12.5132
18.1270,27.7960,-13.5529,12.4156
18.1350,27.5647,-13.4313,12.3165
18.1430,27.3333,-13.3283,12.2146
18.1510,27.1068,-13.2116,12.1121
18.1590,26.8761,-13.1038,12.0089
18.1670,26.6475,-12.9891,11.9030
18.1750,26.4176,-12.8854,11.7963
18.1830,26.1883,-12.7700,11.6863
18.1910,25.9837,-12.6547,11.5789
18.1990,25.7427,-12.5448,11.4737
18.2070,25.5265,-12.4260,11.3663
18.2150,25.2814,-12.3099,11.2624
18.2230,25.0707,-12.1973,11.1627
18.2310,24.8235,-12.0861,11.0629
18.2390,24.6039,-11.9721,10.9632
18.2470,24.3581,-11.8581,10.8634
18.2550,24.1481,-11.7468,10.7636
18.2630,23.9064,-11.6370,10.6673
18.2710,23.6922,-11.5257,10.5655
18.2790,23.4492,-11.4158,10.4637
18.2870,23.2337,-11.3066,10.3604
18.2950,22.9893,-11.1926,10.2559
18.3030,22.7738,-11.0814,10.1485
18.3110,22.5253,-10.9729,10.0447
18.3190,22.3076,-10.8630,9.9387
18.3270,22.0708,-10.7470,9.8355
18.3350,21.8539,-10.6337,9.7288
18.3430,21.6116,-10.5183,9.6215
18.3510,21.4015,-10.4057,9.5224
18.3590,21.1578,-10.2903,9.4240
18.3670,20.9416,-10.1763,9.3236
18.3750,20.6993,-10.0664,9.2259
18.3830,20.4872,-9.9531,9.1268
18.3910,20.2476,-9.8412,9.0257
18.3990,20.0334,-9.7334,8.9211
18.4070,19.7946,-9.6256,8.8199
18.4150,19.5817,-9.5177,8.7140
18.4230,19.3401,-9.4106,8.6190
18.4310,19.1294,-9.3007,8.5131
18.4390,18.8912,-9.1943,8.4133
18.4470,18.6818,-9.0899,8.3108
18.4540,18.4498,-8.9814,8.2103
18.4620,18.2452,-8.8756,8.1133
18.4700,18.0181,-8.7685,8.0156
18.4780,17.8183,-8.6627,7.9193
18.4860,17.5883,-8.5563,7.8270
18.4940,17.3865,-8.4547,7.7328
18.5020,17.1628,-8.3516,7.6399
18.5100,16.9513,-8.2507,7.5525
18.5180,16.7564,-8.1518,7.4610
18.5260,16.5381,-8.0516,7.3716
18.5340,16.3315,-7.9540,7.2801
18.5420,16.1256,-7.8579,7.1886
18.5500,15.9176,-7.7652,7.0991
18.5580,15.7144,-7.6642,7.0089
18.5660,15.5174,-7.5702,6.9175
18.5740,15.3293,-7.4747,6.8266
18.5820,15.1193,-7.3799,6.7344
18.5900,14.9250,-7.2845,6.6463
18.5980,14.7301,-7.1863,6.5597
18.6060,14.5400,-7.0887,6.4736
18.6140,14.3443,-6.9953,6.3869
18.6220,14.1535,-6.8985,6.3030
18.6300,13.9613,-6.8024,6.2225
18.6380,13.7698,-6.7076,6.1413
18.6460,13.5865,-6.6142,6.0608
18.6540,13.4005,-6.5263,5.9803
18.6620,13.2152,-6.4350,5.8977
18.6700,13.0305,-6.3457,5.8172
18.6780,12.8493,-6.2585,5.7353
18.6860,12.6688,-6.1726,5.6548
18.6940,12.4856,-6.0874,5.5757
18.7020,12.3078,-6.0009,5.4938
18.7100,12.1293,-5.9158,5.4112
18.7180,11.9509,-5.8320,5.3328
18.7260,11.7827,-5.7461,5.2523
18.7340,11.6070,-5.6637,5.1759
18.7420,11.4347,-5.5779,5.1002
18.7500,11.2645,-5.4941,5.0225
18.7580,11.0963,-5.4082,4.9509
18.7660,10.9302,-5.3245,4.8752
18.7740,10.7613,-5.2427,4.8023
18.7820,10.5973,-5.1589,4.7314
18.7900,10.4339,-5.0779,4.6619
18.7980,10.2692,-4.9948,4.5931
18.8060,10.1093,-4.9165,4.5222
18.8140,9.9480,-4.8389,4.4507
18.8220,9.7901,-4.7627,4.3805
18.8300,9.6343,-4.6872,4.3096
18.8380,9.4805,-4.6164,4.2367
18.8460,9.3241,-4.5422,4.1651
18.8540,9.1765,-4.4694,4.0936
18.8620,9.0179,-4.4001,4.0241
18.8700,8.8669,-4.3266,3.9580
18.8780,8.7159,-4.2586,3.8871
18.8860,8.5670,-4.1899,3.8225
18.8940,8.4215,-4.1178,3.7543
18.9020,8.2718,-4.0464,3.6890
18.9100,8.1318,-3.9777,3.6222
18.9180,7.9870,-3.9042,3.5610
18.9260,7.8422,-3.8342,3.5011
18.9340,7.7035,-3.7675,3.4385
18.9420,7.5608,-3.6968,3.3773
18.9500,7.4228,-3.6261,3.3146
18.9580,7.2876,-3.5588,3.2569
18.9660,7.1517,-3.4894,3.1977
18.9740,7.0158,-3.4215,3.1378
18.9820,6.8833,-3.3555,3.0786
18.9900,6.7515,-3.2909,3.0194
18.9980,6.6198,-3.2264,2.9637
19.0060,6.4894,-3.1612,2.9073
19.0140,6.3631,-3.1014,2.8481
19.0220,6.2340,-3.0410,2.7903
19.0300,6.1091,-2.9778,2.7352
19.0380,5.9835,-2.9180,2.6781
19.0460,5.8586,-2.8576,2.6183
19.0540,5.7392,-2.7978,2.5626
19.0620,5.6183,-2.7429,2.5103
19.0700,5.5037,-2.6887,2.4524
19.0780,5.3850,-2.6303,2.3995
19.0860,5.2683,-2.5753,2.3465
19.0940,5.1530,-2.5224,2.2949
19.1020,5.0377,-2.4661,2.2433
19.1100,4.9238,-2.4146,2.1944
19.1180,4.8126,-2.3556,2.1442
19.1260,4.7035,-2.3041,2.0974
19.1340,4.5923,-2.2505,2.0471
19.1420,4.4872,-2.1976,2.0011
19.1500,4.3795,-2.1426,1.9522
19.1580,4.2779,-2.0925,1.9061
19.1660,4.1770,-2.0403,1.8620
19.1740,4.0734,-1.9868,1.8180
19.1820,3.9752,-1.9339,1.7719
19.1900,3.8764,-1.8858,1.7278
19.1980,3.7838,-1.8357,1.6845
19.2060,3.6863,-1.7890,1.6398
19.2140,3.5909,-1.7409,1.5985
19.2220,3.4955,-1.6894,1.5545
19.2300,3.4001,-1.6434,1.5111
19.2380,3.3074,-1.5966,1.4705
19.2460,3.2196,-1.5554,1.4320
19.2540,3.1194,-1.5122,1.3921
19.2620,3.0295,-1.4682,1.3521
19.2700,2.9457,-1.4250,1.3143
19.2780,2.8538,-1.3824,1.2758
19.2860,2.7742,-1.3412,1.2345
19.2940,2.6835,-1.3013,1.1966
19.3020,2.6046,-1.2629,1.1602
19.3100,2.5229,-1.2251,1.1223
19.3180,2.4495,-1.1866,1.0879
19.3260,2.3692,-1.1502,1.0521
19.3340,2.2930,-1.1145,1.0205
19.3420,2.2141,-1.0816,0.9833
19.3500,2.1482,-1.0417,0.9510
19.3580,2.0679,-1.0081,0.9193
19.3660,1.9986,-0.9758,0.8849
19.3740,1.9258,-0.9415,0.8554
19.3820,1.8613,-0.9078,0.8223
19.3900,1.7851,-0.8762,0.7934
19.3980,1.7206,-0.8460,0.7638
19.4060,1.6486,-0.8123,0.7322
19.4140,1.5895,-0.7787,0.7033
19.4220,1.5188,-0.7512,0.6764
19.4300,1.4632,-0.7210,0.6475
19.4380,1.3953,-0.6928,0.6221
19.4460,1.3404,-0.6640,0.5946
19.4540,1.2800,-0.6331,0.5677
19.4620,1.2210,-0.6056,0.5422
19.4700,1.1715,-0.5775,0.5188
19.4780,1.1132,-0.5507,0.4955
19.4860,1.0611,-0.5246,0.4707
19.4940,1.0130,-0.4950,0.4487
19.5020,0.9601,-0.4731,0.4280
19.5090,0.9148,-0.4504,0.4067
19.5170,0.8634,-0.4222,0.3840
19.5250,0.8208,-0.4003,0.3661
19.5330,0.7741,-0.3783,0.3448
19.5410,0.7316,-0.3584,0.3289
19.5490,0.6884,-0.3371,0.3076
19.5570,0.6492,-0.3158,0.2897
19.5650,0.6074,-0.2972,0.2711
19.5730,0.5696,-0.2766,0.2553
19.5810,0.5312,-0.2588,0.2353
19.5890,0.4948,-0.2416,0.2188
19.5970,0.4598,-0.2217,0.2016
19.6050,0.4255,-0.2059,0.1871
19.6130,0.3946,-0.1908,0.1706
19.6210,0.3589,-0.1750,0.1569
19.6290,0.3287,-0.1578,0.1452
19.6370,0.3013,-0.1482,0.1321
19.6450,0.2752,-0.1304,0.1211
19.6530,0.2498,-0.1194,0.1087
19.6610,0.2196,-0.1077,0.0997
19.6690,0.1983,-0.0939,0.0922
19.6770,0.1750,-0.0850,0.0805
19.6850,0.1530,-0.0726,0.0743
19.6930,0.1352,-0.0637,0.0661
19.7010,0.1180,-0.0555,0.0564
19.7090,0.1022,-0.0472,0.0509
19.7170,0.0830,-0.0383,0.0420
19.7250,0.0707,-0.0321,0.0365
19.7330,0.0597,-0.0246,0.0296
19.7410,0.0494,-0.0205,0.0248
19.7490,0.0377,-0.0177,0.0206
19.7570,0.0268,-0.0108,0.0131
19.7650,0.0185,-0.0081,0.0117
19.7730,0.0130,-0.0047,0.0062
19.7810,0.0076,-0.0040,0.0076
19.7890,0.0021,0.0001,0.0062
19.7970,-0.0007,-0.0012,0.0069
19.8050,0.0014,0.0001,0.0076
19.8130,0.0007,-0.0019,0.0083
19.8210,0.0034,-0.0040,0.0083
19.8290,0.0041,-0.0047,0.0096
19.8370,0.0089,-0.0040,0.0083
19.8450,0.0089,-0.0040,0.0076
19.8530,0.0158,-0.0088,0.0096
19.8610,0.0220,-0.0102,0.0131
19.8690,0.0343,-0.0122,0.0151
19.8770,0.0405,-0.0129,0.0199
19.8850,0.0501,-0.0164,0.0248
19.8930,0.0652,-0.0232,0.0296
19.9010,0.0755,-0.0266,0.0344
19.9090,0.0885,-0.0342,0.0392
19.9170,0.1071,-0.0411,0.0482
19.9250,0.1256,-0.0493,0.0551
19.9330,0.1386,-0.0548,0.0619
19.9410,0.1606,-0.0665,0.0688
19.9490,0.1798,-0.0795,0.0777
19.9570,0.2059,-0.0885,0.0867
19.9650,0.2272,-0.0994,0.0963
19.9730,0.2532,-0.1166,0.1066
19.9810,0.2786,-0.1249,0.1177
19.9890,0.3047,-0.1393,0.1273
19.9970,0.3349,-0.1537,0.1411
20.0050,0.3665,-0.1688,0.1548
20.0130,0.3960,-0.1867,0.1693
20.0210,0.4310,-0.2011,0.1837
20.0290,0.4646,-0.2183,0.1988
20.0370,0.5003,-0.2368,0.2147
20.0450,0.5360,-0.2540,0.2340
20.0530,0.5779,-0.2711,0.2525
20.0610,0.6129,-0.2917,0.2684
20.0690,0.6554,-0.3123,0.2904
20.0770,0.6987,-0.3323,0.3104
20.0850,0.7419,-0.3543,0.3296
20.0930,0.7852,-0.3769,0.3489
20.1010,0.8311,-0.3996,0.3716
20.1090,0.8805,-0.4215,0.3915
20.1170,0.9265,-0.4476,0.4156
20.1250,0.9780,-0.4738,0.4370
20.1330,1.0295,-0.4964,0.4576
20.1410,1.0796,-0.5205,0.4831
20.1490,1.1338,-0.5479,0.5072
20.1570,1.1880,-0.5733,0.5285
20.1650,1.2422,-0.6001,0.5553
20.1730,1.3006,-0.6269,0.5801
20.1810,1.3630,-0.6544,0.6055
20.1890,1.4200,-0.6860,0.6365
20.1970,1.4811,-0.7134,0.6620
20.2050,1.5442,-0.7478,0.6929
20.2130,1.6087,-0.7759,0.7232
20.2210,1.6787,-0.8096,0.7501
20.2290,1.7419,-0.8384,0.7797
20.2370,1.8112,-0.8748,0.8092
20.2450,1.8805,-0.9058,0.8395
20.2530,1.9512,-0.9387,0.8698
20.2610,2.0219,-0.9744,0.9021
20.2690,2.0940,-1.0095,0.9358
20.2770,2.1688,-1.0465,0.9668
20.2850,2.2408,-1.0829,1.0005
20.2930,2.3184,-1.1228,1.0329
20.3010,2.3960,-1.1605,1.0707
20.3090,2.4769,-1.2004,1.1044
20.3170,2.5511,-1.2395,1.1409
20.3250,2.6348,-1.2780,1.1753
20.3330,2.7179,-1.3199,1.2118
20.3410,2.8002,-1.3632,1.2503
20.3490,2.8846,-1.4030,1.2889
20.3570,2.9704,-1.4456,1.3315
20.3650,3.0569,-1.4875,1.3687
20.3730,3.1468,-1.5355,1.4086
20.3810,3.2402,-1.5788,1.4478
20.3890,3.3328,-1.6200,1.4905
20.3970,3.4248,-1.6701,1.5297
20.4050,3.5188,-1.7120,1.5710
20.4130,3.6156,-1.7615,1.6129
20.4210,3.7117,-1.8089,1.6556
20.4290,3.8071,-1.8590,1.6989
20.4370,3.9052,-1.9078,1.7403
20.4450,4.0061,-1.9600,1.7871
20.4530,4.1056,-2.0108,1.8297
20.4610,4.2059,-2.0595,1.8765
20.4690,4.3081,-2.1117,1.9247
20.4770,4.4083,-2.1639,1.9715
20.4850,4.5195,-2.2161,2.0203
20.4930,4.6211,-2.2677,2.0671
20.5010,4.7357,-2.3192,2.1180
20.5090,4.8407,-2.3741,2.1703
20.5170,4.9608,-2.4263,2.2219
20.5250,5.0686,-2.4826,2.2722
20.5330,5.1935,-2.5382,2.3252
20.5410,5.3040,-2.5925,2.3788
20.5490,5.4331,-2.6502,2.4297
20.5570,5.5422,-2.7079,2.4820
20.5640,5.6740,-2.7649,2.5364
20.5720,5.7941,-2.8232,2.5915
20.5800,5.9080,-2.8809,2.6465
20.5880,6.0391,-2.9421,2.7008
20.5960,6.1661,-3.0025,2.7573
20.6040,6.2876,-3.0554,2.8151
20.6120,6.4084,-3.1213,2.8694
20.6200,6.5456,-3.1845,2.9286
20.6280,6.6658,-3.2463,2.9850
20.6360,6.8058,-3.3136,3.0456
20.6440,6.9355,-3.3747,3.1034
20.6520,7.0652,-3.4400,3.1626
20.6600,7.2093,-3.5100,3.2217
20.6680,7.3391,-3.5753,3.2823
20.6760,7.4853,-3.6446,3.3394
20.6840,7.6246,-3.7119,3.4000
20.6920,7.7619,-3.7813,3.4612
20.7000,7.9074,-3.8521,3.5231
20.7080,8.0433,-3.9221,3.5878
20.7160,8.1977,-3.9894,3.6490
20.7240,8.3412,-4.0567,3.7131
20.7320,8.4750,-4.1336,3.7784
20.7400,8.6342,-4.2044,3.8452
20.7480,8.7942,-4.2771,3.9133
20.7560,8.9452,-4.3499,3.9835
20.7640,9.0989,-4.4207,4.0495
20.7720,9.2499,-4.4962,4.1211
20.7800,9.4064,-4.5683,4.1920
20.7880,9.5615,-4.6460,4.2628
20.7960,9.7208,-4.7160,4.3344
20.8040,9.8759,-4.7991,4.4060
20.8120,10.0365,-4.8760,4.4768
20.8200,10.1985,-4.9509,4.5484
20.8280,10.3564,-5.0326,4.6207
20.8360,10.5225,-5.1136,4.6929
20.8440,10.6900,-5.1940,4.7672
20.8520,10.8554,-5.2791,4.8422
20.8600,11.0242,-5.3574,4.9138
20.8680,11.1890,-5.4447,4.9888
20.8760,11.3612,-5.5264,5.0665
20.8840,11.5335,-5.6170,5.1402
20.8920,11.7092,-5.7022,5.2186
20.9000,11.8822,-5.7867,5.2936
20.9080,12.0600,-5.8746,5.3720
20.9160,12.2371,-5.9618,5.4519
20.9240,12.4135,-6.0476,5.5289
20.9320,12.5961,-6.1348,5.6087
20.9400,12.7732,-6.2207,5.6913
20.9480,12.9537,-6.3093,5.7759
20.9560,13.1376,-6.3992,5.8565
20.9640,13.3230,-6.4851,5.9445
20.9720,13.5090,-6.5744,6.0264
20.9800,13.6971,-6.6650,6.1131
20.9880,13.8796,-6.7584,6.1998
20.9960,14.0718,-6.8477,6.2872
21.0040,14.2661,-6.9411,6.3711
21.0120,14.4569,-7.0310,6.4578
21.0200,14.6512,-7.1272,6.5431
21.0280,14.8454,-7.2227,6.6319
21.0360,15.0438,-7.3209,6.7172
21.0440,15.2380,-7.4136,6.8011
21.0520,15.4357,-7.5139,6.8899
21.0600,15.6341,-7.6114,6.9766
21.0680,15.8345,-7.7075,7.0647
21.0760,16.0391,-7.8057,7.1514
21.0840,16.2443,-7.9046,7.2415
21.0920,16.4516,-8.0021,7.3330
21.1000,16.6521,-8.0996,7.4204
21.1080,16.8642,-8.2020,7.5133
21.1160,17.0694,-8.3043,7.6103
21.1240,17.2774,-8.4039,7.7032
21.1320,17.4895,-8.5055,7.8009
21.1400,17.7023,-8.6099,7.9000
21.1480,17.9171,-8.7115,7.9950
21.1560,18.1299,-8.8159,8.0933
21.1640,18.3475,-8.9258,8.1910
21.1720,18.5624,-9.0308,8.2881
21.1800,18.7793,-9.1386,8.3823
21.1880,18.9997,-9.2485,8.4807
21.1960,19.2172,-9.3591,8.5777
21.2040,19.4383,-9.4710,8.6727
21.2120,19.6614,-9.5816,8.7738
21.2200,19.8851,-9.6880,8.8708
21.2280,20.1103,-9.8013,8.9692
21.2360,20.3327,-9.9106,9.0690
21.2440,20.5558,-10.0197,9.1694
21.2520,20.7816,-10.1337,9.2761
21.2600,21.0109,-10.2415,9.3786
21.2680,21.2395,-10.3569,9.4825
21.2760,21.4722,-10.4661,9.5885
21.2840,21.7022,-10.5822,9.6958
21.2920,21.9328,-10.6948,9.7983
21.3000,22.1614,-10.8081,9.9029
21.3080,22.3900,-10.9227,10.0041
21.3160,22.6207,-11.0320,10.1052
21.3240,22.8547,-11.1460,10.2091
21.3320,23.0854,-11.2579,10.3095
21.3400,23.3181,-11.3691,10.4107
21.3480,23.5495,-11.4811,10.5090
21.3560,23.7774,-11.5930,10.6123
21.3640,24.0060,-11.7043,10.7113
21.3720,24.2346,-11.8148,10.8139
21.3800,24.4638,-11.9254,10.9178
21.3880,24.6972,-12.0352,11.0210
21.3960,24.9272,-12.1479,11.1241
21.4040,25.1579,-12.2591,11.2274
21.4120,25.3920,-12.3718,11.3340
21.4200,25.6260,-12.4844,11.4365
21.4280,25.8553,-12.6004,11.5432
21.4360,26.0860,-12.7137,11.6436
21.4440,26.3146,-12.8277,11.7482
21.4520,26.5473,-12.9458,11.8493
21.4600,26.7766,-13.0571,11.9491
21.4680,27.0100,-13.1690,12.0523
21.4760,27.2372,-13.2809,12.1527
21.4840,27.4700,-13.3929,12.2525
21.4920,27.6965,-13.5028,12.3571
21.5000,27.9299,-13.6126,12.4548
21.5080,28.1599,-13.7245,12.5566
21.5160,28.3919,-13.8365,12.6605
21.5240,28.6253,-13.9505,12.7644
21.5320,28.8601,-14.0597,12.8662
21.5400,29.0915,-14.1736,12.9721
21.5480,29.3214,-14.2863,13.0767
21.5560,29.5473,-14.4051,13.1792
21.5640,29.7787,-14.5156,13.2811
21.5720,30.0087,-14.6310,13.3898
21.5800,30.2434,-14.7450,13.4895
21.5880,30.4720,-14.8576,13.5893
21.5960,30.7041,-14.9702,13.6931
21.6040,30.9334,-15.0829,13.7957
21.6120,31.1634,-15.1934,13.8975
21.6190,31.3899,-15.3046,13.9986
21.6270,31.6213,-15.4179,14.1046
21.6350,31.8499,-15.5285,14.2085
21.6430,32.0799,-15.6349,14.3082
21.6510,32.3147,-15.7469,14.4121
21.6590,32.5316,-15.8595,14.5146
21.6670,32.7774,-15.9735,14.6192
21.6750,33.0039,-16.0840,14.7203
21.6830,33.2182,-16.1980,14.8256
21.6910,33.4639,-16.3127,14.9240
21.6990,33.6946,-16.4273,15.0258
21.7070,33.9116,-16.5393,15.1283
21.7150,34.1615,-16.6533,15.2294
21.7230,34.3763,-16.7707,15.3409
21.7310,34.6249,-16.8819,15.4406
21.7390,34.8391,-16.9911,15.5418
21.7470,35.0863,-17.1058,15.6456
21.7550,35.3011,-17.2177,15.7495
21.7630,35.5490,-17.3262,15.8541
21.7710,35.7666,-17.4395,15.9628
21.7790,36.0186,-17.5507,16.0646
21.7870,36.2362,-17.6634,16.1713
21.7950,36.4841,-17.7746,16.2765
21.8030,36.6983,-17.8865,16.3776
21.8110,36.9461,-18.0019,16.4829
21.8190,37.1638,-18.1179,16.5847
21.8270,37.4151,-18.2312,16.6893
21.8350,37.6286,-18.3466,16.7904
21.8430,37.8785,-18.4599,16.8915
21.8510,38.0961,-18.5746,16.9913
21.8590,38.3392,-18.6879,17.0951
21.8670,38.5589,-18.8025,17.2018
21.8750,38.8026,-18.9007,17.3050
21.8830,39.0271,-19.0174,17.4061
21.8910,39.2716,-19.1301,17.5141
21.8990,39.4947,-19.2406,17.6187
21.9070,39.7446,-19.3532,17.7260
21.9150,39.9609,-19.4665,17.8312
21.9230,40.2087,-19.5764,17.9317
21.9310,40.4236,-19.6911,18.0376
21.9390,40.6701,-19.8043,18.1422
21.9470,40.8885,-19.9197,18.2433
21.9550,41.1363,-20.0365,18.3479
21.9630,41.3567,-20.1504,18.4470
21.9710,41.6046,-20.2617,18.5495
21.9790,41.8497,-20.3784,18.6540
21.9870,42.0776,-20.4945,18.7579
21.9950,42.3111,-20.6043,18.8590
22.0030,42.5425,-20.7183,18.9663
22.0110,42.7759,-20.8323,19.0723
22.0190,43.0101,-20.9421,19.1734
22.0270,43.2421,-21.0548,19.2828
22.0350,43.4728,-21.1701,19.3860
22.0430,43.7022,-21.2841,19.4926
22.0510,43.9336,-21.3967,19.5985
22.0590,44.1663,-21.5127,19.7031
22.0670,44.3991,-21.6247,19.8042
22.0750,44.6319,-21.7393,19.9067
22.0830,44.8680,-21.8561,20.0113
22.0910,45.1042,-21.9707,20.1131
22.0990,45.3350,-22.0847,20.2135
22.1070,45.5684,-22.2028,20.3167
22.1150,45.8039,-22.3168,20.4219
22.1230,46.0373,-22.4308,20.5272
22.1310,46.2701,-22.5427,20.6352
22.1390,46.5064,-22.6567,20.7404
22.1470,46.7446,-22.7714,20.8464
22.1550,46.9801,-22.8846,20.9530
22.1630,47.2136,-22.9979,21.0582
22.1710,47.4484,-23.1105,21.1649
22.1790,47.6832,-23.2225,21.2722
22.1870,47.9215,-23.3385,21.3795
22.1950,48.1570,-23.4552,21.4827
22.2030,48.3932,-23.5672,21.5824
22.2110,48.6294,-23.6839,21.6856
22.2190,48.8643,-23.8020,21.7860
22.2270,49.0957,-23.9153,21.8892
22.2350,49.3312,-24.0306,21.9951
22.2430,49.5681,-24.1466,22.0990
22.2510,49.8009,-24.2620,22.2056
22.2590,50.0433,-24.3753,22.3102
22.2670,50.2802,-24.4893,22.4168
22.2750,50.5191,-24.6033,22.5248
22.2830,50.7554,-24.7173,22.6341
22.2910,50.9943,-24.8319,22.7422
22.2990,51.2278,-24.9438,22.8481
22.3070,51.4667,-25.0585,22.9574
22.3150,51.7016,-25.1718,23.0640
22.3230,51.9378,-25.2899,23.1679
22.3310,52.1754,-25.4038,23.2704
22.3390,52.4164,-25.5178,23.3708
22.3470,52.6485,-25.6352,23.4761
22.3550,52.8826,-25.7513,23.5807
22.3630,53.1182,-25.8687,23.6831
22.3710,53.3544,-25.9854,23.7877
22.3790,53.5906,-26.1001,23.8901
22.3870,53.8268,-26.2127,23.9968
22.3950,54.0651,-26.3321,24.1048
22.4030,54.3027,-26.4468,24.2093
22.4110,54.5355,-26.5615,24.3194
22.4190,54.7690,-26.6796,24.4280
22.4270,55.0032,-26.7936,24.5354
22.4350,55.2435,-26.9116,24.6461
22.4430,55.4797,-27.0263,24.7520
22.4510,55.7167,-27.1431,24.8566
22.4590,55.9536,-27.2577,24.9611
22.4670,56.1884,-27.3744,25.0629
22.4750,56.4253,-27.4870,25.1633
22.4830,56.6643,-27.6072,25.2658
22.4910,56.9019,-27.7205,25.3690
22.4990,57.1457,-27.8358,25.4729
22.5070,57.3847,-27.9525,25.5774
22.5150,57.6264,-28.0672,25.6826
22.5230,57.8654,-28.1853,25.7899
22.5310,58.1016,-28.3007,25.9000
22.5390,58.3413,-28.4153,26.0093
22.5470,58.5782,-28.5300,26.1180
22.5550,58.8144,-28.6474,26.2246
22.5630,59.0582,-28.7655,26.3312
22.5710,59.2958,-28.8829,26.4461
22.5790,59.5341,-29.0009,26.5575
22.5870,59.7731,-29.1142,26.6641
22.5950,60.0107,-29.2330,26.7666
22.6030,60.2477,-29.3518,26.8691
22.6110,60.4853,-29.4685,26.9757
22.6190,60.7249,-29.5859,27.0782
22.6270,60.9653,-29.6999,27.1869
22.6350,61.2043,-29.8180,27.2893
22.6430,61.4453,-29.9347,27.3973
22.6510,61.6788,-30.0501,27.5053
22.6590,61.9199,-30.1675,27.6181
22.6670,62.1588,-30.2842,27.7261
22.6740,62.4006,-30.4043,27.8375
22.6820,62.6382,-30.5190,27.9475
22.6900,62.8772,-30.6357,28.0541
22.6980,63.1148,-30.7566,28.1587
22.7060,63.3531,-30.8726,28.2659
22.7140,63.5921,-30.9900,28.3712
22.7220,63.8277,-31.1081,28.4750
22.7300,64.0660,-31.2241,28.5796
22.7380,64.3050,-31.3401,28.6828
22.7460,64.5447,-31.4582,28.7859
22.7540,64.7843,-31.5757,28.8891
22.7620,65.0268,-31.6923,28.9964
22.7700,65.2637,-31.8104,29.1037
22.7780,65.5061,-31.9271,29.2150
22.7860,65.7403,-32.0425,29.3203
22.7940,65.9807,-32.1585,29.4269
22.8020,66.2218,-32.2759,29.5390
22.8100,66.4601,-32.3947,29.6483
22.8180,66.7005,-32.5141,29.7563
22.8260,66.9381,-32.6309,29.8636
22.8340,67.1757,-32.7441,29.9702
22.8420,67.4154,-32.8622,30.0754
22.8500,67.6558,-32.9810,30.1806
22.8580,67.8976,-33.0977,30.2893
22.8660,68.1413,-33.2124,30.3924
22.8740,68.3790,-33.3270,30.4963
22.8820,68.6166,-33.4403,30.6022
22.8900,68.8556,-33.5550,30.7088
22.8980,69.0932,-33.6710,30.8147
22.9060,69.3336,-33.7850,30.9206
22.9140,69.5617,-33.9051,31.0327
22.9220,69.8123,-34.0211,31.1407
22.9300,70.0507,-34.1392,31.2473
22.9380,70.2746,-34.2559,31.3532
22.9460,70.5232,-34.3692,31.4564
22.9540,70.7402,-34.4880,31.5588
22.9620,70.9861,-34.5992,31.6633
22.9700,71.2203,-34.7132,31.7631
22.9780,71.4325,-34.8258,31.8628
22.9860,71.6763,-34.9350,31.9645
22.9940,71.8899,-35.0413,32.0615
23.0020,72.1290,-35.1526,32.1599
23.0100,72.3391,-35.2590,32.2623
23.0180,72.5720,-35.3668,32.3579
23.0260,72.7787,-35.4732,32.4597
23.0340,73.0129,-35.5824,32.5566
23.0420,73.2361,-35.6874,32.6557
23.0500,73.4545,-35.7821,32.7519
23.0580,73.6750,-35.8933,32.8503
23.0660,73.8900,-35.9963,32.9479
23.0740,74.1036,-36.1034,33.0456
23.0820,74.3158,-36.2078,33.1426
23.0900,74.5294,-36.3121,33.2374
23.0980,74.7361,-36.4165,33.3310
23.1060,74.9484,-36.5167,33.4204
23.1140,75.1579,-36.6197,33.5146
23.1220,75.3639,-36.7213,33.6067
23.1300,75.5666,-36.8181,33.6920
23.1380,75.7692,-36.9177,33.7896
23.1460,75.9697,-37.0145,33.8797
23.1540,76.1696,-37.1099,33.9670
23.1620,76.3715,-37.2067,34.0558
23.1700,76.5666,-37.3035,34.1459
23.1780,76.7679,-37.3975,34.2353
23.1860,76.9629,-37.4964,34.3225
23.1940,77.1573,-37.5884,34.4071
23.2020,77.3510,-37.6879,34.4952
23.2100,77.5399,-37.7820,34.5825
23.2180,77.7295,-37.8774,34.6691
23.2260,77.9211,-37.9708,34.7516
23.2340,78.1086,-38.0649,34.8390
23.2420,78.2954,-38.1568,34.9249
23.2500,78.4823,-38.2461,35.0075
23.2580,78.6684,-38.3367,35.0914
23.2660,78.8504,-38.4273,35.1704
23.2740,79.0311,-38.5131,35.2529
23.2820,79.2138,-38.5948,35.3355
23.2900,79.3882,-38.6813,35.4159
23.2980,79.5654,-38.7651,35.4936
23.3060,79.7392,-38.8502,35.5748
23.3140,79.9144,-38.9360,35.6511
23.3220,80.0868,-39.0191,35.7329
23.3300,80.2633,-39.1001,35.8072
23.3380,80.4330,-39.1818,35.8807
23.3460,80.6013,-39.2642,35.9536
23.3540,80.7661,-39.3466,36.0286
23.3620,80.9385,-39.4276,36.1042
23.3700,81.1013,-39.5099,36.1771
23.3780,81.2627,-39.5951,36.2493
23.3860,81.4296,-39.6775,36.3256
23.3940,81.5911,-39.7537,36.3964
23.4020,81.7532,-39.8347,36.4666
23.4100,81.9132,-39.9150,36.5374
23.4180,82.0726,-39.9912,36.6082
23.4260,82.2285,-40.0688,36.6832
23.4340,82.3879,-40.1422,36.7526
23.4420,82.5403,-40.2184,36.8248
23.4500,82.6907,-40.2932,36.8963
23.4580,82.8453,-40.3646,36.9637
23.4660,82.9937,-40.4381,37.0297
23.4740,83.1455,-40.5081,37.0978
23.4820,83.2939,-40.5795,37.1658
23.4900,83.4402,-40.6496,37.2319
23.4980,83.5851,-40.7196,37.3006
23.5060,83.7314,-40.7882,37.3625
23.5140,83.8736,-40.8603,37.4258
23.5220,84.0151,-40.9297,37.4918
23.5300,84.1532,-41.0018,37.5530
23.5380,84.2912,-41.0697,37.6121
23.5460,84.4293,-41.1383,37.6733
23.5540,84.5722,-41.2084,37.7303
23.5620,84.7095,-41.2742,37.7881
23.5700,84.8442,-41.3409,37.8473
23.5780,84.9781,-41.4095,37.9071
23.5860,85.1045,-41.4706,37.9641
23.5940,85.2343,-41.5351,38.0205
23.6020,85.3669,-41.5990,38.0790
23.6100,85.4899,-41.6615,38.1388
23.6180,85.6177,-41.7253,38.1924
23.6260,85.7413,-41.7871,38.2495
23.6340,85.8663,-41.8441,38.3059
23.6420,85.9900,-41.9045,38.3636
23.6500,86.1129,-41.9628,38.4214
23.6580,86.2283,-42.0184,38.4743
23.6660,86.3458,-42.0761,38.5272
23.6740,86.4667,-42.1317,38.5809
23.6820,86.5841,-42.1859,38.6359
23.6900,86.6995,-42.2395,38.6888
23.6980,86.8150,-42.2951,38.7390
23.7060,86.9269,-42.3480,38.7906
23.7140,87.0409,-42.4036,38.8408
23.7220,87.1515,-42.4564,38.8896
23.7290,87.2614,-42.5065,38.9384
23.7370,87.3686,-42.5608,38.9858
23.7450,87.4716,-42.6129,39.0347
23.7530,87.5795,-42.6603,39.0800
23.7610,87.6818,-42.7125,39.1199
23.7690,87.7807,-42.7612,39.1660
23.7770,87.8858,-42.8134,39.2100
23.7850,87.9862,-42.8587,39.2547
23.7930,88.0844,-42.9109,39.3001
23.8010,88.1792,-42.9569,39.3399
23.8090,88.2740,-43.0035,39.3819
23.8170,88.3701,-43.0495,39.4245
23.8250,88.4581,-43.0969,39.4637
23.8330,88.5529,-43.1402,39.5056
23.8410,88.6408,-43.1889,39.5462
23.8490,88.7322,-43.2280,39.5840
23.8570,88.8194,-43.2768,39.6239
23.8650,88.9080,-43.3173,39.6638
23.8730,88.9932,-43.3598,39.6988
23.8810,89.0763,-43.4024,39.7346
23.8890,89.1615,-43.4408,39.7724
23.8970,89.2432,-43.4806,39.8088
23.9050,89.3250,-43.5218,39.8446
23.9130,89.4040,-43.5596,39.8824
23.9210,89.4816,-43.5960,39.9154
23.9290,89.5606,-43.6344,39.9546
23.9370,89.6355,-43.6687,39.9883
23.9450,89.7110,-43.7037,40.0227
23.9530,89.7845,-43.7415,40.0536
23.9610,89.8553,-43.7772,40.0866
23.9690,89.9247,-43.8088,40.1189
23.9770,89.9961,-43.8458,40.1485
23.9850,90.0634,-43.8767,40.1794
23.9930,90.1287,-43.9097,40.2110
24.0010,90.1939,-43.9420,40.2399
24.0090,90.2592,-43.9729,40.2688
24.0170,90.3224,-44.0072,40.2942
24.0250,90.3842,-44.0347,40.3217
24.0330,90.4419,-44.0655,40.3492
24.0410,90.5031,-44.0896,40.3740
24.0490,90.5614,-44.1184,40.4022
24.0570,90.6178,-44.1459,40.4262
24.0650,90.6734,-44.1706,40.4510
24.0730,90.7270,-44.1960,40.4771
24.0810,90.7785,-44.2193,40.4977
24.0890,90.8307,-44.2447,40.5225
24.0970,90.8795,-44.2667,40.5445
24.1050,90.9310,-44.2893,40.5623
24.1130,90.9764,-44.3126,40.5871
24.1210,91.0231,-44.3374,40.6070
24.1290,91.0663,-44.3587,40.6236
24.1370,91.1096,-44.3820,40.6428
24.1450,91.1522,-44.4019,40.6641
24.1530,91.1921,-44.4232,40.6799
24.1610,91.2333,-44.4417,40.6971
24.1690,91.2711,-44.4630,40.7171
24.1770,91.3088,-44.4802,40.7315
24.1850,91.3418,-44.4980,40.7473
24.1930,91.3775,-44.5145,40.7624
24.2010,91.4119,-44.5303,40.7782
24.2090,91.4428,-44.5454,40.7920
24.2170,91.4751,-44.5605,40.8057
24.2250,91.5039,-44.5763,40.8167
24.2330,91.5335,-44.5900,40.8305
24.2410,91.5603,-44.6051,40.8408
24.2490,91.5850,-44.6161,40.8497
24.2570,91.6091,-44.6305,40.8607
24.2650,91.6303,-44.6394,40.8676
24.2730,91.6537,-44.6497,40.8779
24.2810,91.6729,-44.6621,40.8889
24.2890,91.6908,-44.6710,40.8951
24.2970,91.7114,-44.6813,40.9027
24.3050,91.7238,-44.6882,40.9096
24.3130,91.7416,-44.6930,40.9178
24.3210,91.7547,-44.6978,40.9240
24.3290,91.7622,-44.7040,40.9309
24.3370,91.7739,-44.7108,40.9377
24.3450,91.7856,-44.7129,40.9419
24.3530,91.7945,-44.7184,40.9453
24.3610,91.8014,-44.7197,40.9494
24.3690,91.8069,-44.7218,40.9487
24.3770,91.8089,-44.7204,40.9515
24.3850,91.8138,-44.7232,40.9522
24.3930,91.8144,-44.7211,40.9522
24.4010,91.8172,-44.7218,40.9536
24.4090,91.8179,-44.7218,40.9529
24.4170,91.8158,-44.7204,40.9529
24.4250,91.8144,-44.7197,40.9522
24.4330,91.8103,-44.7190,40.9508
24.4410,91.8055,-44.7156,40.9515
24.4490,91.7979,-44.7149,40.9474
24.4570,91.7897,-44.7163,40.9460
24.4650,91.7801,-44.7122,40.9432
24.4730,91.7712,-44.7081,40.9398
24.4810,91.7602,-44.7053,40.9336
24.4890,91.7492,-44.7005,40.9288
24.4970,91.7341,-44.6937,40.9205
24.5050,91.7224,-44.6909,40.9157
24.5130,91.7038,-44.6840,40.9089
24.5210,91.6853,-44.6786,40.8999
24.5290,91.6654,-44.6669,40.8910
24.5370,91.6448,-44.6573,40.8820
24.5450,91.6255,-44.6490,40.8752
24.5530,91.6022,-44.6381,40.8642
24.5610,91.5733,-44.6257,40.8539
24.5690,91.5527,-44.6147,40.8415
24.5770,91.5218,-44.6017,40.8291
24.5850,91.4943,-44.5879,40.8167
24.5930,91.4668,-44.5763,40.8009
24.6010,91.4332,-44.5625,40.7913
24.6090,91.4009,-44.5440,40.7762
24.6170,91.3686,-44.5296,40.7631
24.6250,91.3322,-44.5124,40.7452
24.6330,91.2951,-44.4932,40.7308
24.6410,91.2587,-44.4747,40.7122
24.6490,91.2209,-44.4561,40.6943
24.6570,91.1776,-44.4355,40.6806
24.6650,91.1405,-44.4156,40.6600
24.6730,91.0973,-44.3937,40.6448
24.6810,91.0499,-44.3717,40.6242
24.6890,91.0059,-44.3470,40.6029
24.6970,90.9578,-44.3278,40.5823
24.7050,90.9111,-44.3024,40.5603
24.7130,90.8609,-44.2777,40.5376
24.7210,90.8101,-44.2529,40.5135
24.7290,90.7586,-44.2282,40.4902
24.7370,90.7057,-44.2015,40.4640
24.7450,90.6514,-44.1747,40.4407
24.7530,90.5951,-44.1479,40.4132
24.7610,90.5402,-44.1218,40.3898
24.7690,90.4811,-44.0930,40.3637
24.7770,90.4213,-44.0662,40.3368
24.7840,90.3629,-44.0347,40.3114
24.7920,90.2990,-44.0024,40.2805
24.8000,90.2351,-43.9722,40.2537
24.8080,90.1726,-43.9420,40.2289
24.8160,90.1074,-43.9111,40.1966
24.8240,90.0373,-43.8781,40.1671
24.8320,89.9720,-43.8465,40.1388
24.8400,89.9047,-43.8095,40.1065
24.8480,89.8340,-43.7772,40.0722
24.8560,89.7612,-43.7408,40.0399
24.8640,89.6884,-43.7051,40.0082
24.8720,89.6162,-43.6701,39.9718
24.8800,89.5372,-43.6310,39.9374
24.8880,89.4637,-43.5946,39.9044
24.8960,89.3861,-43.5527,39.8707
24.9040,89.3050,-43.5143,39.8357
24.9120,89.2260,-43.4738,39.8013
24.9200,89.1464,-43.4319,39.7655
24.9280,89.0618,-43.3914,39.7270
24.9360,88.9760,-43.3482,39.6885
24.9440,88.8908,-43.3056,39.6528
24.9520,88.8036,-43.2610,39.6122
24.9600,88.7191,-43.2164,39.5730
24.9680,88.6277,-43.1731,39.5352
24.9760,88.5350,-43.1306,39.4960
24.9840,88.4450,-43.0818,39.4513
24.9920,88.3530,-43.0385,39.4087
25.0000,88.2575,-42.9939,39.3647
25.0080,88.1654,-42.9431,39.3213
25.0160,88.0679,-42.8978,39.2774
25.0240,87.9717,-42.8525,39.2341
25.0320,87.8714,-42.8024,39.1928
25.0400,87.7698,-42.7550,39.1474
25.0480,87.6715,-42.7042,39.1014
25.0560,87.5637,-42.6527,39.0567
25.0640,87.4593,-42.6013,39.0079
25.0720,87.3521,-42.5532,38.9577
25.0800,87.2450,-42.4990,38.9102
25.0880,87.1337,-42.4482,38.8614
25.0960,87.0244,-42.3967,38.8133
25.1040,86.9118,-42.3418,38.7631
25.1120,86.7978,-42.2882,38.7149
25.1200,86.6851,-42.2319,38.6661
25.1280,86.5683,-42.1804,38.6125
25.1360,86.4529,-42.1221,38.5596
25.1440,86.3396,-42.0692,38.5046
25.1520,86.2180,-42.0109,38.4530
25.1600,86.1033,-41.9532,38.3959
25.1680,85.9810,-41.8887,38.3423
25.1760,85.8581,-41.8269,38.2852
25.1840,85.7372,-41.7665,38.2309
25.1920,85.6094,-41.7054,38.1794
25.2000,85.4844,-41.6409,38.1223
25.2080,85.3559,-41.5791,38.0693
25.2160,85.2295,-41.5139,38.0123
25.2240,85.0997,-41.4486,37.9469
25.2320,84.9658,-41.3800,37.8885
