RehabEngGroup/ob-ik-opensim-plugin/test_data/out_data/experimental/trial06.csv
time,shoulder_pan,shoulder_lift,elbow
0.0080,0.0007,0.0049,-0.0007
0.0160,0.0007,0.0042,-0.0014
0.0240,0.0021,0.0049,0.0007
0.0320,0.0007,0.0029,0.0000
0.0400,0.0007,0.0036,-0.0027
0.0480,-0.0007,0.0042,-0.0007
0.0560,0.0000,0.0015,0.0014
0.0640,0.0007,0.0022,0.0000
0.0720,0.0007,0.0015,-0.0014
0.0800,-0.0014,0.0022,-0.0034
0.0880,0.0007,0.0056,-0.0007
0.0950,-0.0014,0.0029,-0.0014
0.1030,0.0021,0.0042,-0.0020
0.1110,0.0007,0.0008,-0.0007
0.1190,0.0007,0.0036,0.0000
0.1270,-0.0007,0.0056,-0.0014
0.1350,-0.0007,0.0029,-0.0027
0.1430,0.0027,0.0022,0.0007
0.1510,0.0007,0.0056,-0.0007
0.1590,0.0007,0.0008,-0.0007
0.1670,0.0021,0.0022,-0.0007
0.1750,0.0007,0.0056,0.0007
0.1830,0.0014,0.0008,-0.0014
0.1910,0.0021,0.0036,-0.0034
0.1990,-0.0007,0.0029,-0.0014
0.2070,0.0014,0.0049,-0.0014
0.2150,0.0007,0.0036,-0.0007
0.2230,-0.0020,0.0056,0.0000
0.2310,0.0021,0.0056,-0.0027
0.2390,0.0007,0.0029,0.0000
0.2470,0.0007,0.0036,-0.0007
0.2550,-0.0007,0.0015,-0.0020
0.2630,-0.0007,0.0042,-0.0014
0.2710,-0.0014,0.0049,-0.0014
0.2790,0.0000,0.0029,-0.0027
0.2860,0.0000,0.0042,0.0000
0.2940,-0.0007,0.0029,-0.0020
0.3020,0.0000,0.0042,-0.0020
0.3100,0.0014,0.0042,0.0000
0.3180,-0.0027,0.0056,0.0000
0.3260,-0.0007,0.0008,0.0000
0.3340,-0.0007,0.0036,-0.0020
0.3420,0.0021,0.0029,0.0014
0.3500,0.0007,0.0015,-0.0020
0.3580,0.0014,0.0042,-0.0007
0.3660,0.0014,0.0029,0.0000
0.3740,0.0007,0.0042,-0.0034
0.3820,0.0007,0.0022,-0.0014
0.3900,0.0000,0.0008,0.0007
0.3980,-0.0020,0.0042,0.0000
0.4060,0.0027,0.0036,-0.0007
0.4140,-0.0007,0.0015,0.0007
0.4220,0.0000,0.0042,0.0007
0.4300,0.0014,0.0042,-0.0020
0.4380,0.0007,0.0022,-0.0007
0.4460,-0.0007,0.0015,-0.0007
0.4540,0.0021,0.0036,-0.0014
0.4620,0.0000,0.0022,0.0000
0.4700,-0.0007,0.0029,0.0000
0.4770,-0.0014,0.0042,-0.0020
0.4850,-0.0014,0.0042,-0.0020
0.4930,0.0027,0.0029,-0.0020
0.5010,-0.0014,0.0042,-0.0020
0.5090,0.0021,0.0036,-0.0027
0.5170,-0.0014,0.0022,-0.0020
0.5250,0.0000,0.0036,-0.0034
0.5330,0.0000,0.0022,-0.0007
0.5410,-0.0014,0.0036,-0.0007
0.5490,-0.0007,0.0036,-0.0014
0.5570,0.0007,0.0008,-0.0014
0.5650,0.0021,0.0042,-0.0020
0.5730,-0.0020,0.0029,0.0007
0.5810,0.0000,0.0008,0.0007
0.5890,-0.0007,0.0049,0.0000
0.5970,-0.0020,0.0022,-0.0014
0.6050,-0.0007,0.0029,0.0000
0.6130,-0.0014,0.0056,-0.0007
0.6210,0.0021,0.0049,0.0000
0.6290,-0.0014,0.0049,0.0000
0.6370,0.0007,0.0036,-0.0007
0.6450,-0.0020,0.0008,-0.0007
0.6530,-0.0014,0.0036,-0.0007
0.6610,0.0007,0.0029,-0.0020
0.6680,-0.0007,0.0036,-0.0014
0.6760,0.0007,0.0042,0.0007
0.6840,0.0021,0.0029,-0.0007
0.6920,0.0007,0.0049,0.0007
0.7000,0.0014,0.0022,-0.0014
0.7080,-0.0014,0.0049,0.0007
0.7160,0.0027,0.0036,-0.0014
0.7240,-0.0020,0.0049,-0.0014
0.7320,-0.0014,0.0036,0.0007
0.7400,0.0000,0.0042,-0.0007
0.7480,-0.0007,0.0042,-0.0020
0.7560,-0.0014,0.0056,-0.0007
0.7640,-0.0014,0.0042,0.0000
0.7720,0.0007,0.0029,0.0007
0.7800,0.0007,0.0049,-0.0007
0.7880,0.0000,0.0063,0.0007
0.7960,-0.0014,0.0042,-0.0027
0.8040,0.0000,0.0029,0.0014
0.8120,-0.0007,0.0022,-0.0007
0.8200,0.0014,0.0036,-0.0007
0.8280,0.0000,0.0036,0.0007
0.8360,-0.0007,0.0029,0.0000
0.8440,0.0007,0.0042,-0.0020
0.8520,-0.0027,0.0036,-0.0014
0.8590,-0.0007,0.0008,-0.0020
0.8670,0.0014,0.0056,-0.0027
0.8750,-0.0014,0.0036,-0.0007
0.8830,0.0007,0.0036,0.0000
0.8910,-0.0020,0.0042,-0.0007
0.8990,-0.0007,0.0049,0.0000
0.9070,-0.0014,0.0036,-0.0007
0.9150,0.0014,0.0049,-0.0007
0.9230,-0.0014,0.0049,-0.0014
0.9310,0.0000,0.0015,-0.0014
0.9390,-0.0014,0.0042,-0.0007
0.9470,-0.0007,0.0049,-0.0007
0.9550,0.0014,0.0042,-0.0007
0.9630,-0.0027,0.0036,-0.0007
0.9710,0.0000,0.0049,-0.0007
0.9790,-0.0020,0.0029,-0.0014
0.9870,0.0014,0.0015,-0.0007
0.9950,-0.0014,0.0015,-0.0014
1.0030,-0.0027,0.0022,0.0000
1.0110,0.0000,0.0022,-0.0020
1.0190,0.0000,0.0036,-0.0014
1.0270,0.0000,0.0042,-0.0014
1.0350,0.0000,0.0049,0.0007
1.0420,-0.0007,0.0029,0.0007
1.0500,0.0007,0.0029,0.0000
1.0580,-0.0020,0.0022,-0.0020
1.0660,0.0007,0.0022,-0.0007
1.0740,0.0007,0.0015,0.0000
1.0820,-0.0007,0.0042,-0.0014
1.0900,-0.0014,0.0036,0.0000
1.0980,0.0027,0.0029,-0.0007
1.1060,-0.0014,0.0022,-0.0007
1.1140,0.0027,0.0015,0.0007
1.1220,0.0014,0.0022,-0.0014
1.1300,-0.0020,0.0056,0.0000
1.1380,0.0014,0.0029,-0.0020
1.1460,-0.0027,0.0056,0.0000
1.1540,-0.0027,0.0036,-0.0014
1.1620,0.0021,0.0042,-0.0014
1.1700,0.0014,0.0042,-0.0020
1.1780,-0.0007,0.0036,-0.0027
1.1860,0.0014,0.0029,0.0000
1.1940,0.0000,0.0029,-0.0014
1.2020,-0.0034,0.0022,-0.0007
1.2100,0.0007,0.0022,0.0007
1.2180,0.0007,0.0056,0.0000
1.2260,-0.0014,0.0022,-0.0007
1.2330,0.0014,0.0042,0.0000
1.2410,-0.0007,0.0022,-0.0027
1.2490,-0.0007,0.0042,-0.0020
1.2570,-0.0014,0.0015,-0.0034
1.2650,0.0014,0.0049,0.0000
1.2730,-0.0027,0.0022,0.0007
1.2810,-0.0007,0.0049,0.0014
1.2890,0.0000,0.0042,0.0014
1.2970,0.0021,0.0049,0.0000
1.3050,0.0021,0.0029,-0.0007
1.3130,-0.0014,0.0049,0.0014
1.3210,-0.0020,0.0042,0.0007
1.3290,-0.0014,0.0015,0.0000
1.3370,0.0007,0.0056,-0.0020
1.3450,-0.0014,0.0070,-0.0020
1.3530,-0.0007,0.0029,-0.0014
1.3610,-0.0007,0.0042,0.0000
1.3690,-0.0020,0.0049,0.0000
1.3770,0.0007,0.0042,-0.0027
1.3850,0.0007,0.0056,-0.0020
1.3930,-0.0007,0.0029,0.0000
1.4010,0.0014,0.0036,0.0000
1.4090,0.0000,0.0015,-0.0027
1.4170,-0.0007,0.0015,-0.0014
1.4240,-0.0007,0.0022,-0.0027
1.4320,0.0034,0.0029,0.0020
1.4400,-0.0014,0.0029,-0.0007
1.4480,0.0021,0.0029,0.0000
1.4560,-0.0007,0.0008,0.0007
1.4640,0.0027,0.0049,-0.0027
1.4720,-0.0020,0.0015,0.0007
1.4800,-0.0027,0.0029,-0.0027
1.4880,0.0021,0.0029,-0.0007
1.4960,-0.0007,0.0049,-0.0014
1.5040,-0.0014,0.0036,-0.0027
1.5120,-0.0020,0.0056,-0.0014
1.5200,0.0007,0.0063,0.0000
1.5280,0.0014,0.0029,-0.0020
1.5360,-0.0007,0.0022,-0.0020
1.5440,-0.0007,0.0042,-0.0007
1.5520,-0.0014,0.0042,0.0014
1.5600,0.0007,0.0056,-0.0014
1.5680,-0.0014,0.0049,0.0000
1.5760,0.0000,0.0029,0.0000
1.5840,0.0021,0.0042,-0.0020
1.5920,-0.0020,0.0029,0.0000
1.6000,0.0000,0.0015,-0.0007
1.6080,0.0007,0.0042,-0.0034
1.6150,-0.0014,0.0042,-0.0027
1.6230,0.0007,0.0042,-0.0007
1.6310,-0.0014,0.0015,-0.0014
1.6390,-0.0007,0.0042,-0.0027
1.6470,-0.0020,0.0042,0.0020
1.6550,0.0027,0.0022,0.0007
1.6630,0.0000,0.0042,-0.0014
1.6710,0.0007,0.0036,0.0007
1.6790,-0.0014,0.0042,0.0007
1.6870,-0.0014,0.0015,-0.0014
1.6950,-0.0020,0.0036,-0.0007
1.7030,-0.0014,0.0036,-0.0014
1.7110,0.0007,0.0042,-0.0007
1.7190,-0.0014,0.0056,-0.0007
1.7270,0.0007,0.0015,0.0000
1.7350,-0.0007,0.0056,-0.0007
1.7430,-0.0027,0.0029,0.0020
1.7510,0.0014,0.0036,-0.0020
1.7590,0.0021,0.0049,0.0000
1.7670,0.0000,0.0036,0.0014
1.7750,-0.0020,0.0036,-0.0020
1.7830,0.0000,0.0015,0.0000
1.7910,-0.0007,0.0042,-0.0034
1.7990,0.0007,0.0015,-0.0007
1.8060,0.0007,0.0042,0.0000
1.8140,0.0007,0.0022,0.0000
1.8220,0.0021,0.0029,-0.0014
1.8300,-0.0014,0.0008,0.0000
1.8380,0.0007,0.0029,0.0000
1.8460,0.0014,0.0015,-0.0007
1.8540,0.0014,0.0049,0.0000
1.8620,0.0000,0.0049,-0.0020
1.8700,0.0000,0.0042,-0.0007
1.8780,0.0014,0.0001,0.0000
1.8860,-0.0014,0.0015,0.0000
1.8940,-0.0007,0.0029,-0.0020
1.9020,0.0007,0.0015,-0.0014
1.9100,-0.0014,0.0036,-0.0007
1.9180,-0.0027,0.0036,-0.0027
1.9260,0.0014,0.0022,-0.0007
1.9340,0.0007,0.0036,0.0000
1.9420,-0.0027,0.0015,0.0000
1.9500,0.0014,0.0022,0.0000
1.9580,0.0014,0.0036,-0.0027
1.9660,0.0027,0.0022,-0.0007
1.9740,0.0007,0.0022,-0.0014
1.9820,-0.0007,0.0022,0.0014
1.9890,-0.0014,0.0036,0.0014
1.9970,0.0007,0.0042,-0.0027
2.0050,0.0014,0.0029,-0.0020
2.0130,0.0014,0.0036,0.0000
2.0210,0.0021,0.0056,-0.0020
2.0290,0.0014,0.0029,-0.0027
2.0370,0.0007,0.0029,0.0000
2.0450,0.0000,0.0008,0.0014
2.0530,0.0021,0.0042,-0.0007
2.0610,0.0007,0.0042,-0.0007
2.0690,-0.0020,0.0049,-0.0020
2.0770,0.0027,0.0022,-0.0020
2.0850,-0.0007,0.0029,-0.0034
2.0930,-0.0007,0.0056,0.0000
2.1010,-0.0014,0.0008,0.0000
2.1090,-0.0014,0.0036,-0.0007
2.1170,0.0027,0.0029,-0.0007
2.1250,0.0021,0.0022,0.0007
2.1330,-0.0007,0.0042,0.0007
2.1410,0.0000,0.0022,-0.0020
2.1490,0.0007,0.0049,-0.0020
2.1570,-0.0007,0.0029,-0.0007
2.1650,-0.0007,0.0022,-0.0014
2.1730,0.0000,0.0036,-0.0014
2.1800,0.0007,0.0036,-0.0014
2.1880,-0.0007,0.0036,-0.0014
2.1960,-0.0014,0.0036,-0.0014
2.2040,0.0000,0.0036,-0.0020
2.2120,0.0021,0.0042,-0.0020
2.2200,-0.0014,0.0042,-0.0007
2.2280,0.0014,0.0042,0.0000
2.2360,0.0000,0.0042,-0.0007
2.2440,0.0007,0.0022,-0.0007
2.2520,-0.0027,0.0049,-0.0007
2.2600,-0.0007,0.0015,-0.0034
2.2680,-0.0007,0.0036,-0.0007
2.2760,0.0007,0.0029,-0.0020
2.2840,0.0000,0.0015,0.0020
2.2920,0.0000,0.0042,0.0000
2.3000,-0.0007,0.0022,-0.0014
2.3080,-0.0014,0.0036,-0.0014
2.3160,-0.0007,0.0022,0.0000
2.3240,0.0000,0.0056,0.0000
2.3320,-0.0007,0.0056,0.0014
2.3400,-0.0014,0.0042,-0.0007
2.3480,0.0007,0.0029,0.0014
2.3560,0.0000,0.0036,-0.0014
2.3640,0.0014,0.0008,-0.0027
2.3710,0.0007,0.0015,-0.0014
2.3790,-0.0020,0.0042,-0.0020
2.3870,0.0007,0.0029,-0.0014
2.3950,0.0000,0.0042,0.0000
2.4030,-0.0014,0.0022,-0.0007
2.4110,0.0014,0.0036,0.0000
2.4190,0.0000,0.0036,-0.0014
2.4270,0.0000,0.0042,-0.0014
2.4350,-0.0020,0.0008,-0.0027
2.4430,-0.0007,0.0063,0.0007
2.4510,0.0027,0.0036,-0.0020
2.4590,-0.0014,0.0042,-0.0020
2.4670,0.0007,0.0036,-0.0014
2.4750,-0.0007,0.0049,-0.0007
2.4830,0.0014,0.0022,0.0007
2.4910,0.0007,0.0049,-0.0014
2.4990,0.0000,0.0015,-0.0014
2.5070,0.0076,0.0008,0.0020
2.5150,0.0069,0.0001,0.0020
2.5230,0.0123,-0.0026,0.0041
2.5310,0.0185,-0.0074,0.0096
2.5390,0.0323,-0.0095,0.0117
2.5470,0.0419,-0.0191,0.0199
2.5550,0.0590,-0.0239,0.0275
2.5620,0.0782,-0.0356,0.0323
2.5700,0.1036,-0.0472,0.0468
2.5780,0.1324,-0.0630,0.0592
2.5860,0.1688,-0.0809,0.0750
2.5940,0.2107,-0.0994,0.0901
2.6020,0.2615,-0.1256,0.1114
2.6100,0.3136,-0.1530,0.1383
2.6180,0.3775,-0.1805,0.1617
2.6260,0.4433,-0.2121,0.1892
2.6340,0.5147,-0.2492,0.2202
2.6420,0.5937,-0.2876,0.2518
2.6500,0.6774,-0.3275,0.2924
2.6580,0.7639,-0.3707,0.3289
2.6660,0.8627,-0.4195,0.3730
2.6740,0.9574,-0.4634,0.4163
2.6820,1.0597,-0.5163,0.4624
2.6900,1.1674,-0.5665,0.5106
2.6980,1.2786,-0.6207,0.5594
2.7060,1.3960,-0.6764,0.6131
2.7140,1.5154,-0.7368,0.6709
2.7220,1.6431,-0.7986,0.7315
2.7300,1.7755,-0.8583,0.7913
2.7380,1.9169,-0.9250,0.8526
2.7460,2.0576,-0.9957,0.9166
2.7530,2.2086,-1.0658,0.9840
2.7610,2.3617,-1.1399,1.0528
2.7690,2.5229,-1.2162,1.1230
2.7770,2.6849,-1.2993,1.2001
2.7850,2.8490,-1.3796,1.2758
2.7930,3.0260,-1.4682,1.3549
2.8010,3.2058,-1.5534,1.4347
2.8090,3.3911,-1.6468,1.5152
2.8170,3.5779,-1.7375,1.5985
2.8250,3.7707,-1.8364,1.6845
2.8330,3.9677,-1.9352,1.7719
2.8410,4.1709,-2.0341,1.8634
2.8490,4.3740,-2.1385,1.9563
2.8570,4.5861,-2.2443,2.0485
2.8650,4.8092,-2.3521,2.1476
2.8730,5.0357,-2.4593,2.2481
2.8810,5.2690,-2.5726,2.3499
2.8890,5.5058,-2.6866,2.4552
2.8970,5.7488,-2.8006,2.5660
2.9050,5.9952,-2.9208,2.6781
2.9130,6.2429,-3.0423,2.7917
2.9210,6.5031,-3.1639,2.9038
2.9290,6.7632,-3.2923,3.0256
2.9360,7.0295,-3.4187,3.1461
2.9440,7.3034,-3.5519,3.2679
2.9520,7.5814,-3.6858,3.3924
2.9600,7.8607,-3.8225,3.5142
2.9680,8.1476,-3.9647,3.6394
2.9760,8.4359,-4.1061,3.7695
2.9840,8.7379,-4.2497,3.8968
2.9920,9.0420,-4.3973,4.0303
3.0000,9.3460,-4.5443,4.1651
3.0080,9.6604,-4.6947,4.3035
3.0160,9.9741,-4.8499,4.4466
3.0240,10.2967,-5.0106,4.5959
3.0320,10.6261,-5.1706,4.7438
3.0400,10.9618,-5.3354,4.8993
3.0480,11.3001,-5.4817,5.0521
3.0560,11.6427,-5.6575,5.2048
3.0640,11.9948,-5.8306,5.3576
3.0720,12.3510,-6.0044,5.5131
3.0800,12.7134,-6.1808,5.6700
3.0880,13.0724,-6.3491,5.8310
3.0960,13.4410,-6.5393,5.9968
3.1040,13.8165,-6.7234,6.1661
3.1120,14.1974,-6.9095,6.3401
3.1200,14.5853,-7.0963,6.5135
3.1270,14.9779,-7.2852,6.6925
3.1350,15.3726,-7.4768,6.8699
3.1430,15.7714,-7.6690,7.0461
3.1510,16.1812,-7.8620,7.2229
3.1590,16.5868,-8.0577,7.4053
3.1670,17.0056,-8.2562,7.5869
3.1750,17.4270,-8.4602,7.7755
3.1830,17.8506,-8.6669,7.9695
3.1910,18.2851,-8.8777,8.1683
3.1990,18.7162,-9.0927,8.3644
3.2070,19.1561,-9.3083,8.5646
3.2150,19.5962,-9.5280,8.7587
3.2230,20.0437,-9.7450,8.9424
3.2310,20.4892,-9.9662,9.1564
3.2390,20.9430,-10.1756,9.3559
3.2470,21.4008,-10.4194,9.5651
3.2550,21.8608,-10.6343,9.7722
3.2630,22.3207,-10.8754,9.9786
3.2710,22.7841,-11.1034,10.1823
3.2790,23.2508,-11.3169,10.3845
3.2870,23.7142,-11.5532,10.5861
3.2950,24.1721,-11.7722,10.7884
3.3030,24.6334,-11.9844,10.9879
3.3110,25.0988,-12.2213,11.1964
3.3180,25.5622,-12.4493,11.4055
3.3260,26.0235,-12.6787,11.6161
3.3340,26.4828,-12.9019,11.8239
3.3420,26.9379,-13.1285,12.0282
3.3500,27.4006,-13.3524,12.2319
3.3580,27.8606,-13.5584,12.4348
3.3660,28.3274,-13.7966,12.6330
3.3740,28.7935,-14.0226,12.8380
3.3820,29.2576,-14.2341,13.0451
3.3900,29.7217,-14.4751,13.2529
3.3980,30.1885,-14.7052,13.4593
3.4060,30.6554,-14.9352,13.6698
3.4140,31.1160,-15.1604,13.8748
3.4220,31.5767,-15.3836,14.0771
3.4300,32.0421,-15.6068,14.2773
3.4380,32.5042,-15.8313,14.4809
3.4460,32.9621,-16.0586,14.6866
3.4540,33.4200,-16.2873,14.8937
3.4620,33.8841,-16.5125,15.0994
3.4700,34.3475,-16.7398,15.3037
3.4780,34.8061,-16.9623,15.5115
3.4860,35.2654,-17.1847,15.7144
3.4940,35.7378,-17.4106,15.9188
3.5020,36.2005,-17.6359,16.1231
3.5090,36.6653,-17.8639,16.3288
3.5170,37.1301,-18.0891,16.5386
3.5250,37.5997,-18.3164,16.7477
3.5330,38.0632,-18.5409,16.9548
3.5410,38.5314,-18.7654,17.1626
3.5490,38.9942,-18.9907,17.3662
3.5570,39.4624,-19.2180,17.5726
3.5650,39.9314,-19.4446,17.7831
3.5730,40.3948,-19.6684,17.9902
3.5810,40.8637,-19.8971,18.1986
3.5890,41.3265,-20.1216,18.4050
3.5970,41.7934,-20.3489,18.6148
3.6050,42.2555,-20.5748,18.8205
3.6130,42.7196,-20.7986,19.0276
3.6210,43.1831,-21.0294,19.2353
3.6290,43.6438,-21.2594,19.4437
3.6370,44.1059,-21.4908,19.6556
3.6450,44.5714,-21.7167,19.8592
3.6530,45.0383,-21.9453,20.0725
3.6610,45.5025,-22.1726,20.2816
3.6690,45.9715,-22.3992,20.4900
3.6770,46.4363,-22.6299,20.7026
3.6850,46.9094,-22.8565,20.9117
3.6920,47.3756,-23.0879,21.1229
3.7000,47.8467,-23.3193,21.3361
3.7080,48.3253,-23.5452,21.5432
3.7160,48.7942,-23.7725,21.7509
3.7240,49.2639,-24.0025,21.9600
3.7320,49.7356,-24.2311,22.1705
3.7400,50.2094,-24.4584,22.3790
3.7480,50.6860,-24.6857,22.5943
3.7560,51.1605,-24.9177,22.8068
3.7640,51.6336,-25.1464,23.0187
3.7720,52.1101,-25.3778,23.2291
3.7800,52.5826,-25.6044,23.4389
3.7880,53.0530,-25.8330,23.6481
3.7960,53.5275,-26.0630,23.8558
3.8040,53.9999,-26.2903,24.0642
3.8120,54.4724,-26.5244,24.2795
3.8200,54.9420,-26.7585,24.4927
3.8280,55.4138,-26.9927,24.7197
3.8360,55.8897,-27.2261,24.9350
3.8440,56.3628,-27.4548,25.1427
3.8520,56.8374,-27.6868,25.3532
3.8600,57.3194,-27.9127,25.5574
3.8680,57.7953,-28.1468,25.7679
3.8760,58.2699,-28.3783,25.9825
3.8830,58.7506,-28.6158,26.1999
3.8910,59.2306,-28.8506,26.4158
3.8990,59.7065,-29.0861,26.6297
3.9070,60.1817,-29.3147,26.8409
3.9150,60.6569,-29.5461,27.0513
3.9230,61.1397,-29.7802,27.2632
3.9310,61.6163,-30.0130,27.4771
3.9390,62.0957,-30.2519,27.6951
3.9470,62.5723,-30.4854,27.9104
3.9550,63.0475,-30.7222,28.1264
3.9630,63.5221,-30.9584,28.3402
3.9710,64.0001,-31.1919,28.5500
3.9790,64.4794,-31.4232,28.7591
3.9870,64.9595,-31.6566,28.9627
3.9950,65.4382,-31.8928,29.1752
4.0030,65.9182,-32.1283,29.3884
4.0110,66.3996,-32.3659,29.6064
4.0190,66.8783,-32.6034,29.8230
4.0270,67.3591,-32.8369,30.0376
4.0350,67.8398,-33.0696,30.2508
4.0430,68.3206,-33.2996,30.4626
4.0510,68.7959,-33.5255,30.6744
4.0590,69.2766,-33.7575,30.8876
4.0670,69.7533,-33.9909,31.1001
4.0740,70.2327,-34.2257,31.3174
4.0820,70.7017,-34.4557,31.5306
4.0900,71.1660,-34.6816,31.7348
4.0980,71.6269,-34.9054,31.9343
4.1060,72.0830,-35.1265,32.1310
4.1140,72.5308,-35.3427,32.3249
4.1220,72.9744,-35.5618,32.5174
4.1300,73.4188,-35.7746,32.7148
4.1380,73.8556,-35.9888,32.9074
4.1460,74.2835,-36.1996,33.0978
4.1540,74.7011,-36.4055,33.2801
4.1620,75.1201,-36.5847,33.4754
4.1700,75.5295,-36.7962,33.6617
4.1780,75.9354,-36.9918,33.8426
4.1860,76.3351,-37.1847,34.0200
4.1940,76.7308,-37.3769,34.1961
4.2020,77.1223,-37.5699,34.3755
4.2100,77.5076,-37.7586,34.5481
4.2180,77.8881,-37.9454,34.7152
4.2260,78.2645,-38.1314,34.9002
4.2340,78.6396,-38.3106,35.0687
4.2420,79.0043,-38.4926,35.2302
4.2500,79.3683,-38.6662,35.3891
4.2580,79.7179,-38.8392,35.5452
4.2650,80.0655,-39.0033,35.6985
4.2730,80.4110,-39.1722,35.8491
4.2810,80.7489,-39.3342,36.0011
4.2890,81.0848,-39.4969,36.1537
4.2970,81.4118,-39.6617,36.3022
4.3050,81.7353,-39.8168,36.4480
4.3130,82.0554,-39.9727,36.5952
4.3210,82.3721,-40.1223,36.7361
4.3290,82.6770,-40.2754,36.8764
4.3370,82.9827,-40.4203,37.0118
4.3450,83.2815,-40.5644,37.1432
4.3530,83.5769,-40.7072,37.2759
4.3610,83.8667,-40.8459,37.4044
4.3690,84.1518,-40.9825,37.5303
4.3770,84.4266,-41.1198,37.6548
4.3850,84.6965,-41.2509,37.7750
4.3930,84.9610,-41.3814,37.8933
4.4010,85.2206,-41.5139,38.0116
4.4090,85.4404,-41.6402,38.1243
4.4170,85.7083,-41.7638,38.2385
4.4250,85.9536,-41.8832,38.3444
4.4330,86.1967,-42.0047,38.4557
4.4410,86.4330,-42.1180,38.5616
4.4490,86.6673,-42.2306,38.6668
4.4560,86.8919,-42.3397,38.7686
4.4640,87.1158,-42.4448,38.8683
4.4720,87.3301,-42.5497,38.9652
4.4800,87.5465,-42.6479,39.0629
4.4880,87.7533,-42.7475,39.1543
4.4960,87.9401,-42.8429,39.2464
4.5040,88.1503,-42.9376,39.3358
4.5120,88.3413,-43.0276,39.4183
4.5200,88.5268,-43.1203,39.4994
4.5280,88.7074,-43.2095,39.5785
4.5360,88.8826,-43.2981,39.6555
4.5440,89.0529,-43.3832,39.7339
4.5520,89.2219,-43.4676,39.8020
4.5600,89.3813,-43.5472,39.8714
4.5680,89.5365,-43.6241,39.9395
4.5760,89.6911,-43.6983,40.0061
4.5840,89.8278,-43.7703,40.0694
4.5920,89.9796,-43.8383,40.1340
4.6000,90.1170,-43.9063,40.1966
4.6080,90.2489,-43.9722,40.2578
4.6160,90.3732,-44.0298,40.3176
4.6240,90.4962,-44.0827,40.3698
4.6320,90.6102,-44.1404,40.4255
4.6390,90.7208,-44.1912,40.4757
4.6470,90.8287,-44.2385,40.5252
4.6550,90.9290,-44.2873,40.5685
4.6630,91.0210,-44.3312,40.6112
4.6710,91.1110,-44.3737,40.6497
4.6790,91.1941,-44.4177,40.6868
4.6870,91.2718,-44.4561,40.7219
4.6950,91.3446,-44.4939,40.7555
4.7030,91.4167,-44.5268,40.7851
4.7110,91.4785,-44.5605,40.8112
4.7190,91.5362,-44.5893,40.8346
4.7270,91.5919,-44.6168,40.8559
4.7350,91.6393,-44.6415,40.8752
4.7430,91.6805,-44.6628,40.8917
4.7510,91.7210,-44.6827,40.9082
4.7590,91.7526,-44.7005,40.9205
4.7670,91.7801,-44.7108,40.9322
4.7750,91.8000,-44.7239,40.9419
4.7830,91.8151,-44.7314,40.9508
4.7910,91.8268,-44.7342,40.9549
4.7990,91.8357,-44.7376,40.9618
4.8070,91.8350,-44.7355,40.9611
4.8150,91.8309,-44.7342,40.9604
4.8230,91.8220,-44.7293,40.9570
4.8300,91.8110,-44.7218,40.9549
4.8380,91.7911,-44.7163,40.9474
4.8460,91.7698,-44.7026,40.9398
4.8540,91.7396,-44.6868,40.9267
4.8620,91.7038,-44.6717,40.9130
4.8700,91.6667,-44.6559,40.8979
4.8780,91.6242,-44.6360,40.8745
4.8860,91.5733,-44.6140,40.8525
4.8940,91.5191,-44.5893,40.8270
4.9020,91.4620,-44.5625,40.8002
4.9100,91.3954,-44.5323,40.7720
4.9180,91.3260,-44.5007,40.7397
4.9260,91.2518,-44.4637,40.7061
4.9340,91.1673,-44.4273,40.6724
4.9420,91.0849,-44.3841,40.6318
4.9500,90.9928,-44.3408,40.5905
4.9580,90.8967,-44.2914,40.5500
4.9660,90.7909,-44.2426,40.5053
4.9740,90.6879,-44.1925,40.4578
4.9820,90.5759,-44.1342,40.4049
4.9900,90.4557,-44.0813,40.3554
4.9980,90.3368,-44.0202,40.3004
5.0060,90.2090,-43.9598,40.2447
5.0140,90.0779,-43.8967,40.1877
5.0210,89.9453,-43.8328,40.1224
5.0290,89.8017,-43.7621,40.0584
5.0370,89.6568,-43.6900,39.9917
5.0450,89.5063,-43.6166,39.9202
5.0530,89.3511,-43.5438,39.8501
5.0610,89.1876,-43.4614,39.7731
5.0690,89.0248,-43.3811,39.6988
5.0770,88.8544,-43.2939,39.6218
5.0850,88.6751,-43.2061,39.5428
5.0930,88.4952,-43.1154,39.4651
5.1010,88.3090,-43.0228,39.3798
5.1090,88.1201,-42.9246,39.2959
5.1170,87.9216,-42.8285,39.2100
5.1250,87.7217,-42.7262,39.1213
5.1330,87.5101,-42.6267,39.0333
5.1410,87.2965,-42.5203,38.9363
5.1490,87.0753,-42.4159,38.8401
5.1570,86.8555,-42.3102,38.7404
5.1650,86.6267,-42.1997,38.6414
5.1730,86.3952,-42.0905,38.5362
5.1810,86.1583,-41.9724,38.4248
5.1890,85.9171,-41.8550,38.3114
5.1970,85.6671,-41.7356,38.1986
5.2050,85.4171,-41.6113,38.0838
5.2120,85.1602,-41.4885,37.9655
5.2200,84.8957,-41.3553,37.8452
5.2280,84.6264,-41.2200,37.7269
5.2360,84.3510,-41.0807,37.6045
5.2440,84.0749,-40.9434,37.4842
5.2520,83.7823,-40.8033,37.3646
5.2600,83.4917,-40.6592,37.2353
5.2680,83.1956,-40.5130,37.1067
5.2760,82.8934,-40.3694,36.9747
5.2840,82.5864,-40.2205,36.8441
5.2920,82.2738,-40.0894,36.7031
5.3000,81.9558,-39.9239,36.5587
5.3080,81.6343,-39.7708,36.4109
5.3160,81.3060,-39.6081,36.2589
5.3240,80.9784,-39.4502,36.1063
5.3320,80.6404,-39.2882,35.9557
5.3400,80.2990,-39.1214,35.8044
5.3480,79.9515,-38.9532,35.6511
5.3560,79.5991,-38.7850,35.4970
5.3640,79.2488,-38.6106,35.3437
5.3720,78.8848,-38.4349,35.1862
5.3800,78.5207,-38.2516,35.0219
5.3880,78.1443,-38.0690,34.8569
5.3960,77.7624,-37.8843,34.6877
5.4030,77.3812,-37.6873,34.5151
5.4110,76.9931,-37.4991,34.3391
5.4190,76.5961,-37.3042,34.1665
5.4270,76.1964,-37.1113,33.9897
5.4350,75.7946,-36.9183,33.8165
5.4430,75.3879,-36.7213,33.6390
5.4510,74.9752,-36.5195,33.4589
5.4590,74.5555,-36.3163,33.2732
5.4670,74.1304,-36.1110,33.0841
5.4750,73.7038,-35.9009,32.8895
5.4830,73.2677,-35.6860,32.6921
5.4910,72.8220,-35.4739,32.5016
5.4990,72.3838,-35.2610,32.3056
5.5070,71.9387,-35.0427,32.1110
5.5150,71.4875,-34.8285,31.9109
5.5230,71.0294,-34.6033,31.7087
5.5310,70.5671,-34.3795,31.5031
5.5390,70.0981,-34.1475,31.2940
5.5470,69.6235,-33.9134,31.0781
5.5550,69.1399,-33.6799,30.8622
5.5630,68.6633,-33.4472,30.6455
5.5710,68.1791,-33.2158,30.4330
5.5790,67.6929,-32.9858,30.2274
5.5860,67.2100,-32.7503,30.0114
5.5940,66.7259,-32.5080,29.7969
5.6020,66.2437,-32.2732,29.5802
5.6100,65.7582,-32.0322,29.3657
5.6180,65.2740,-31.7967,29.1484
5.6260,64.7940,-31.5633,28.9372
5.6340,64.3119,-31.3339,28.7254
5.6420,63.8346,-31.0998,28.5149
5.6500,63.3586,-30.8698,28.2983
5.6580,62.8854,-30.6357,28.0830
5.6660,62.4109,-30.3975,27.8643
5.6740,61.9309,-30.1606,27.6387
5.6820,61.4474,-29.9251,27.4207
5.6900,60.9694,-29.6924,27.2034
5.6980,60.4880,-29.4582,26.9895
5.7060,60.0052,-29.2289,26.7824
5.7140,59.5238,-28.9968,26.5713
5.7220,59.0404,-28.7600,26.3567
5.7300,58.5569,-28.5245,26.1407
5.7380,58.0755,-28.2890,25.9275
5.7460,57.6017,-28.0562,25.7136
5.7540,57.1175,-27.8283,25.5038
5.7620,56.6382,-27.5990,25.2961
5.7700,56.1616,-27.3689,25.0677
5.7770,55.6892,-27.1355,24.8572
5.7850,55.2174,-26.9048,24.6426
5.7930,54.7436,-26.6693,24.4232
5.8010,54.2732,-26.4413,24.2093
5.8090,53.8028,-26.2086,23.9961
5.8170,53.3276,-25.9820,23.7856
5.8250,52.8538,-25.7533,23.5738
5.8330,52.3807,-25.5240,23.3653
5.8410,51.9041,-25.2947,23.1521
5.8490,51.4262,-25.0619,22.9403
5.8570,50.9490,-24.8340,22.7305
5.8650,50.4772,-24.6005,22.5193
5.8730,50.0014,-24.3767,22.3067
5.8810,49.5283,-24.1480,22.0963
5.8890,49.0586,-23.9228,21.8892
5.8970,48.5930,-23.6942,21.6801
5.9050,48.1193,-23.4607,21.4709
5.9130,47.6475,-23.2280,21.2619
5.9210,47.1847,-22.9945,21.0486
5.9290,46.7192,-22.7679,20.8416
5.9370,46.2516,-22.5351,20.6345
5.9450,45.7840,-22.3099,20.4261
5.9530,45.3205,-22.0827,20.2197
5.9610,44.8550,-21.8547,20.0092
5.9680,44.3888,-21.6260,19.8021
5.9760,43.9191,-21.3946,19.5958
5.9840,43.4598,-21.1639,19.3853
5.9920,42.9963,-20.9360,19.1775
6.0000,42.5260,-20.7073,18.9698
6.0080,42.0605,-20.4841,18.7613
6.0160,41.5929,-20.2603,18.5570
6.0240,41.1226,-20.0317,18.3472
6.0320,40.6509,-19.8043,18.1395
6.0400,40.1867,-19.5785,17.9303
6.0480,39.7192,-19.3505,17.7205
6.0560,39.2461,-19.1267,17.5148
6.0640,38.7786,-18.8980,17.3091
6.0720,38.3103,-18.6741,17.1075
6.0800,37.8469,-18.4455,16.9039
6.0880,37.3793,-18.2175,16.6954
6.0960,36.9091,-17.9929,16.4911
6.1040,36.4491,-17.7601,16.2799
6.1120,35.9801,-17.5329,16.0736
6.1200,35.5167,-17.3097,15.8713
6.1280,35.0512,-17.0852,15.6629
6.1360,34.5919,-16.8593,15.4592
6.1440,34.1292,-16.6334,15.2563
6.1520,33.6623,-16.4088,15.0485
6.1590,33.2003,-16.1815,14.8400
6.1670,32.7383,-15.9529,14.6261
6.1750,32.2804,-15.7256,14.4197
6.1830,31.8169,-15.5024,14.2174
6.1910,31.3570,-15.2806,14.0103
6.1990,30.8929,-15.0540,13.8060
6.2070,30.4302,-14.8288,13.5996
6.2150,29.9640,-14.5994,13.3918
6.2230,29.4999,-14.3714,13.1813
6.2310,29.0365,-14.1421,12.9673
6.2390,28.5718,-13.9148,12.7616
6.2470,28.1091,-13.6902,12.5566
6.2550,27.6436,-13.4698,12.3529
6.2630,27.1837,-13.2473,12.1534
6.2710,26.7203,-13.0248,11.9464
6.2790,26.2624,-12.7989,11.7406
6.2870,25.8086,-12.5695,11.5273
6.2950,25.3480,-12.3415,11.3175
6.3030,24.8874,-12.1156,11.1077
6.3110,24.4254,-11.8931,10.8985
6.3190,23.9730,-11.6761,10.6962
6.3270,23.5151,-11.4529,10.4967
6.3350,23.0593,-11.2304,10.2944
6.3430,22.5973,-11.0086,10.0852
6.3500,22.1429,-10.7841,9.8781
6.3580,21.6850,-10.5567,9.6683
6.3660,21.2292,-10.3294,9.4577
6.3740,20.7734,-10.1358,9.2520
6.3820,20.3217,-9.8948,9.0477
6.3900,19.8680,-9.6743,8.8488
6.3980,19.4108,-9.4594,8.6514
6.4060,18.9646,-9.2375,8.4546
6.4140,18.5191,-9.0240,8.2557
6.4220,18.0798,-8.8090,8.0631
6.4300,17.6426,-8.5989,7.8676
6.4380,17.2149,-8.3922,7.6778
6.4460,16.7907,-8.2033,7.4947
6.4540,16.3768,-7.9932,7.3096
6.4620,15.9663,-7.7988,7.1335
6.4700,15.5593,-7.6072,6.9601
6.4780,15.1680,-7.4136,6.7785
6.4860,14.7740,-7.2350,6.6023
6.4940,14.3869,-7.0338,6.4248
6.5020,14.0053,-6.8491,6.2480
6.5100,13.6291,-6.6623,6.0773
6.5180,13.2584,-6.4816,5.9122
6.5260,12.8919,-6.3148,5.7512
6.5330,12.5281,-6.1245,5.5936
6.5410,12.1691,-5.9501,5.4374
6.5490,11.8170,-5.7791,5.2874
6.5570,11.4663,-5.6212,5.1340
6.5650,11.1306,-5.4405,4.9847
6.5730,10.7957,-5.2750,4.8319
6.5810,10.4662,-5.1122,4.6853
6.5890,10.1409,-4.9550,4.5395
6.5970,9.8251,-4.7977,4.4004
6.6050,9.5142,-4.6466,4.2615
6.6130,9.2046,-4.4962,4.1259
6.6210,8.9006,-4.3506,3.9931
6.6290,8.6027,-4.2195,3.8596
6.6370,8.3062,-4.0697,3.7289
6.6450,8.0193,-3.9296,3.5961
6.6530,7.7372,-3.7916,3.4701
6.6610,7.4571,-3.6591,3.3359
6.6690,7.1791,-3.5279,3.2100
6.6770,6.9142,-3.3926,3.0876
6.6850,6.6479,-3.2648,2.9637
6.6930,6.3912,-3.1378,2.8522
6.7010,6.1366,-3.0108,2.7414
6.7090,5.8888,-2.8871,2.6355
6.7170,5.6445,-2.7676,2.5268
6.7240,5.4077,-2.6502,2.4235
6.7320,5.1750,-2.5389,2.3190
6.7400,4.9485,-2.4263,2.2178
6.7480,4.7254,-2.3212,2.1201
6.7560,4.5078,-2.2106,2.0196
6.7640,4.3013,-2.1090,1.9212
6.7720,4.0947,-2.0087,1.8269
6.7800,3.8970,-1.9105,1.7354
6.7880,3.7014,-1.8116,1.6453
6.7960,3.5085,-1.7161,1.5586
6.8040,3.3239,-1.6228,1.4733
6.8120,3.1365,-1.5348,1.3976
6.8200,2.9622,-1.4435,1.3212
6.8280,2.7892,-1.3597,1.2469
6.8360,2.6204,-1.2773,1.1774
6.8440,2.4584,-1.1949,1.1051
6.8520,2.3020,-1.1200,1.0404
6.8600,2.1523,-1.0472,0.9737
6.8680,2.0034,-0.9758,0.9035
6.8760,1.8620,-0.9092,0.8430
6.8840,1.7254,-0.8460,0.7769
6.8920,1.5930,-0.7835,0.7156
6.9000,1.4667,-0.7251,0.6585
6.9080,1.3473,-0.6695,0.6021
6.9150,1.2299,-0.6132,0.5464
6.9230,1.1221,-0.5617,0.4975
6.9310,1.0144,-0.5067,0.4466
6.9390,0.9169,-0.4621,0.4032
6.9470,0.8215,-0.4154,0.3606
6.9550,0.7337,-0.3666,0.3234
6.9630,0.6465,-0.3281,0.2869
6.9710,0.5758,-0.2863,0.2532
6.9790,0.4976,-0.2478,0.2216
6.9870,0.4269,-0.2121,0.1920
6.9950,0.3651,-0.1777,0.1617
7.0030,0.3040,-0.1510,0.1369
7.0110,0.2505,-0.1207,0.1135
7.0190,0.2031,-0.0953,0.0888
7.0270,0.1558,-0.0761,0.0729
7.0350,0.1187,-0.0582,0.0571
7.0430,0.0844,-0.0383,0.0413
7.0510,0.0569,-0.0253,0.0261
7.0590,0.0316,-0.0150,0.0179
7.0670,0.0110,-0.0033,0.0083
7.0750,-0.0034,0.0029,0.0000
7.0830,-0.0117,0.0077,0.0000
7.0910,-0.0151,0.0077,-0.0007
7.0990,-0.0130,0.0042,0.0014
7.1060,-0.0048,0.0015,0.0034
7.1140,0.0055,-0.0019,0.0076
7.1220,0.0213,-0.0074,0.0151
7.1300,0.0466,-0.0156,0.0248
7.1380,0.0714,-0.0273,0.0351
7.1460,0.1029,-0.0445,0.0482
7.1540,0.1400,-0.0589,0.0667
7.1620,0.1819,-0.0816,0.0819
7.1700,0.2320,-0.1029,0.1046
7.1780,0.2848,-0.1269,0.1273
7.1860,0.3411,-0.1551,0.1493
7.1940,0.4042,-0.1839,0.1775
7.2020,0.4694,-0.2183,0.2037
7.2100,0.5477,-0.2554,0.2381
7.2180,0.6225,-0.2911,0.2718
7.2260,0.7062,-0.3350,0.3110
7.2340,0.7961,-0.3783,0.3516
7.2420,0.8895,-0.4270,0.3957
7.2500,0.9862,-0.4731,0.4404
7.2580,1.0913,-0.5253,0.4865
7.2660,1.2038,-0.5761,0.5347
7.2740,1.3157,-0.6352,0.5877
7.2820,1.4371,-0.6901,0.6399
7.2900,1.5600,-0.7526,0.6978
7.2970,1.6815,-0.8144,0.7597
7.3050,1.8291,-0.8694,0.8181
7.3130,1.9595,-0.9435,0.8801
7.3210,2.1118,-1.0136,0.9462
7.3290,2.2635,-1.0898,1.0122
7.3370,2.4118,-1.1640,1.0858
7.3450,2.5772,-1.2416,1.1581
7.3530,2.7364,-1.3240,1.2310
7.3610,2.9162,-1.4078,1.3060
7.3690,3.0802,-1.4950,1.3838
7.3770,3.2711,-1.5829,1.4643
7.3850,3.4591,-1.6763,1.5448
7.3930,3.6355,-1.7725,1.6301
7.4010,3.8428,-1.8700,1.7148
7.4090,4.0391,-1.9703,1.8091
7.4170,4.2340,-2.0692,1.8978
7.4250,4.4557,-2.1736,1.9921
7.4330,4.6561,-2.2814,2.0843
7.4410,4.8915,-2.3899,2.1854
7.4490,5.1221,-2.4922,2.2894
7.4570,5.3431,-2.6124,2.3926
7.4650,5.5964,-2.7182,2.4924
7.4730,5.8243,-2.8432,2.6114
7.4800,6.0906,-2.9620,2.7222
7.4880,6.3390,-3.0835,2.8337
7.4960,6.5992,-3.2079,2.9534
7.5040,6.8449,-3.3363,3.0718
7.5120,7.1339,-3.4702,3.1935
7.5200,7.3905,-3.6000,3.3153
7.5280,7.6864,-3.7339,3.4371
7.5360,7.9705,-3.8720,3.5603
7.5440,8.2362,-4.0155,3.6876
7.5520,8.5512,-4.1474,3.8156
7.5600,8.8518,-4.3026,3.9374
7.5680,9.1559,-4.4509,4.0798
7.5760,9.4655,-4.6006,4.2195
7.5840,9.7750,-4.7572,4.3620
7.5920,10.0969,-4.9131,4.5057
7.6000,10.4202,-5.0711,4.6530
7.6080,10.7524,-5.2331,4.8037
7.6160,11.0887,-5.4000,4.9557
7.6240,11.4271,-5.5669,5.1092
7.6320,11.7731,-5.7372,5.2626
7.6400,12.1286,-5.9144,5.4174
7.6480,12.4849,-6.0916,5.5743
7.6560,12.8480,-6.2653,5.7319
7.6640,13.2118,-6.4453,5.8929
7.6710,13.5804,-6.6279,6.0601
7.6790,13.9579,-6.8140,6.2294
7.6870,14.3457,-6.9988,6.4021
7.6950,14.7328,-7.1876,6.5817
7.7030,15.1220,-7.3785,6.7578
7.7110,15.5202,-7.5702,6.9333
7.7190,15.9238,-7.7631,7.1121
7.7270,16.3329,-7.9575,7.2917
7.7350,16.7482,-8.1539,7.4741
7.7430,17.1607,-8.3565,7.6605
7.7510,17.5883,-8.5597,7.8505
7.7590,18.0174,-8.7692,8.0438
7.7670,18.4436,-8.9828,8.2440
7.7750,18.8802,-9.1991,8.4401
7.7830,19.3216,-9.4175,8.6355
7.7910,19.7678,-9.6372,8.8364
7.7990,20.2140,-9.8563,9.0305
7.8070,20.6615,-10.0795,9.2335
7.8150,21.1180,-10.3040,9.4406
7.8230,21.5800,-10.5348,9.6476
7.8310,22.0365,-10.7641,9.8547
7.8390,22.4971,-10.9908,10.0591
7.8470,22.9625,-11.2160,10.2614
7.8550,23.4279,-11.4406,10.4802
7.8620,23.8865,-11.6637,10.6824
7.8700,24.3444,-11.8856,10.8840
7.8780,24.8091,-12.1122,11.0884
7.8860,25.2739,-12.3354,11.2955
7.8940,25.7345,-12.5640,11.5081
7.9020,26.1958,-12.7920,11.7186
7.9100,26.6578,-13.0159,11.9257
7.9180,27.1130,-13.2418,12.1307
7.9260,27.5784,-13.4616,12.3350
7.9340,28.0452,-13.6841,12.5332
7.9420,28.5079,-13.9113,12.7348
7.9500,28.9802,-14.1373,12.9412
7.9580,29.4450,-14.3659,13.1476
7.9660,29.9146,-14.5946,13.3574
7.9740,30.3821,-14.8205,13.5652
7.9820,30.8489,-15.0437,13.7696
7.9900,31.3117,-15.2648,13.9746
7.9980,31.7757,-15.4900,14.1775
8.0060,32.2412,-15.7139,14.3784
8.0140,32.7005,-15.9398,14.5813
8.0220,33.1598,-16.1671,14.7912
8.0300,33.6184,-16.3896,14.9948
8.0380,34.0832,-16.6127,15.2047
8.0460,34.5445,-16.8400,15.4117
8.0530,35.0059,-17.0612,15.6161
8.0610,35.4666,-17.2877,15.8163
8.0690,35.9389,-17.5109,16.0261
8.0770,36.4010,-17.7389,16.2277
8.0850,36.8637,-17.9648,16.4347
8.0930,37.3354,-18.1900,16.6418
8.1010,37.7995,-18.4146,16.8510
8.1090,38.2650,-18.6439,17.0594
8.1170,38.7291,-18.8684,17.2664
8.1250,39.2001,-19.0642,17.4701
8.1330,39.6663,-19.3038,17.6765
8.1410,40.1332,-19.5318,17.8835
8.1490,40.5967,-19.7590,18.0899
8.1570,41.0670,-19.9850,18.2983
8.1650,41.5325,-20.2109,18.5068
8.1730,41.9925,-20.4361,18.7111
8.1810,42.4573,-20.6606,18.9202
8.1890,42.9187,-20.8906,19.1245
8.1970,43.3856,-21.1152,19.3337
8.2050,43.8450,-21.3459,19.5428
8.2130,44.3105,-21.5766,19.7485
8.2210,44.7747,-21.8039,19.9569
8.2290,45.2402,-22.0353,20.1674
8.2370,45.7092,-22.2605,20.3745
8.2440,46.1713,-22.4898,20.5829
8.2520,46.6443,-22.7199,20.7941
8.2600,47.1147,-22.9457,21.0046
8.2680,47.5816,-23.1806,21.2158
8.2760,48.0533,-23.4106,21.4262
8.2840,48.5271,-23.6344,21.6354
8.2920,48.9989,-23.8617,21.8445
8.3000,49.4706,-24.0883,22.0584
8.3080,49.9437,-24.3156,22.2627
8.3160,50.4189,-24.5429,22.4753
8.3240,50.8920,-24.7729,22.6899
8.3320,51.3672,-25.0042,22.8990
8.3400,51.8437,-25.2343,23.1149
8.3480,52.3162,-25.4629,23.3296
8.3560,52.7893,-25.6922,23.5387
8.3640,53.2597,-25.9202,23.7505
8.3720,53.7335,-26.1488,23.9596
8.3800,54.2080,-26.3823,24.1756
8.3880,54.6790,-26.6130,24.3875
8.3960,55.1494,-26.8444,24.6021
8.4040,55.6240,-27.0785,24.8180
8.4120,56.0978,-27.3154,25.0299
8.4200,56.5689,-27.5461,25.2376
8.4270,57.0475,-27.7733,25.4474
8.4350,57.5268,-28.0047,25.6530
8.4430,58.0041,-28.2395,25.8656
8.4510,58.4800,-28.4716,26.0809
8.4590,58.9627,-28.7092,26.2955
8.4670,59.4387,-28.9447,26.5094
8.4750,59.9153,-29.1802,26.7240
8.4830,60.3878,-29.4136,26.9338
8.4910,60.8678,-29.6491,27.1401
8.4990,61.3498,-29.8777,27.3540
8.5070,61.8244,-30.1160,27.5699
8.5150,62.3024,-30.3549,27.7879
8.5230,62.7776,-30.5897,28.0067
8.5310,63.2535,-30.8231,28.2192
8.5390,63.7301,-31.0600,28.4303
8.5470,64.2088,-31.2907,28.6415
8.5550,64.6875,-31.5214,28.8506
8.5630,65.1696,-31.7582,29.0555
8.5710,65.6483,-31.9937,29.2714
8.5790,66.1297,-32.2313,29.4846
8.5870,66.6084,-32.4702,29.7034
8.5950,67.0885,-32.7064,29.9200
8.6030,67.5665,-32.9392,30.1311
8.6110,68.0507,-33.1671,30.3443
8.6180,68.5294,-33.3984,30.5555
8.6260,69.0060,-33.6278,30.7680
8.6340,69.4854,-33.8584,30.9804
8.6420,69.9641,-34.0926,31.1978
8.6500,70.4387,-34.3273,31.4130
8.6580,70.9044,-34.5553,31.6242
8.6660,71.3687,-34.7798,31.8229
8.6740,71.8247,-35.0029,32.0223
8.6820,72.2814,-35.2219,32.1949
8.6900,72.7258,-35.4395,32.3985
8.6980,73.1702,-35.6551,32.5945
8.7060,73.6111,-35.8680,32.7870
8.7140,74.0438,-36.0814,32.9810
8.7220,74.4662,-36.2909,33.1749
8.7300,74.8859,-36.4948,33.3660
8.7380,75.3014,-36.6959,33.5531
8.7460,75.7080,-36.8936,33.7374
8.7540,76.1105,-37.0893,33.9148
8.7620,76.5075,-37.2808,34.0936
8.7700,76.9038,-37.4717,34.2738
8.7780,77.2933,-37.6612,34.4470
8.7860,77.6752,-37.8527,34.6272
8.7940,78.0564,-38.0360,34.8018
8.8020,78.4314,-38.2214,34.9717
8.8090,78.8016,-38.4005,35.1388
8.8170,79.1684,-38.5790,35.2997
8.8250,79.5236,-38.7486,35.4544
8.8330,79.8732,-38.9196,35.6098
8.8410,80.2194,-39.0877,35.7645
8.8490,80.5614,-39.2532,35.9158
8.8570,80.8973,-39.4145,36.0678
8.8650,81.2284,-39.5786,36.2149
8.8730,81.5540,-39.7379,36.3662
8.8810,81.8768,-39.8971,36.5113
8.8890,82.1955,-40.0509,36.6570
8.8970,82.5074,-40.2019,36.7966
8.9050,82.8144,-40.3468,36.9348
8.9130,83.1139,-40.4917,37.0703
8.9210,83.4106,-40.6187,37.2016
8.9290,83.7033,-40.7663,37.3329
8.9370,83.9904,-40.9091,37.4595
8.9450,84.2706,-41.0415,37.5853
8.9530,84.5461,-41.1775,37.7070
8.9610,84.8133,-41.3106,37.8307
8.9690,85.0757,-41.4390,37.9449
8.9770,85.3340,-41.5688,38.0604
8.9850,85.5854,-41.6923,38.1725
8.9930,85.8313,-41.8145,38.2873
9.0000,86.0751,-41.9367,38.3918
9.0080,86.3101,-42.0562,38.5025
9.0160,86.5491,-42.1681,38.6077
9.0240,86.7813,-42.2772,38.7088
9.0320,87.0052,-42.3857,38.8105
9.0400,87.2251,-42.4942,38.9089
9.0480,87.4387,-42.5951,39.0065
9.0560,87.6502,-42.6919,39.1041
9.0640,87.8536,-42.7893,39.1976
9.0720,88.0555,-42.8861,39.2843
9.0800,88.2465,-42.9795,39.3709
9.0880,88.4326,-43.0708,39.4547
9.0960,88.6181,-43.1628,39.5352
9.1040,88.7933,-43.2500,39.6129
9.1120,88.9684,-43.3365,39.6892
9.1200,89.1361,-43.4209,39.7628
9.1280,89.3030,-43.5006,39.8315
9.1360,89.4610,-43.5843,39.9017
9.1440,89.6169,-43.6591,39.9690
9.1520,89.7660,-43.7305,40.0350
9.1600,89.9096,-43.8012,40.0990
9.1680,90.0497,-43.8692,40.1609
9.1760,90.1836,-43.9344,40.2234
9.1830,90.3114,-43.9948,40.2839
9.1910,90.4385,-44.0511,40.3423
9.1990,90.5546,-44.1054,40.3960
9.2070,90.6645,-44.1582,40.4496
9.2150,90.7744,-44.2111,40.4970
9.2230,90.8761,-44.2578,40.5431
9.2310,90.9722,-44.3024,40.5864
9.2390,91.0657,-44.3518,40.6277
9.2470,91.1515,-44.3916,40.6662
9.2550,91.2326,-44.4335,40.7019
9.2630,91.3088,-44.4733,40.7370
9.2710,91.3824,-44.5076,40.7672
9.2790,91.4483,-44.5426,40.7989
9.2870,91.5060,-44.5756,40.8202
9.2950,91.5644,-44.6024,40.8435
9.3030,91.6166,-44.6298,40.8655
9.3110,91.6599,-44.6525,40.8834
9.3190,91.6997,-44.6703,40.9013
9.3270,91.7354,-44.6916,40.9144
9.3350,91.7636,-44.7026,40.9288
9.3430,91.7870,-44.7170,40.9398
9.3510,91.8103,-44.7259,40.9508
9.3590,91.8227,-44.7321,40.9563
9.3670,91.8309,-44.7342,40.9591
9.3740,91.8364,-44.7355,40.9625
9.3820,91.8337,-44.7314,40.9604
9.3900,91.8296,-44.7287,40.9611
9.3980,91.8172,-44.7232,40.9556
9.4060,91.8014,-44.7190,40.9515
9.4140,91.7842,-44.7060,40.9432
9.4220,91.7553,-44.6971,40.9336
9.4300,91.7258,-44.6820,40.9212
9.4380,91.6873,-44.6655,40.9041
9.4460,91.6482,-44.6477,40.8855
9.4540,91.6022,-44.6271,40.8649
9.4620,91.5506,-44.6051,40.8408
9.4700,91.4923,-44.5790,40.8147
9.4780,91.4318,-44.5502,40.7886
9.4860,91.3638,-44.5159,40.7562
9.4940,91.2875,-44.4843,40.7260
9.5020,91.2127,-44.4493,40.6889
9.5100,91.1323,-44.4088,40.6552
9.5180,91.0416,-44.3655,40.6160
9.5260,90.9503,-44.3175,40.5754
9.5340,90.8506,-44.2708,40.5314
9.5420,90.7435,-44.2207,40.4847
9.5500,90.6384,-44.1692,40.4372
9.5580,90.5216,-44.1109,40.3850
9.5650,90.4103,-44.0545,40.3313
9.5730,90.2812,-43.9948,40.2757
9.5810,90.1527,-43.9303,40.2172
9.5890,90.0195,-43.8692,40.1560
9.5970,89.8793,-43.8026,40.0928
9.6050,89.7392,-43.7305,40.0254
9.6130,89.5915,-43.6584,39.9594
9.6210,89.4479,-43.5857,39.8900
9.6290,89.2803,-43.5095,39.8171
9.6370,89.1175,-43.4278,39.7380
9.6450,88.9561,-43.3440,39.6631
9.6530,88.7761,-43.2534,39.5881
9.6610,88.5954,-43.1669,39.5084
9.6690,88.4121,-43.0722,39.4252
9.6770,88.2259,-42.9781,39.3440
9.6850,88.0335,-42.8813,39.2574
9.6930,87.8350,-42.7845,39.1729
9.7010,87.6296,-42.6830,39.0842
9.7090,87.4215,-42.5793,38.9920
9.7170,87.2024,-42.4736,38.8930
9.7250,86.9984,-42.3713,38.7926
9.7330,86.7573,-42.2621,38.6964
9.7410,86.5264,-42.1536,38.5878
9.7490,86.2922,-42.0390,38.4825
9.7560,86.0552,-41.9251,38.3691
9.7640,85.8107,-41.8050,38.2564
9.7720,85.5634,-41.6827,38.1408
9.7800,85.3099,-41.5599,38.0226
9.7880,85.0496,-41.4281,37.9036
9.7960,84.8023,-41.2976,37.7853
9.8040,84.5104,-41.1589,37.6671
9.8120,84.2370,-41.0210,37.5468
9.8200,83.9526,-40.8795,37.4278
9.8280,83.6627,-40.7560,37.3054
9.8360,83.3674,-40.6036,37.1782
9.8440,83.0905,-40.4594,37.0483
9.8520,82.7636,-40.3118,36.9156
9.8600,82.4778,-40.1621,36.7822
9.8680,82.1454,-40.0132,36.6378
9.8760,81.8212,-39.8559,36.4934
9.8840,81.4949,-39.7001,36.3394
9.8920,81.1693,-39.5374,36.1922
9.9000,80.8355,-39.3781,36.0403
9.9080,80.4941,-39.2161,35.8876
9.9160,80.1520,-39.0473,35.7350
9.9240,79.8072,-38.8791,35.5796
9.9320,79.4542,-38.7081,35.4283
9.9400,79.0970,-38.5344,35.2742
9.9470,78.7364,-38.3539,35.1147
9.9550,78.3641,-38.1712,34.9545
9.9630,77.9863,-37.9873,34.7860
9.9710,77.6072,-37.7971,34.6141
9.9790,77.2219,-37.6035,34.4353
9.9870,76.8338,-37.4147,34.2634
9.9950,76.4361,-37.2204,34.0881
10.0030,76.0350,-37.0275,33.9148
10.0110,75.6332,-36.8311,33.7394
10.0190,75.2204,-36.6348,33.5620
10.0270,74.8048,-36.4323,33.3771
10.0350,74.3824,-36.2270,33.1886
10.0430,73.9566,-36.0176,32.9968
10.0510,73.5225,-35.8048,32.8021
10.0590,73.0857,-35.5954,32.6096
10.0670,72.6461,-35.3791,32.4164
10.0750,72.2031,-35.1656,32.2211
10.0830,71.7553,-34.9521,32.0264
10.0910,71.3048,-34.7297,31.8256
10.0990,70.8432,-34.5072,31.6200
10.1070,70.3796,-34.2772,31.4117
10.1150,69.9112,-34.0452,31.2005
10.1230,69.4628,-33.8104,30.9846
10.1300,68.9538,-33.5797,30.7666
10.1380,68.4765,-33.3435,30.5513
10.1460,67.9916,-33.1135,30.3546
10.1540,67.5088,-32.8828,30.1311
10.1620,67.0246,-32.6405,29.9172
10.1700,66.5411,-32.4057,29.7013
10.1780,66.0570,-32.1640,29.4860
10.1860,65.5762,-31.9265,29.2673
10.1940,65.0913,-31.6930,29.0520
10.2020,64.6113,-31.4596,28.8430
10.2100,64.1340,-31.2296,28.6325
10.2180,63.6574,-30.9913,28.4200
10.2260,63.1808,-30.7614,28.2034
10.2340,62.7062,-30.5224,27.9833
10.2420,62.2296,-30.2842,27.7639
10.2500,61.7489,-30.0473,27.5424
10.2580,61.2675,-29.8152,27.3271
10.2660,60.7854,-29.5818,27.1105
10.2740,60.3005,-29.3525,26.9000
10.2820,59.8232,-29.1197,26.6902
10.2900,59.3384,-28.8843,26.4757
10.2980,58.8543,-28.6487,26.2590
10.3060,58.3715,-28.4153,26.0444
10.3140,57.8894,-28.1825,25.8284
10.3210,57.4073,-27.9553,25.6173
10.3290,56.9246,-27.7253,25.4061
10.3370,56.4439,-27.4980,25.1943
10.3450,55.9694,-27.2687,24.9838
10.3530,55.4962,-27.0352,24.7699
10.3610,55.0203,-26.8018,24.5526
10.3690,54.5486,-26.5684,24.3352
10.3770,54.0809,-26.3370,24.1254
10.3850,53.6030,-26.1063,23.9142
10.3930,53.1285,-25.8804,23.7044
10.4010,52.6574,-25.6504,23.4960
10.4090,52.1816,-25.4238,23.2883
10.4170,51.7071,-25.1945,23.0771
10.4250,51.2243,-24.9610,22.8612
10.4330,50.7512,-24.7324,22.6500
10.4410,50.2781,-24.5037,22.4402
10.4490,49.8071,-24.2751,22.2290
10.4570,49.3291,-24.0478,22.0165
10.4650,48.8602,-23.8212,21.8142
10.4730,48.3905,-23.5919,21.6058
10.4810,47.9167,-23.3591,21.3973
10.4890,47.4484,-23.1277,21.1889
10.4970,46.9842,-22.8929,20.9757
10.5050,46.5180,-22.6636,20.7693
10.5120,46.0518,-22.4356,20.5637
10.5200,45.5869,-22.2090,20.3552
10.5280,45.1173,-21.9810,20.1468
10.5360,44.6524,-21.7524,19.9432
10.5440,44.1848,-21.5237,19.7333
10.5520,43.7200,-21.2896,19.5263
10.5600,43.2586,-21.0623,19.3179
10.5680,42.7917,-20.8323,19.1087
10.5760,42.3214,-20.6084,18.9017
10.5840,41.8538,-20.3839,18.6829
10.5920,41.3876,-20.1594,18.4731
10.6000,40.9194,-19.9307,18.2619
10.6080,40.4456,-19.7021,18.0534
10.6160,39.9815,-19.4796,17.8416
10.6240,39.5084,-19.2502,17.6352
10.6320,39.0388,-19.0230,17.4274
10.6400,38.5685,-18.7991,17.2217
10.6480,38.1057,-18.5746,17.0168
10.6560,37.6423,-18.3473,16.8083
10.6640,37.1740,-18.1172,16.6012
10.6720,36.7045,-17.8906,16.3928
10.6800,36.2403,-17.6606,16.1802
10.6880,35.7762,-17.4340,15.9766
10.6960,35.3107,-17.2115,15.7708
10.7030,34.8494,-16.9877,15.5631
10.7110,34.3873,-16.7597,15.3608
10.7190,33.9246,-16.5379,15.1551
10.7270,33.4598,-16.3079,14.9439
10.7350,33.0012,-16.0826,14.7334
10.7430,32.5371,-15.8526,14.5249
10.7510,32.0792,-15.6281,14.3179
10.7590,31.6123,-15.4028,14.1128
10.7670,31.1538,-15.1796,13.9065
10.7750,30.6883,-14.9565,13.7042
10.7830,30.2263,-14.7285,13.4950
10.7910,29.7601,-14.4998,13.2866
10.7990,29.2995,-14.2712,13.0733
10.8070,28.8354,-14.0432,12.8669
10.8150,28.3693,-13.8166,12.6584
10.8230,27.9018,-13.5941,12.4548
10.8310,27.4425,-13.3730,12.2525
10.8390,26.9846,-13.1498,12.0495
10.8470,26.5260,-12.9225,11.8431
10.8550,26.0647,-12.6959,11.6347
10.8630,25.6034,-12.4672,11.4200
10.8710,25.1462,-12.2412,11.2109
10.8790,24.6849,-12.0195,11.0044
10.8870,24.2263,-11.7942,10.7974
10.8940,23.7712,-11.6061,10.5964
10.9020,23.3188,-11.3712,10.3969
10.9100,22.8534,-11.1494,10.1891
10.9180,22.3955,-10.9227,9.9841
10.9260,21.9404,-10.6975,9.7749
10.9340,21.4846,-10.4716,9.5630
10.9420,21.0274,-10.2450,9.3573
10.9500,20.5743,-10.0211,9.1516
10.9580,20.1185,-9.8020,8.9520
10.9660,19.6648,-9.5816,8.7532
10.9740,19.2145,-9.3632,8.5612
10.9820,18.7697,-9.1462,8.3603
10.9900,18.3228,-8.9285,8.1656
10.9980,17.8883,-8.7156,7.9715
11.0060,17.4531,-8.5075,7.7782
11.0140,17.0296,-8.3057,7.5931
11.0220,16.6081,-8.1024,7.4122
11.0300,16.1922,-7.9087,7.2346
11.0380,15.7892,-7.7157,7.0551
11.0460,15.3842,-7.5221,6.8810
11.0540,14.9951,-7.3305,6.7000
11.0620,14.6024,-7.1396,6.5232
11.0700,14.2194,-6.9541,6.3436
11.0770,13.8405,-6.7769,6.1716
11.0850,13.4643,-6.5840,6.0154
11.0930,13.0951,-6.4137,5.8406
11.1010,12.7306,-6.2234,5.6803
11.1090,12.3723,-6.0490,5.5255
11.1170,12.0113,-5.8759,5.3707
11.1250,11.6646,-5.7056,5.2179
11.1330,11.3201,-5.5346,5.0644
11.1410,10.9817,-5.3670,4.9145
11.1490,10.6515,-5.2036,4.7658
11.1570,10.3234,-5.0409,4.6151
11.1650,10.0029,-4.8987,4.4761
11.1730,9.6844,-4.7290,4.3317
11.1810,9.3755,-4.5807,4.1961
11.1890,9.0735,-4.4337,4.0599
11.1970,8.7688,-4.2978,3.9263
11.2050,8.4702,-4.1487,3.7963
11.2130,8.1805,-4.0093,3.6635
11.2210,7.8943,-3.8699,3.5348
11.2290,7.6122,-3.7366,3.4055
11.2370,7.3363,-3.5959,3.2796
11.2450,7.0632,-3.4661,3.1578
11.2530,6.7962,-3.3356,3.0373
11.2610,6.5333,-3.2051,2.9183
11.2680,6.2773,-3.0781,2.8082
11.2760,6.0281,-2.9524,2.6995
11.2840,5.7803,-2.8301,2.5907
11.2920,5.5401,-2.7141,2.4876
11.3000,5.3068,-2.5973,2.3823
11.3080,5.0734,-2.4847,2.2818
11.3160,4.8462,-2.3762,2.1786
11.3240,4.6300,-2.2697,2.0802
11.3320,4.4159,-2.1660,1.9811
11.3400,4.2100,-2.0630,1.8847
11.3480,4.0075,-1.9641,1.7912
11.3560,3.8091,-1.8666,1.6997
11.3640,3.6183,-1.7684,1.6109
11.3720,3.4275,-1.6770,1.5228
11.3800,3.2422,-1.5816,1.4437
11.3880,3.0590,-1.4902,1.3646
11.3960,2.8860,-1.4058,1.2902
11.4040,2.7130,-1.3192,1.2187
11.4120,2.5518,-1.2395,1.1485
11.4200,2.3884,-1.1585,1.0796
11.4280,2.2354,-1.0850,1.0136
11.4360,2.0858,-1.0156,0.9441
11.4440,1.9402,-0.9449,0.8787
11.4520,1.8016,-0.8810,0.8134
11.4590,1.6678,-0.8192,0.7535
11.4670,1.5360,-0.7581,0.6929
11.4750,1.4138,-0.6983,0.6344
11.4830,1.2965,-0.6462,0.5780
11.4910,1.1791,-0.5885,0.5243
11.4990,1.0768,-0.5390,0.4741
11.5070,0.9704,-0.4896,0.4252
11.5150,0.8757,-0.4415,0.3854
11.5230,0.7803,-0.3913,0.3427
11.5310,0.6918,-0.3474,0.3048
11.5390,0.6115,-0.3089,0.2745
11.5470,0.5346,-0.2691,0.2395
11.5550,0.4632,-0.2327,0.2085
11.5630,0.3960,-0.1970,0.1789
11.5710,0.3356,-0.1661,0.1507
11.5790,0.2752,-0.1386,0.1280
11.5870,0.2244,-0.1111,0.1053
11.5950,0.1798,-0.0885,0.0826
11.6030,0.1379,-0.0678,0.0640
11.6110,0.1029,-0.0493,0.0482
11.6190,0.0693,-0.0321,0.0344
11.6270,0.0432,-0.0212,0.0227
11.6350,0.0199,-0.0088,0.0110
11.6430,0.0021,-0.0019,0.0062
11.6500,-0.0103,0.0022,0.0014
11.6580,-0.0137,0.0070,0.0000
11.6660,-0.0158,0.0042,0.0028
11.6740,-0.0103,0.0042,0.0020
11.6820,0.0000,0.0022,0.0048
11.6900,0.0144,-0.0040,0.0096
11.6980,0.0357,-0.0129,0.0220
11.7060,0.0583,-0.0212,0.0275
11.7140,0.0892,-0.0356,0.0392
11.7220,0.1208,-0.0514,0.0578
11.7300,0.1619,-0.0685,0.0716
11.7380,0.2079,-0.0878,0.0901
11.7460,0.2567,-0.1125,0.1108
11.7540,0.3116,-0.1407,0.1362
11.7620,0.3699,-0.1674,0.1590
11.7700,0.4379,-0.2011,0.1885
11.7780,0.5037,-0.2341,0.2181
11.7860,0.5841,-0.2725,0.2505
11.7940,0.6630,-0.3117,0.2897
11.8020,0.7508,-0.3543,0.3275
11.8100,0.8428,-0.3996,0.3723
11.8180,0.9354,-0.4456,0.4108
11.8260,1.0391,-0.4971,0.4590
11.8340,1.1448,-0.5459,0.5058
11.8410,1.2601,-0.6015,0.5581
11.8490,1.3740,-0.6606,0.6131
11.8570,1.4969,-0.7162,0.6675
11.8650,1.6273,-0.7801,0.7225
11.8730,1.7604,-0.8336,0.7838
11.8810,1.8998,-0.9064,0.8492
11.8890,2.0219,-0.9744,0.9111
11.8970,2.1798,-1.0459,0.9771
11.9050,2.3418,-1.1186,1.0466
11.9130,2.4797,-1.1990,1.1148
11.9210,2.6547,-1.2766,1.1877
11.9290,2.8188,-1.3590,1.2654
11.9370,2.9917,-1.4470,1.3384
11.9450,3.1681,-1.5341,1.4203
11.9530,3.3541,-1.6228,1.5022
11.9610,3.5401,-1.7169,1.5861
11.9690,3.7343,-1.8137,1.6721
11.9770,3.9169,-1.9133,1.7574
11.9850,4.1303,-2.0122,1.8469
11.9930,4.3239,-2.1166,1.9384
12.0010,4.5463,-2.2196,2.0327
12.0090,4.7693,-2.3267,2.1318
12.0170,4.9917,-2.4366,2.2309
12.0240,5.2120,-2.5396,2.3348
12.0320,5.4612,-2.6612,2.4400
12.0400,5.6904,-2.7800,2.5460
12.0480,5.9471,-2.8967,2.6589
12.0560,6.1826,-3.0156,2.7696
12.0640,6.4516,-3.1364,2.8852
12.0720,6.6966,-3.2648,3.0043
12.0800,6.9801,-3.3940,3.1254
12.0880,7.2533,-3.5238,3.2472
12.0960,7.5155,-3.6584,3.3683
12.1040,7.8113,-3.7950,3.4901
12.1120,8.0790,-3.9345,3.6160
12.1200,8.3858,-4.0773,3.7447
12.1280,8.6645,-4.2209,3.8706
12.1360,8.9843,-4.3664,4.0062
12.1440,9.2925,-4.5168,4.1397
12.1520,9.5849,-4.6672,4.2786
12.1600,9.9171,-4.8114,4.4238
12.1680,10.2390,-4.9769,4.5683
12.1760,10.5685,-5.1377,4.7170
12.1840,10.9014,-5.3032,4.8725
12.1920,11.2157,-5.4708,5.0252
12.2000,11.5788,-5.6376,5.1794
12.2080,11.9062,-5.8093,5.3307
12.2150,12.2845,-5.9838,5.4883
12.2230,12.6249,-6.1589,5.6445
12.2310,13.0058,-6.3395,5.8021
12.2390,13.3566,-6.5201,5.9665
12.2470,13.7520,-6.7028,6.1365
12.2550,14.1315,-6.8896,6.3085
12.2630,14.5159,-7.0784,6.4812
12.2710,14.8866,-7.2673,6.6608
12.2790,15.3019,-7.4596,6.8383
12.2870,15.6760,-7.6512,7.0131
12.2950,16.1077,-7.8455,7.1934
12.3030,16.4914,-8.0406,7.3702
12.3110,16.9294,-8.2411,7.5532
12.3190,17.3220,-8.4457,7.7410
12.3270,17.7750,-8.6559,7.9351
12.3350,18.1773,-8.8598,8.1284
12.3430,18.6379,-9.0796,8.3280
12.3510,19.0477,-9.2966,8.5254
12.3590,19.5165,-9.5150,8.7236
12.3670,19.9613,-9.7313,8.9211
12.3750,20.3828,-9.9524,9.1220
12.3830,20.8620,-10.1770,9.3256
12.3910,21.2889,-10.4064,9.5320
12.3990,21.7763,-10.6350,9.7433
12.4060,22.2095,-10.8630,9.9511
12.4140,22.6962,-11.0910,10.1561
12.4220,23.1678,-11.3162,10.3590
12.4300,23.6291,-11.5374,10.5613
12.4380,24.0904,-11.7626,10.7622
12.4460,24.5476,-11.9831,10.9645
12.4540,25.0164,-12.2103,11.1716
12.4620,25.4771,-12.4342,11.3794
12.4700,25.9377,-12.6636,11.5892
12.4780,26.3977,-12.8902,11.7998
12.4860,26.8288,-13.1168,12.0048
12.4940,27.3182,-13.3372,12.2092
12.5020,27.7755,-13.5604,12.4094
12.5100,28.2381,-13.7822,12.6110
12.5180,28.7084,-14.0082,12.8139
12.5260,29.1711,-14.2354,13.0196
12.5340,29.6365,-14.4655,13.2205
12.5420,30.1034,-14.6928,13.4324
12.5500,30.5695,-14.9201,13.6374
12.5580,31.0309,-15.1412,13.8411
12.5660,31.4943,-15.3664,14.0440
12.5740,31.9577,-15.5917,14.2443
12.5820,32.4190,-15.8148,14.4465
12.5900,32.8776,-16.0359,14.6501
12.5970,33.3390,-16.2667,14.8586
12.6050,33.7983,-16.4905,15.0636
12.6130,34.2610,-16.7137,15.2741
12.6210,34.7210,-16.9389,15.4757
12.6290,35.1844,-17.1628,15.6787
12.6370,35.6471,-17.3880,15.8816
12.6450,36.1154,-17.6119,16.1018
12.6530,36.5809,-17.8398,16.3068
12.6610,37.0457,-18.0671,16.5194
12.6690,37.5146,-18.2889,16.7271
12.6770,37.9808,-18.5148,16.9356
12.6850,38.4456,-18.7435,17.1488
12.6930,38.9104,-18.9687,17.3511
12.7010,39.3800,-19.1905,17.5588
12.7090,39.8483,-19.4171,17.7673
12.7170,40.3131,-19.6416,17.9730
12.7250,40.7758,-19.8696,18.1814
12.7330,41.2462,-20.0955,18.3919
12.7410,41.7076,-20.3200,18.6017
12.7490,42.1717,-20.5487,18.8067
12.7570,42.6400,-20.7753,19.0166
12.7650,43.0993,-21.0046,19.2250
12.7730,43.5628,-21.2333,19.4321
12.7810,44.0255,-21.4640,19.6398
12.7880,44.4883,-21.6926,19.8469
12.7960,44.9594,-21.9213,20.0587
12.8040,45.4270,-22.1479,20.2678
12.8120,45.8925,-22.3765,20.4797
12.8200,46.3615,-22.6024,20.6882
12.8280,46.8311,-22.8318,20.9000
12.8360,47.3042,-23.0611,21.1098
12.8440,47.7711,-23.2939,21.3231
12.8520,48.2456,-23.5184,21.5308
12.8600,48.7201,-23.7196,21.7386
12.8680,49.1884,-23.9606,21.9477
12.8760,49.6656,-24.1851,22.1568
12.8840,50.1422,-24.4151,22.3624
12.8920,50.6194,-24.6438,22.5743
12.9000,51.0925,-24.8752,22.7841
12.9080,51.5704,-25.1018,22.9967
12.9160,52.0456,-25.3359,23.2113
12.9240,52.5242,-25.5638,23.4176
12.9320,52.9953,-25.7938,23.6274
12.9400,53.4643,-26.0225,23.8351
12.9480,53.9402,-26.2532,24.0463
12.9560,54.4119,-26.4839,24.2595
12.9640,54.8851,-26.7139,24.4693
12.9710,55.3582,-26.9494,24.6860
12.9790,55.8265,-27.1863,24.9020
12.9870,56.3031,-27.4142,25.1117
12.9950,56.7783,-27.6449,25.3188
13.0030,57.2583,-27.8715,25.5272
13.0110,57.7363,-28.1036,25.7363
13.0190,58.2142,-28.3363,25.9488
13.0270,58.6894,-28.5698,26.1613
13.0350,59.1715,-28.8053,26.3773
13.0430,59.6474,-29.0435,26.5933
13.0510,60.1247,-29.2735,26.8044
13.0590,60.6027,-29.5063,27.0142
13.0670,61.0793,-29.7390,27.2240
13.0750,61.5579,-29.9704,27.4372
13.0830,62.0339,-30.2045,27.6532
13.0910,62.5139,-30.4435,27.8705
13.0990,62.9905,-30.6776,28.0864
13.1070,63.4644,-30.9138,28.3003
13.1150,63.9389,-31.1493,28.5149
13.1230,64.4197,-31.3827,28.7185
13.1310,64.9011,-31.6134,28.9241
13.1390,65.3798,-31.8475,29.1373
13.1470,65.8592,-32.0830,29.3499
13.1550,66.3440,-32.3226,29.5685
13.1620,66.8179,-32.5574,29.7859
13.1700,67.2986,-32.7929,29.9977
13.1780,67.7780,-33.0250,30.2102
13.1860,68.2615,-33.2563,30.4241
13.1940,68.7395,-33.4863,30.6345
13.2020,69.2148,-33.7170,30.8470
13.2100,69.6969,-33.9484,31.0644
13.2180,70.1722,-34.1859,31.2810
13.2260,70.6448,-34.4159,31.4962
13.2340,71.1111,-34.6439,31.7005
13.2420,71.5713,-34.8718,31.8985
13.2500,72.0280,-35.0908,32.0959
13.2580,72.4758,-35.3098,32.2919
13.2660,72.9209,-35.5302,32.4831
13.2740,73.3618,-35.7451,32.6777
13.2820,73.8027,-35.9599,32.8702
13.2900,74.2279,-36.1714,33.0683
13.2980,74.6510,-36.3815,33.2601
13.3060,75.0672,-36.5799,33.4451
13.3140,75.4807,-36.7838,33.6315
13.3220,75.8853,-36.9753,33.8158
13.3300,76.2864,-37.1696,33.9925
13.3380,76.6820,-37.3653,34.1720
13.3460,77.0783,-37.5541,34.3521
13.3530,77.4616,-37.7456,34.5289
13.3610,77.8428,-37.9323,34.7049
13.3690,78.2199,-38.1191,34.8775
13.3770,78.5983,-38.2976,35.0494
13.3850,78.9624,-38.4795,35.2103
13.3930,79.3209,-38.6539,35.3705
13.4010,79.6774,-38.8228,35.5245
13.4090,80.0250,-38.9916,35.6793
13.4170,80.3705,-39.1598,35.8326
13.4250,80.7077,-39.3273,35.9839
13.4330,81.0457,-39.4887,36.1310
13.4410,81.3726,-39.6473,36.2775
13.4490,81.6968,-39.8079,36.4356
13.4570,82.0148,-39.9617,36.5814
13.4650,82.3315,-40.1182,36.7251
13.4730,82.6420,-40.2651,36.8647
13.4810,82.9470,-40.4134,37.0001
13.4890,83.2465,-40.5589,37.1349
13.4970,83.5411,-40.6962,37.2676
13.5050,83.8276,-40.8370,37.3948
13.5130,84.1133,-40.9777,37.5227
13.5210,84.3922,-41.1074,37.6458
13.5290,84.6642,-41.2447,37.7682
13.5370,84.9308,-41.3779,37.8871
13.5440,85.1911,-41.5036,38.0040
13.5520,85.4418,-41.6312,38.1195
13.5600,85.6925,-41.7548,38.2330
13.5680,85.9391,-41.8777,38.3409
13.5760,86.1802,-41.9978,38.4502
13.5840,86.4158,-42.1138,38.5548
13.5920,86.6487,-42.2237,38.6606
13.6000,86.8781,-42.3349,38.7596
13.6080,87.1028,-42.4427,38.8580
13.6160,87.3191,-42.5429,38.9563
13.6240,87.5328,-42.6466,39.0574
13.6320,87.7423,-42.7434,39.1474
13.6400,87.9442,-42.8395,39.2396
13.6480,88.1407,-42.9342,39.3303
13.6560,88.3282,-43.0241,39.4121
13.6640,88.5171,-43.1154,39.4960
13.6720,88.6951,-43.2088,39.5771
13.6800,88.8716,-43.2933,39.6535
13.6880,89.0447,-43.3784,39.7263
13.6960,89.2109,-43.4607,39.7978
13.7040,89.3731,-43.5424,39.8680
13.7120,89.5331,-43.6227,39.9374
13.7200,89.6794,-43.6962,40.0055
13.7280,89.8292,-43.7683,40.0680
13.7350,89.9700,-43.8349,40.1327
13.7430,90.1094,-43.9028,40.1939
13.7510,90.2406,-43.9632,40.2509
13.7590,90.3671,-44.0147,40.3135
13.7670,90.4900,-44.0793,40.3685
13.7750,90.6033,-44.1328,40.4200
13.7830,90.7119,-44.1836,40.4723
13.7910,90.8184,-44.2337,40.5211
13.7990,90.9207,-44.2790,40.5630
13.8070,91.0135,-44.3257,40.6050
13.8150,91.1048,-44.3696,40.6442
13.8230,91.1893,-44.4108,40.6840
13.8310,91.2683,-44.4500,40.7171
13.8390,91.3432,-44.4864,40.7507
13.8470,91.4119,-44.5220,40.7830
13.8550,91.4717,-44.5550,40.8071
13.8630,91.5355,-44.5879,40.8325
13.8710,91.5871,-44.6106,40.8552
13.8790,91.6379,-44.6374,40.8738
13.8870,91.6784,-44.6586,40.8924
13.8950,91.7162,-44.6799,40.9075
13.9030,91.7505,-44.6957,40.9226
13.9110,91.7773,-44.7095,40.9357
13.9180,91.8000,-44.7225,40.9405
13.9260,91.8172,-44.7266,40.9494
13.9340,91.8289,-44.7314,40.9577
13.9420,91.8357,-44.7328,40.9591
13.9500,91.8344,-44.7362,40.9591
13.9580,91.8344,-44.7335,40.9625
13.9660,91.8261,-44.7266,40.9604
13.9740,91.8110,-44.7225,40.9549
13.9820,91.7938,-44.7122,40.9480
13.9900,91.7691,-44.7019,40.9391
13.9980,91.7409,-44.6902,40.9288
14.0060,91.7066,-44.6772,40.9144
14.0140,91.6674,-44.6593,40.8965
14.0220,91.6248,-44.6415,40.8779
14.0300,91.5774,-44.6188,40.8552
14.0380,91.5252,-44.5941,40.8291
14.0460,91.4648,-44.5653,40.8037
14.0540,91.4009,-44.5371,40.7755
14.0620,91.3294,-44.5062,40.7439
14.0700,91.2539,-44.4706,40.7109
14.0780,91.1756,-44.4342,40.6778
14.0860,91.0869,-44.3923,40.6394
14.0940,90.9983,-44.3477,40.5995
14.1020,90.8980,-44.3017,40.5589
14.1090,90.7998,-44.2529,40.5142
14.1170,90.6913,-44.1980,40.4668
14.1250,90.5814,-44.1472,40.4166
14.1330,90.4639,-44.0889,40.3657
14.1410,90.3430,-44.0312,40.3142
14.1490,90.2187,-43.9680,40.2557
14.1570,90.0882,-43.9056,40.1966
14.1650,89.9480,-43.8424,40.1333
14.1730,89.8079,-43.7724,40.0708
14.1810,89.6664,-43.7051,40.0013
14.1890,89.5153,-43.6289,39.9326
14.1970,89.3579,-43.5507,39.8631
14.2050,89.2000,-43.4731,39.7937
14.2130,89.0337,-43.3907,39.7160
14.2210,88.8599,-43.3049,39.6369
14.2290,88.6868,-43.2177,39.5593
14.2370,88.5048,-43.1285,39.4822
14.2450,88.3193,-43.0337,39.4011
14.2530,88.1325,-42.9376,39.3166
14.2610,87.9332,-42.8388,39.2320
14.2690,87.7320,-42.7448,39.1447
14.2770,87.5232,-42.6397,39.0512
14.2850,87.3102,-42.5347,38.9590
14.2930,87.0925,-42.4283,38.8531
14.3000,86.8706,-42.3253,38.7548
14.3080,86.6460,-42.2155,38.6517
14.3160,86.4124,-42.1029,38.5437
14.3240,86.1727,-41.9883,38.4378
14.3320,85.9309,-41.8715,38.3217
14.3400,85.6877,-41.7514,38.2089
14.3480,85.4363,-41.6312,38.0907
14.3560,85.1787,-41.5022,37.9717
14.3640,84.9163,-41.3704,37.8521
14.3720,84.6464,-41.2351,37.7345
14.3800,84.3744,-41.0992,37.6121
14.3880,84.0927,-40.9606,37.4938
14.3960,83.8042,-40.8191,37.3715
14.4040,83.5144,-40.6770,37.2463
14.4120,83.2176,-40.5308,37.1157
14.4200,82.9167,-40.3852,36.9864
14.4280,82.6097,-40.2411,36.8530
14.4360,82.2986,-40.0873,36.7114
14.4440,81.9798,-39.9342,36.5683
14.4520,81.6577,-39.7797,36.4184
14.4600,81.3294,-39.6198,36.2699
14.4680,81.0031,-39.4591,36.1159
14.4760,80.6645,-39.2958,35.9626
14.4840,80.3272,-39.1296,35.8120
14.4910,79.9762,-38.9635,35.6607
14.4990,79.6314,-38.7919,35.5032
14.5070,79.2763,-38.6209,35.3513
14.5150,78.9122,-38.4452,35.1938
14.5230,78.5448,-38.2598,35.0356
14.5310,78.1739,-38.0806,34.8679
14.5390,77.7933,-37.8925,34.6980
14.5470,77.4142,-37.6996,34.5240
14.5550,77.0261,-37.5081,34.3480
14.5630,76.6332,-37.3151,34.1768
14.5710,76.2335,-37.1243,34.0014
14.5790,75.8317,-36.9272,33.8275
14.5870,75.4237,-36.7309,33.6487
14.5950,75.0095,-36.5305,33.4685
14.6030,74.5919,-36.3259,33.2815
14.6110,74.1667,-36.1240,33.0917
14.6190,73.7375,-35.9112,32.9019
14.6270,73.3020,-35.7004,32.7066
14.6350,72.8645,-35.4883,32.5113
14.6430,72.4785,-35.2741,32.3153
14.6510,72.0081,-35.0565,32.1207
14.6590,71.5829,-34.8395,31.9240
14.6670,71.0967,-34.6178,31.7232
14.6750,70.6681,-34.3898,31.5155
14.6820,70.1750,-34.1619,31.3051
14.6900,69.7272,-33.9257,31.0898
14.6980,69.2210,-33.6916,30.8773
14.7060,68.7691,-33.4616,30.6614
14.7140,68.2622,-33.2316,30.4496
14.7220,67.8069,-32.9961,30.2370
14.7300,67.2883,-32.7613,30.0259
14.7380,66.8364,-32.5231,29.8127
14.7460,66.3214,-32.2855,29.5954
14.7540,65.8729,-32.0432,29.3746
14.7620,65.3571,-31.8091,29.1593
14.7700,64.9066,-31.5749,28.9468
14.7780,64.3943,-31.3477,28.7357
14.7860,63.9492,-31.1424,28.5266
14.7940,63.4403,-30.8959,28.3134
14.8020,62.9981,-30.6625,28.0947
14.8100,62.4899,-30.4222,27.8732
14.8180,62.0407,-30.1894,27.6511
14.8260,61.5332,-29.9588,27.4338
14.8340,61.0848,-29.7246,27.2178
14.8420,60.5711,-29.4933,27.0046
14.8500,60.1185,-29.2612,26.7914
14.8580,59.6069,-29.0257,26.5816
14.8650,59.1544,-28.7936,26.3677
14.8730,58.6407,-28.5581,26.1497
14.8810,58.1950,-28.3260,25.9337
14.8890,57.6848,-28.0954,25.7198
14.8970,57.2336,-27.8640,25.5086
14.9050,56.7220,-27.6374,25.3009
14.9130,56.2736,-27.4074,25.0877
14.9210,55.7730,-27.1774,24.8786
14.9290,55.3280,-26.9446,24.6633
14.9370,54.8260,-26.7098,24.4453
14.9450,54.3879,-26.4805,24.2368
14.9530,53.8818,-26.2477,24.0208
14.9610,53.4382,-26.0177,23.8076
14.9690,52.9342,-25.7959,23.5985
14.9770,52.4933,-25.5645,23.3929
14.9850,51.9872,-25.3373,23.1789
14.9930,51.5409,-25.1059,22.9698
15.0010,51.0334,-24.8745,22.7566
15.0090,50.5899,-24.6438,22.5420
15.0170,50.0838,-24.4138,22.3329
15.0250,49.6409,-24.1872,22.1251
15.0330,49.1410,-23.9606,21.9167
15.0410,48.7050,-23.7340,21.7097
15.0490,48.2024,-23.5033,21.5019
15.0560,47.7615,-23.2740,21.2969
15.0640,47.2651,-23.0385,21.0865
15.0720,46.8311,-22.8078,20.8801
15.0800,46.3333,-22.5791,20.6703
15.0880,45.8939,-22.3498,20.4619
15.0960,45.4022,-22.1239,20.2534
15.1040,44.9669,-21.8932,20.0470
15.1120,44.4677,-21.6652,19.8400
15.1200,44.0310,-21.4359,19.6315
15.1280,43.5401,-21.2051,19.4204
15.1360,43.1075,-20.9751,19.2140
15.1440,42.6105,-20.7471,19.0069
15.1520,42.1683,-20.5226,18.7958
15.1600,41.6760,-20.2960,18.5907
15.1680,41.2372,-20.0674,18.3823
15.1760,40.7360,-19.8401,18.1752
15.1840,40.2959,-19.6087,17.9654
15.1920,39.7988,-19.3821,17.7583
15.2000,39.3574,-19.1582,17.5520
15.2080,38.8562,-18.9289,17.3462
15.2160,38.4195,-18.7030,17.1447
15.2240,37.9259,-18.4770,16.9418
15.2320,37.4604,-18.2463,16.7340
15.2400,36.9894,-18.0198,16.5228
15.2470,36.5589,-17.7897,16.3130
15.2550,36.0605,-17.5617,16.1025
15.2630,35.5963,-17.3372,15.8981
15.2710,35.1604,-17.1106,15.6917
15.2790,34.6716,-16.8895,15.4874
15.2870,34.2088,-16.6649,15.2831
15.2950,33.7427,-16.4369,15.0719
15.3030,33.2813,-16.2117,14.8641
15.3110,32.8220,-15.9824,14.6501
15.3190,32.3634,-15.7558,14.4451
15.3270,31.9000,-15.5333,14.2408
15.3350,31.4345,-15.3060,14.0324
15.3430,30.9780,-15.0822,13.8294
15.3510,30.5119,-14.8569,13.6244
15.3590,30.0498,-14.6268,13.4180
15.3670,29.5830,-14.3961,13.2047
15.3750,29.1217,-14.1695,12.9976
15.3830,28.6583,-13.9402,12.7878
15.3910,28.1894,-13.7191,12.5793
15.3990,27.7315,-13.4938,12.3777
15.4070,27.2688,-13.2734,12.1754
15.4150,26.8082,-13.0509,11.9697
15.4230,26.3503,-12.8270,11.7613
15.4310,25.8917,-12.5977,11.5528
15.4380,25.4332,-12.3676,11.3416
15.4460,24.9739,-12.1451,11.1324
15.4540,24.5133,-11.9206,10.9253
15.4620,24.0554,-11.6988,10.7182
15.4700,23.6002,-11.4811,10.5200
15.4780,23.1410,-11.2586,10.3178
15.4860,22.6811,-11.0340,10.1093
15.4940,22.2191,-10.8102,9.9029
15.5020,21.7654,-10.5849,9.6930
15.5100,21.3054,-10.3569,9.4832
15.5180,20.8455,-10.1316,9.2775
15.5260,20.3917,-9.9119,9.0697
15.5340,19.9380,-9.6887,8.8736
15.5420,19.4836,-9.4724,8.6734
15.5500,19.0333,-9.2526,8.4800
15.5580,18.5850,-9.0384,8.2791
15.5660,18.1437,-8.8228,8.0851
15.5740,17.7078,-8.6119,7.8917
15.5820,17.2760,-8.4045,7.6991
15.5900,16.8559,-8.2006,7.5085
15.5980,16.4352,-8.0049,7.3248
15.6060,16.0233,-7.8119,7.1473
15.6140,15.6149,-7.6189,6.9697
15.6210,15.2188,-7.4252,6.7888
15.6290,14.8269,-7.2343,6.6133
15.6370,14.4384,-7.0462,6.4330
15.6450,14.0540,-6.8559,6.2569
15.6530,13.6799,-6.6733,6.0842
15.6610,13.3037,-6.4954,5.9225
15.6690,12.9365,-6.3134,5.7608
15.6770,12.5748,-6.1355,5.6032
15.6850,12.2151,-5.9604,5.4477
15.6930,11.8616,-5.7908,5.2929
15.7010,11.5102,-5.6191,5.1408
15.7090,11.1704,-5.4495,4.9888
15.7170,10.8368,-5.2846,4.8395
15.7250,10.5053,-5.1191,4.6874
15.7330,10.1834,-4.9639,4.5449
15.7410,9.8601,-4.8066,4.4039
15.7490,9.5492,-4.6549,4.2642
15.7570,9.2444,-4.5045,4.1273
15.7650,8.9410,-4.3589,3.9904
15.7730,8.6356,-4.2188,3.8596
15.7810,8.3453,-4.0759,3.7296
15.7890,8.0550,-3.9379,3.5981
15.7970,7.7728,-3.8198,3.4715
15.8050,7.4921,-3.6755,3.3442
15.8120,7.2155,-3.5410,3.2176
15.8200,6.9472,-3.4118,3.0972
15.8280,6.6781,-3.2799,2.9754
15.8360,6.4214,-3.1543,2.8639
15.8440,6.1661,-3.0272,2.7545
15.8520,5.9204,-2.9050,2.6451
15.8600,5.6767,-2.7848,2.5385
15.8680,5.4386,-2.6687,2.4346
15.8760,5.2031,-2.5540,2.3327
15.8840,4.9725,-2.4441,2.2336
15.8920,4.7549,-2.3336,2.1332
15.9000,4.5332,-2.2292,2.0334
15.9080,4.3253,-2.1262,1.9357
15.9160,4.1180,-2.0238,1.8407
15.9240,3.9190,-1.9270,1.7451
15.9320,3.7282,-1.8281,1.6583
15.9400,3.5326,-1.7381,1.5689
15.9480,3.3459,-1.6392,1.4856
15.9560,3.1612,-1.5513,1.4086
15.9640,2.9794,-1.4579,1.3315
15.9720,2.8078,-1.3735,1.2558
15.9800,2.6396,-1.2910,1.1891
15.9880,2.4776,-1.2072,1.1168
15.9960,2.3218,-1.1303,1.0480
16.0030,2.1681,-1.0568,0.9806
16.0110,2.0226,-0.9882,0.9166
16.0190,1.8792,-0.9250,0.8498
16.0270,1.7419,-0.8563,0.7886
16.0350,1.6101,-0.7986,0.7280
16.0430,1.4845,-0.7375,0.6647
16.0510,1.3630,-0.6812,0.6117
16.0590,1.2450,-0.6235,0.5553
16.0670,1.1365,-0.5692,0.5044
16.0750,1.0288,-0.5211,0.4542
16.0830,0.9265,-0.4676,0.4074
16.0910,0.8325,-0.4215,0.3647
16.0990,0.7405,-0.3749,0.3282
16.1070,0.6561,-0.3336,0.2931
16.1150,0.5758,-0.2945,0.2580
16.1230,0.5024,-0.2533,0.2236
16.1310,0.4358,-0.2169,0.1954
16.1390,0.3685,-0.1832,0.1672
16.1470,0.3109,-0.1544,0.1417
16.1550,0.2519,-0.1221,0.1163
16.1630,0.2066,-0.1001,0.0949
16.1710,0.1585,-0.0774,0.0750
16.1790,0.1215,-0.0589,0.0578
16.1870,0.0858,-0.0418,0.0426
16.1940,0.0563,-0.0294,0.0310
16.2020,0.0302,-0.0170,0.0165
16.2100,0.0110,-0.0067,0.0110
16.2180,-0.0055,-0.0012,0.0034
16.2260,-0.0151,0.0056,-0.0007
16.2340,-0.0151,0.0042,-0.0007
16.2420,-0.0117,0.0029,-0.0007
16.2500,-0.0062,0.0042,0.0034
16.2580,0.0048,-0.0006,0.0048
16.2660,0.0233,-0.0067,0.0124
16.2740,0.0439,-0.0143,0.0220
16.2820,0.0700,-0.0266,0.0317
16.2900,0.1043,-0.0431,0.0426
16.2980,0.1366,-0.0582,0.0626
16.3060,0.1805,-0.0788,0.0770
16.3140,0.2285,-0.1008,0.0984
16.3220,0.2814,-0.1249,0.1204
16.3300,0.3397,-0.1516,0.1431
16.3380,0.3967,-0.1812,0.1706
16.3460,0.4660,-0.2148,0.1988
16.3540,0.5408,-0.2485,0.2326
16.3620,0.6191,-0.2890,0.2649
16.3700,0.7000,-0.3295,0.3041
16.3780,0.7920,-0.3749,0.3420
16.3850,0.8847,-0.4188,0.3847
16.3930,0.9828,-0.4662,0.4280
16.4010,1.0864,-0.5170,0.4755
16.4090,1.1942,-0.5713,0.5278
16.4170,1.3095,-0.6262,0.5767
16.4250,1.4303,-0.6839,0.6338
16.4330,1.5559,-0.7451,0.6874
16.4410,1.6829,-0.8041,0.7432
16.4490,1.8201,-0.8687,0.8037
16.4570,1.9615,-0.9366,0.8663
16.4650,2.1070,-1.0074,0.9345
16.4730,2.2560,-1.0843,1.0005
16.4810,2.4104,-1.1571,1.0673
16.4890,2.5731,-1.2333,1.1382
16.4970,2.7350,-1.3185,1.2132
16.5050,2.9052,-1.3996,1.2889
16.5130,3.0796,-1.4875,1.3680
16.5210,3.2642,-1.5760,1.4492
16.5290,3.4467,-1.6701,1.5304
16.5370,3.6396,-1.7629,1.6178
16.5450,3.8291,-1.8624,1.7038
16.5530,4.0315,-1.9641,1.7946
16.5610,4.2340,-2.0671,1.8889
16.5680,4.4406,-2.1687,1.9811
16.5760,4.6616,-2.2773,2.0774
16.5840,4.8792,-2.3837,2.1765
16.5920,5.1125,-2.4943,2.2818
16.6000,5.3445,-2.6055,2.3850
16.6080,5.5827,-2.7209,2.4924
16.6160,5.8249,-2.8377,2.6018
16.6240,6.0748,-2.9558,2.7139
16.6320,6.3267,-3.0760,2.8275
16.6400,6.5841,-3.2003,2.9424
16.6480,6.8483,-3.3280,3.0662
16.6560,7.1201,-3.4571,3.1866
16.6640,7.3905,-3.5897,3.3071
16.6720,7.6685,-3.7085,3.4275
16.6800,7.9513,-3.8548,3.5541
16.6880,8.2410,-3.9949,3.6793
16.6960,8.5361,-4.1418,3.8094
16.7040,8.8361,-4.2854,3.9394
16.7120,9.1374,-4.4323,4.0736
16.7200,9.4483,-4.5814,4.2078
16.7280,9.7606,-4.7359,4.3488
16.7360,10.0770,-4.8897,4.4933
16.7440,10.4030,-5.0470,4.6406
16.7520,10.6941,-5.2063,4.7933
16.7590,11.0462,-5.3766,4.9461
16.7670,11.3887,-5.5422,5.0996
16.7750,11.7326,-5.7139,5.2550
16.7830,12.0648,-5.8849,5.4071
16.7910,12.4464,-6.0600,5.5640
16.7990,12.8047,-6.2365,5.7250
16.8070,13.1713,-6.4047,5.8846
16.8150,13.5419,-6.5991,6.0498
16.8230,13.9167,-6.7811,6.2197
16.8310,14.2997,-6.9658,6.3890
16.8390,14.6869,-7.1437,6.5631
16.8470,15.0767,-7.3456,6.7420
16.8550,15.4515,-7.5372,6.9195
16.8630,15.8805,-7.7329,7.0970
16.8710,16.2869,-7.9273,7.2752
16.8790,16.6994,-8.1106,7.4555
16.8870,17.1133,-8.3201,7.6392
16.8950,17.5073,-8.5247,7.8339
16.9030,17.9652,-8.7362,8.0218
16.9110,18.3695,-8.9464,8.2220
16.9190,18.8294,-9.1620,8.4147
16.9270,19.2392,-9.3797,8.6142
16.9350,19.7149,-9.5823,8.8144
16.9430,20.1330,-9.8171,9.0098
16.9500,20.6087,-10.0417,9.2121
16.9580,21.0315,-10.2697,9.4158
16.9660,21.5196,-10.4956,9.6263
16.9740,21.9541,-10.7264,9.8375
16.9820,22.4408,-10.9550,10.0426
16.9900,22.8754,-11.1823,10.2442
16.9980,23.3751,-11.4069,10.4471
17.0060,23.8336,-11.6322,10.6480
17.0140,24.2915,-11.8547,10.8496
17.0220,24.7295,-12.0785,11.0512
17.0300,25.2197,-12.3058,11.2611
17.0380,25.6837,-12.5359,11.4702
17.0460,26.1155,-12.7618,11.6835
17.0540,26.6036,-12.9905,11.8892
17.0620,27.0601,-13.2143,12.0929
17.0700,27.4919,-13.4354,12.2958
17.0780,27.9814,-13.6531,12.4988
17.0860,28.4201,-13.8818,12.6983
17.0940,28.9164,-14.1050,12.9033
17.1020,29.3524,-14.3357,13.1097
17.1100,29.8446,-14.5637,13.3203
17.1180,30.3114,-14.7910,13.5294
17.1260,30.7769,-15.0162,13.7351
17.1340,31.2368,-15.2401,13.9367
17.1410,31.6680,-15.4653,14.1397
17.1490,32.1616,-15.6857,14.3426
17.1570,32.6236,-15.9089,14.5456
17.1650,33.0843,-16.1389,14.7506
17.1730,33.5395,-16.3614,14.9577
17.1810,34.0022,-16.5853,15.1661
17.1890,34.4677,-16.8119,15.3760
17.1970,34.9256,-17.0358,15.5775
17.2050,35.3877,-17.2582,15.7784
17.2130,35.8538,-17.4848,15.9862
17.2210,36.3214,-17.7128,16.1898
17.2290,36.7855,-17.9353,16.3955
17.2370,37.2510,-18.1626,16.6060
17.2450,37.7185,-18.3871,16.8131
17.2530,38.1840,-18.6185,17.0229
17.2610,38.6474,-18.8410,17.2286
17.2690,39.1177,-19.0655,17.4288
17.2770,39.5819,-19.2901,17.6400
17.2850,40.0508,-19.5160,17.8471
17.2930,40.5129,-19.7439,18.0555
17.3010,40.9818,-19.9692,18.2626
17.3090,41.4453,-20.1951,18.4710
17.3170,41.9108,-20.4244,18.6795
17.3250,42.3756,-20.6496,18.8886
17.3320,42.8384,-20.8742,19.0957
17.3400,43.3046,-21.1035,19.3034
17.3480,43.7640,-21.3356,19.5146
17.3560,44.2254,-21.5629,19.7203
17.3640,44.6950,-21.7908,19.9273
17.3720,45.1612,-22.0209,20.1371
17.3800,45.6268,-22.2481,20.3463
17.3880,46.0957,-22.4747,20.5520
17.3960,46.5647,-22.7034,20.7624
17.4040,47.0316,-22.9320,20.9736
17.4120,47.5020,-23.1614,21.1841
17.4200,47.9730,-23.3927,21.3946
17.4280,48.4489,-23.6200,21.6037
17.4360,48.9240,-23.8501,21.8245
17.4440,49.3937,-24.0780,22.0357
17.4520,49.8696,-24.3053,22.2496
17.4600,50.3482,-24.5319,22.4594
17.4680,50.8233,-24.7612,22.6740
17.4760,51.3019,-24.9898,22.8832
17.4840,51.7771,-25.2205,23.0964
17.4920,52.2523,-25.4499,23.3096
17.5000,52.7282,-25.6799,23.5194
17.5080,53.1992,-25.9072,23.7285
17.5150,53.6758,-26.1097,23.9404
17.5230,54.1489,-26.3548,24.1522
17.5310,54.6179,-26.5855,24.3675
17.5390,55.0911,-26.8190,24.5787
17.5470,55.5615,-27.0538,24.7947
17.5550,56.0360,-27.2859,25.0051
17.5630,56.5112,-27.5152,25.2149
17.5710,56.9905,-27.7431,25.4206
17.5790,57.4677,-27.9752,25.6269
17.5870,57.9450,-28.2066,25.8395
17.5950,58.4216,-28.4428,26.0547
17.6030,58.9003,-28.6755,26.2700
17.6110,59.3810,-28.9096,26.4846
17.6190,59.8589,-29.1451,26.7006
17.6270,60.3328,-29.3758,26.9103
17.6350,60.8115,-29.6093,27.1187
17.6430,61.2922,-29.8413,27.3326
17.6510,61.7695,-30.0741,27.5445
17.6590,62.2447,-30.3137,27.7639
17.6670,62.7234,-30.5478,27.9819
17.6750,63.1986,-30.7840,28.1951
17.6830,63.6752,-31.0181,28.4083
17.6910,64.1484,-31.2495,28.6146
17.6990,64.6305,-31.4850,28.8230
17.7060,65.1119,-31.7171,29.0328
17.7140,65.5934,-31.9519,29.2419
17.7220,66.0707,-32.1860,29.4558
17.7300,66.5507,-32.4256,29.6573
17.7380,67.0288,-32.6611,29.8849
17.7460,67.5116,-32.8959,30.1002
17.7540,67.9930,-33.1266,30.3120
17.7620,68.4751,-33.3559,30.5204
17.7700,68.9470,-33.5886,30.7308
17.7780,69.4222,-33.8186,30.9447
17.7860,69.9057,-34.0527,31.1579
17.7940,70.3796,-34.2855,31.3614
17.8020,70.8508,-34.5148,31.5856
17.8100,71.3123,-34.7400,31.7871
17.8180,71.7725,-34.9651,31.9886
17.8260,72.2258,-35.1821,32.1819
17.8340,72.6716,-35.3997,32.3779
17.8420,73.1145,-35.6181,32.5718
17.8500,73.5582,-35.8295,32.7643
17.8580,73.9930,-36.0444,32.9589
17.8660,74.4175,-36.2538,33.1439
17.8740,74.8351,-36.4563,33.3447
17.8820,75.2527,-36.6588,33.5317
17.8900,75.6593,-36.8559,33.7161
17.8970,76.0631,-37.0502,33.8949
17.9050,76.4615,-37.2438,34.0737
17.9130,76.8592,-37.4381,34.2524
17.9210,77.2466,-37.6275,34.4305
17.9290,77.6285,-37.8197,34.6059
17.9370,78.0111,-38.0065,34.7826
17.9450,78.3895,-38.1898,34.9511
17.9530,78.7577,-38.3738,35.1188
17.9610,79.1238,-38.5495,35.2804
17.9690,79.4823,-38.7218,35.4386
17.9770,79.8326,-38.8969,35.5926
17.9850,80.1802,-39.0651,35.7453
17.9930,80.5188,-39.2299,35.9000
18.0010,80.8568,-39.3919,36.0485
18.0090,81.1872,-39.5532,36.2005
18.0170,81.5162,-39.7159,36.3476
18.0250,81.8370,-39.8759,36.4982
18.0330,82.1577,-40.0276,36.6399
18.0410,82.4696,-40.1807,36.7787
18.0490,82.7801,-40.3296,36.9183
18.0570,83.0802,-40.4759,37.0545
18.0650,83.3777,-40.6166,37.1865
18.0730,83.6710,-40.7580,37.3185
18.0810,83.9567,-40.8981,37.4464
18.0880,84.2377,-41.0354,37.5695
18.0960,84.5131,-41.1685,37.6925
18.1040,84.7789,-41.3017,37.8156
18.1120,85.0427,-41.4349,37.9318
18.1200,85.3037,-41.5605,38.0487
18.1280,85.5524,-41.6848,38.1594
18.1360,85.8004,-41.8118,38.2701
18.1440,86.0435,-41.9319,38.3794
18.1520,86.2847,-42.0473,38.4922
18.1600,86.5203,-42.1612,38.5932
18.1680,86.7497,-42.2704,38.6991
18.1760,86.9784,-42.3823,38.7982
18.1840,87.1982,-42.4873,38.8971
18.1920,87.4174,-42.5896,38.9982
18.2000,87.6262,-42.6878,39.0938
18.2080,87.8330,-42.7845,39.1839
18.2160,88.0301,-42.8800,39.2760
18.2240,88.2245,-42.9754,39.3599
18.2320,88.4121,-43.0646,39.4437
18.2400,88.5954,-43.1573,39.5228
18.2480,88.7734,-43.2452,39.6026
18.2560,88.9513,-43.3337,39.6775
18.2640,89.1155,-43.4147,39.7490
18.2720,89.2817,-43.4985,39.8212
18.2790,89.4445,-43.5761,39.8920
18.2870,89.5970,-43.6509,39.9567
18.2950,89.7474,-43.7292,40.0227
18.3030,89.8917,-43.7978,40.0900
18.3110,90.0332,-43.8637,40.1547
18.3190,90.1672,-43.9289,40.2186
18.3270,90.2984,-43.9907,40.2811
18.3350,90.4206,-44.0511,40.3361
18.3430,90.5402,-44.1019,40.3919
18.3510,90.6535,-44.1562,40.4441
18.3590,90.7648,-44.2076,40.4929
18.3670,90.8658,-44.2578,40.5431
18.3750,90.9647,-44.3024,40.5844
18.3830,91.0554,-44.3470,40.6263
18.3910,91.1440,-44.3882,40.6641
18.3990,91.2257,-44.4294,40.7005
18.4070,91.3027,-44.4699,40.7363
18.4150,91.3721,-44.5021,40.7652
18.4230,91.4414,-44.5371,40.7940
18.4310,91.4998,-44.5701,40.8195
18.4390,91.5575,-44.5996,40.8401
18.4470,91.6070,-44.6250,40.8628
18.4550,91.6564,-44.6497,40.8786
18.4620,91.6956,-44.6717,40.8972
18.4700,91.7306,-44.6889,40.9123
18.4780,91.7650,-44.7033,40.9281
18.4860,91.7876,-44.7156,40.9384
18.4940,91.8076,-44.7252,40.9480
18.5020,91.8206,-44.7293,40.9529
18.5100,91.8316,-44.7335,40.9570
18.5180,91.8350,-44.7342,40.9597
18.5260,91.8350,-44.7335,40.9583
18.5340,91.8282,-44.7307,40.9570
18.5420,91.8193,-44.7266,40.9549
18.5500,91.8041,-44.7184,40.9508
18.5580,91.7863,-44.7101,40.9419
18.5660,91.7595,-44.6971,40.9343
18.5740,91.7293,-44.6834,40.9212
18.5820,91.6942,-44.6648,40.9075
18.5900,91.6523,-44.6497,40.8917
18.5980,91.6097,-44.6284,40.8697
18.6060,91.5548,-44.6044,40.8477
18.6140,91.5019,-44.5797,40.8174
18.6220,91.4394,-44.5516,40.7934
18.6300,91.3734,-44.5262,40.7645
18.6380,91.3006,-44.4912,40.7294
18.6460,91.2230,-44.4541,40.6978
18.6530,91.1412,-44.4143,40.6614
18.6610,91.0540,-44.3737,40.6215
18.6690,90.9599,-44.3271,40.5816
18.6770,90.8596,-44.2804,40.5417
18.6850,90.7586,-44.2275,40.4915
18.6930,90.6487,-44.1754,40.4448
18.7010,90.5374,-44.1205,40.3939
18.7090,90.4158,-44.0648,40.3403
18.7170,90.2935,-44.0024,40.2866
18.7250,90.1692,-43.9447,40.2282
18.7330,90.0339,-43.8774,40.1671
18.7410,89.8992,-43.8136,40.1038
18.7490,89.7571,-43.7429,40.0392
18.7570,89.6080,-43.6722,39.9697
18.7650,89.4562,-43.5994,39.8996
18.7730,89.2982,-43.5198,39.8274
18.7810,89.1367,-43.4402,39.7538
18.7890,88.9705,-43.3605,39.6775
18.7970,88.7960,-43.2706,39.5984
18.8050,88.6195,-43.1834,39.5208
18.8130,88.4354,-43.0900,39.4382
18.8210,88.2479,-42.9953,39.3571
18.8290,88.0569,-42.9006,39.2698
18.8370,87.8563,-42.8024,39.1832
18.8440,87.6530,-42.7036,39.0945
18.8520,87.4428,-42.6013,39.0024
18.8600,87.2292,-42.4914,38.9027
18.8680,87.0093,-42.3898,38.8043
18.8760,86.7847,-42.2834,38.7053
18.8840,86.5539,-42.1742,38.6029
18.8920,86.3245,-42.0624,38.4942
18.9000,86.0806,-41.9415,38.3828
18.9080,85.8375,-41.8256,38.2694
18.9160,85.5902,-41.7061,38.1532
18.9240,85.3347,-41.5832,38.0370
18.9320,85.0743,-41.4521,37.9201
18.9400,84.8098,-41.3182,37.7984
18.9480,84.5378,-41.1843,37.6808
18.9560,84.2590,-41.0463,37.5585
18.9640,83.9773,-40.9077,37.4375
18.9720,83.6895,-40.7663,37.3144
18.9800,83.3942,-40.6214,37.1865
18.9880,83.0946,-40.4731,37.0586
18.9960,82.7945,-40.3283,36.9266
19.0040,82.4840,-40.1807,36.7877
19.0120,82.1694,-40.0248,36.6460
19.0200,81.8507,-39.8717,36.5023
19.0280,81.5272,-39.7132,36.3524
19.0350,81.1981,-39.5532,36.1984
19.0430,80.8636,-39.3912,36.0506
19.0510,80.5257,-39.2278,35.8972
19.0590,80.1823,-39.0617,35.7439
19.0670,79.8326,-38.8921,35.5899
19.0750,79.4810,-38.7205,35.4372
19.0830,79.1224,-38.5461,35.2825
19.0910,78.7591,-38.3649,35.1223
19.0990,78.3882,-38.1857,34.9621
19.1070,78.0111,-37.9982,34.7915
19.1150,77.6292,-37.8081,34.6203
19.1230,77.2487,-37.6138,34.4463
19.1310,76.8558,-37.4257,34.2710
19.1390,76.4588,-37.2314,34.0998
19.1470,76.0576,-37.0385,33.9258
19.1550,75.6558,-36.8387,33.7484
19.1630,75.2451,-36.6437,33.5703
19.1710,74.8296,-36.4439,33.3901
19.1790,74.4099,-36.2387,33.2024
19.1870,73.9813,-36.0293,33.0098
19.1950,73.5479,-35.8171,32.8159
19.2030,73.1104,-35.6050,32.6213
19.2110,72.6722,-35.3936,32.4253
19.2190,72.2292,-35.1780,32.2321
19.2260,71.7814,-34.9638,32.0354
19.2340,71.3309,-34.7441,31.8359
19.2420,70.8693,-34.5210,31.6296
19.2500,70.4057,-34.2910,31.4240
19.2580,69.9394,-34.0576,31.2108
19.2660,69.4600,-33.8255,30.9949
19.2740,68.9833,-33.5927,30.7824
19.2820,68.5019,-33.3580,30.5671
19.2900,68.0232,-33.1273,30.3546
19.2980,67.5349,-32.8952,30.1435
19.3060,67.0487,-32.6597,29.9296
19.3140,66.5679,-32.4181,29.7164
19.3220,66.0837,-32.1812,29.4998
19.3300,65.5982,-31.9422,29.2818
19.3380,65.1188,-31.7074,29.0693
19.3460,64.6374,-31.4760,28.8540
19.3540,64.1566,-31.2413,28.6456
19.3620,63.6773,-31.0099,28.4317
19.3700,63.2041,-30.7772,28.2158
19.3780,62.7316,-30.5423,27.9970
19.3860,62.2536,-30.3041,27.7783
19.3940,61.7749,-30.0720,27.5541
19.4020,61.2963,-29.8386,27.3382
19.4090,60.8142,-29.6065,27.1222
19.4170,60.3328,-29.3758,26.9103
19.4250,59.8500,-29.1431,26.7013
19.4330,59.3679,-28.9104,26.4867
19.4410,58.8845,-28.6762,26.2721
19.4490,58.4045,-28.4393,26.0582
19.4570,57.9231,-28.2100,25.8429
19.4650,57.4424,-27.9800,25.6304
19.4730,56.9644,-27.7514,25.4165
19.4810,56.4851,-27.5241,25.2101
19.4890,56.0106,-27.2913,24.9955
19.4970,55.5388,-27.0620,24.7857
19.5050,55.0643,-26.8272,24.5704
19.5130,54.5918,-26.5944,24.3689
19.5210,54.1228,-26.3638,24.1460
19.5290,53.6504,-26.1358,23.9342
19.5370,53.1745,-25.9065,23.7230
19.5450,52.7034,-25.6792,23.5194
19.5530,52.2262,-25.4499,23.3082
19.5610,51.7490,-25.2205,23.0992
19.5690,51.2724,-24.9871,22.8887
19.5770,50.7972,-24.7571,22.6734
19.5850,50.3262,-24.5312,22.4635
19.5930,49.8503,-24.3025,22.2531
19.6000,49.3793,-24.0753,22.0419
19.6080,48.9103,-23.8460,21.8362
19.6160,48.4420,-23.6166,21.6264
19.6240,47.9709,-23.4175,21.4159
19.6320,47.4992,-23.1675,21.2082
19.6400,47.0330,-22.9382,20.9950
19.6480,46.5681,-22.7075,20.7865
19.6560,46.1040,-22.4768,20.5808
19.6640,45.6364,-22.2516,20.3717
19.6720,45.1708,-22.0229,20.1640
19.6800,44.7053,-21.7936,19.9562
19.6880,44.2377,-21.5649,19.7478
19.6960,43.7722,-21.3315,19.5428
19.7040,43.3080,-21.1049,19.3316
19.7120,42.8446,-20.8755,19.1238
19.7200,42.3756,-20.6496,18.9161
19.7280,41.9101,-20.4265,18.7084
19.7360,41.4419,-20.1999,18.5020
19.7440,40.9729,-19.9726,18.2908
19.7520,40.4992,-19.7460,18.0830
19.7600,40.0330,-19.5174,17.8725
19.7680,39.5661,-19.2907,17.6689
19.7760,39.0958,-19.0649,17.4611
19.7840,38.6262,-18.8403,17.2548
19.7910,38.1593,-18.6144,17.0525
19.7990,37.6952,-18.3864,16.8482
19.8070,37.2290,-18.1598,16.6363
19.8150,36.7601,-17.9318,16.4292
19.8230,36.2939,-17.7004,16.2215
19.8310,35.8339,-17.4759,16.0116
19.8390,35.3650,-17.2507,15.8066
19.8470,34.9002,-17.0289,15.6044
19.8550,34.4436,-16.8016,15.3987
19.8630,33.9788,-16.5784,15.1923
19.8710,33.5147,-16.3511,14.9866
19.8790,33.0548,-16.1231,14.7733
19.8870,32.5962,-15.8952,14.5635
19.8950,32.1314,-15.6713,14.3578
19.9030,31.6687,-15.4475,14.1534
19.9110,31.2039,-15.2181,13.9484
19.9190,30.7439,-15.0094,13.7475
19.9270,30.2812,-14.7725,13.5398
19.9350,29.8137,-14.5410,13.3320
19.9430,29.3510,-14.3275,13.1235
19.9510,28.8903,-14.0830,12.9130
19.9590,28.4228,-13.8564,12.7038
19.9670,27.9587,-13.6346,12.5023
19.9750,27.4960,-13.4128,12.3013
19.9820,27.0388,-13.1910,12.0991
19.9900,26.5768,-12.9616,11.8927
19.9980,26.1162,-12.7371,11.6849
20.0060,25.6569,-12.5084,11.4709
20.0140,25.1991,-12.2797,11.2611
20.0220,24.7377,-12.0586,11.0402
20.0300,24.2805,-11.8361,10.8338
20.0380,23.8247,-11.6102,10.6288
20.0460,23.3689,-11.3932,10.4279
20.0540,22.9076,-11.1727,10.2194
20.0620,22.4497,-10.9468,10.0116
20.0700,21.9960,-10.7195,9.8004
20.0780,21.5409,-10.4936,9.5885
20.0860,21.0803,-10.2663,9.3800
20.0940,20.6272,-10.0431,9.1729
20.1020,20.1714,-9.8199,8.9672
20.1100,19.7211,-9.6001,8.7717
20.1180,19.2674,-9.3817,8.5743
20.1260,18.8171,-9.1620,8.3775
20.1340,18.3764,-8.9491,8.1814
20.1420,17.9364,-8.7328,7.9908
20.1500,17.5046,-8.5206,7.7940
20.1580,17.1284,-8.3180,7.6089
20.1660,16.6843,-8.1168,7.4273
20.1730,16.2690,-7.9218,7.2491
20.1810,15.8826,-7.7253,7.0709
20.1890,15.4597,-7.5331,6.8927
20.1970,15.0630,-7.3408,6.7103
20.2050,14.6759,-7.1505,6.5349
20.2130,14.2867,-6.9630,6.3587
20.2210,13.9304,-6.7804,6.1847
20.2290,13.5303,-6.5943,6.0120
20.2370,13.1829,-6.4123,5.8503
20.2450,12.7965,-6.2365,5.6913
20.2530,12.4361,-6.0600,5.5385
20.2610,12.0957,-5.8869,5.3844
20.2690,11.7230,-5.7145,5.2289
20.2770,11.3825,-5.5456,5.0817
20.2850,11.0414,-5.3794,4.9324
20.2930,10.7270,-5.2132,4.7789
20.3010,10.3790,-5.0532,4.6296
20.3090,10.0578,-4.8932,4.4899
20.3170,9.7400,-4.7400,4.3495
20.3250,9.4524,-4.5869,4.2112
20.3330,9.1278,-4.4399,4.0764
20.3410,8.8436,-4.2943,3.9428
20.3490,8.5224,-4.1556,3.8087
20.3560,8.2492,-4.0182,3.6779
20.3640,7.9458,-3.8768,3.5465
20.3720,7.6603,-3.7421,3.4206
20.3800,7.4015,-3.6082,3.2947
20.3880,7.1112,-3.4757,3.1701
20.3960,6.8442,-3.3438,3.0504
20.4040,6.5937,-3.2147,2.9307
20.4120,6.3246,-3.0904,2.8192
20.4200,6.0865,-2.9640,2.7112
20.4280,5.8249,-2.8425,2.6024
20.4360,5.6005,-2.7237,2.4979
20.4440,5.3479,-2.6104,2.3967
20.4520,5.1146,-2.4984,2.2935
20.4600,4.9025,-2.3906,2.1903
20.4680,4.6691,-2.2821,2.0939
20.4760,4.4529,-2.1763,1.9935
20.4840,4.2594,-2.0760,1.8958
20.4920,4.0398,-1.9737,1.8098
20.5000,3.8579,-1.8782,1.7121
20.5080,3.6499,-1.7793,1.6198
20.5160,3.4612,-1.6873,1.5345
20.5240,3.2841,-1.5939,1.4526
20.5320,3.0905,-1.5039,1.3749
20.5400,2.9258,-1.4161,1.3026
20.5470,2.7412,-1.3322,1.2276
20.5550,2.5875,-1.2498,1.1588
20.5630,2.4193,-1.1674,1.0886
20.5710,2.2704,-1.0932,1.0212
20.5790,2.1091,-1.0198,0.9537
20.5870,1.9766,-0.9545,0.8870
20.5950,1.8277,-0.8865,0.8237
20.6030,1.6980,-0.8206,0.7611
20.6110,1.5614,-0.7657,0.6985
20.6190,1.4358,-0.7080,0.6406
20.6270,1.3198,-0.6496,0.5863
20.6350,1.2011,-0.5967,0.5319
20.6430,1.0947,-0.5452,0.4796
20.6510,0.9924,-0.4957,0.4321
20.6590,0.8908,-0.4456,0.3888
20.6670,0.7975,-0.4023,0.3468
20.6750,0.7096,-0.3543,0.3104
20.6830,0.6287,-0.3158,0.2752
20.6910,0.5497,-0.2746,0.2443
20.6990,0.4804,-0.2368,0.2099
20.7070,0.4090,-0.2087,0.1837
20.7150,0.3466,-0.1695,0.1548
20.7230,0.2889,-0.1420,0.1287
20.7310,0.2320,-0.1180,0.1087
20.7380,0.1880,-0.0912,0.0854
20.7460,0.1455,-0.0699,0.0661
20.7540,0.1043,-0.0507,0.0509
20.7620,0.0714,-0.0362,0.0358
20.7700,0.0480,-0.0232,0.0261
20.7780,0.0213,-0.0129,0.0165
20.7860,0.0041,-0.0019,0.0083
20.7940,-0.0075,0.0022,0.0028
20.8020,-0.0123,0.0049,-0.0007
20.8100,-0.0158,0.0049,0.0007
20.8180,-0.0110,0.0042,0.0048
20.8260,-0.0103,0.0042,0.0048
20.8340,-0.0055,0.0049,0.0020
20.8420,0.0000,0.0036,-0.0007
20.8500,0.0021,0.0022,-0.0020
20.8580,0.0034,0.0008,-0.0014
20.8660,0.0048,0.0029,-0.0007
20.8740,0.0041,0.0036,-0.0020
20.8820,0.0041,0.0036,-0.0007
20.8900,0.0021,0.0042,0.0000
20.8980,0.0021,0.0042,0.0000
20.9060,-0.0034,0.0036,0.0007
20.9140,-0.0055,0.0070,0.0020
20.9220,-0.0048,0.0049,0.0000
20.9290,-0.0055,0.0063,0.0020
20.9370,-0.0062,0.0049,0.0034
20.9450,-0.0020,0.0070,0.0007
20.9530,0.0021,0.0029,0.0014
20.9610,0.0034,0.0029,0.0007
20.9690,0.0021,0.0015,0.0000
20.9770,0.0062,0.0029,0.0007
20.9850,0.0041,0.0056,0.0007
20.9930,0.0034,0.0036,0.0000
21.0010,-0.0014,0.0036,0.0014
21.0090,-0.0027,0.0036,0.0000
21.0170,-0.0020,0.0042,0.0014
21.0250,-0.0055,0.0022,0.0007
21.0330,0.0000,0.0029,0.0020
21.0410,-0.0048,0.0042,0.0020
21.0490,-0.0034,0.0042,0.0014
21.0570,0.0014,0.0042,-0.0020
21.0650,-0.0007,0.0042,0.0000
21.0730,0.0034,0.0056,0.0000
21.0810,0.0021,0.0022,-0.0014
21.0890,0.0034,0.0029,0.0000
21.0970,0.0007,0.0015,0.0000
21.1050,-0.0007,0.0015,0.0014
21.1120,-0.0027,0.0015,0.0007
21.1200,-0.0007,0.0042,0.0014
21.1280,-0.0007,0.0029,0.0000
21.1360,-0.0014,0.0042,0.0020
21.1440,0.0000,0.0056,0.0020
21.1520,0.0000,0.0022,-0.0014
21.1600,0.0000,0.0063,0.0020
21.1680,0.0007,0.0056,0.0007
21.1760,-0.0007,0.0008,-0.0007
21.1840,0.0014,0.0036,-0.0007
21.1920,0.0034,0.0036,0.0000
21.2000,0.0021,0.0042,0.0020
21.2080,0.0027,0.0049,0.0028
21.2160,0.0007,0.0042,0.0000
21.2240,-0.0014,0.0036,0.0014
21.2320,0.0007,0.0042,0.0020
21.2400,-0.0034,0.0029,0.0000
21.2480,-0.0014,0.0056,0.0000
21.2560,-0.0027,0.0022,0.0000
21.2640,0.0007,0.0029,0.0014
21.2720,0.0027,0.0042,0.0014
21.2800,0.0034,0.0036,-0.0007
21.2880,0.0041,0.0029,0.0000
21.2960,-0.0007,0.0070,0.0020
21.3030,0.0007,0.0070,0.0028
21.3110,-0.0027,0.0056,0.0000
21.3190,0.0007,0.0029,0.0020
21.3270,-0.0014,0.0036,0.0034
21.3350,0.0007,0.0070,0.0020
21.3430,-0.0014,0.0029,0.0007
21.3510,-0.0048,0.0049,0.0020
21.3590,-0.0014,0.0029,0.0007
21.3670,-0.0014,0.0008,0.0028
21.3750,0.0021,0.0049,-0.0014
21.3830,-0.0007,0.0036,0.0028
21.3910,0.0007,0.0042,0.0014
21.3990,0.0007,0.0036,-0.0007
21.4070,0.0034,0.0042,0.0014
21.4150,-0.0014,0.0049,-0.0007
21.4230,0.0041,0.0029,0.0020
21.4310,-0.0007,0.0029,0.0014
21.4390,-0.0007,0.0049,0.0014
21.4470,-0.0014,0.0042,0.0020
21.4550,-0.0020,0.0022,0.0014
21.4630,-0.0007,0.0042,0.0020
21.4710,-0.0027,0.0049,0.0000
21.4790,0.0014,0.0036,0.0014
21.4870,-0.0007,0.0036,0.0000
21.4940,0.0000,0.0056,0.0000
21.5020,0.0007,0.0063,0.0007
21.5100,0.0014,0.0022,0.0007
21.5180,0.0021,0.0036,0.0014
21.5260,-0.0007,0.0036,0.0007
21.5340,-0.0020,0.0049,0.0000
21.5420,-0.0014,0.0049,0.0014
21.5500,0.0007,0.0029,0.0000
21.5580,0.0000,0.0022,0.0000
21.5660,0.0007,0.0036,0.0007
21.5740,-0.0027,0.0042,0.0020
21.5820,0.0021,0.0008,0.0014
21.5900,0.0000,0.0029,-0.0014
21.5980,0.0000,0.0049,0.0014
21.6060,0.0007,0.0042,0.0000
21.6140,0.0021,0.0022,0.0014
21.6220,0.0034,0.0036,0.0020
21.6300,0.0007,0.0029,0.0007
21.6380,-0.0014,0.0056,0.0028
21.6460,-0.0014,0.0029,0.0000
21.6540,-0.0007,0.0042,0.0007
21.6620,0.0000,0.0049,0.0020
21.6700,-0.0020,0.0029,0.0007
21.6780,0.0000,0.0042,0.0007
21.6850,0.0007,0.0049,0.0028
21.6930,0.0000,0.0049,-0.0007
21.7010,0.0000,0.0029,0.0014
21.7090,0.0007,0.0042,0.0020
21.7170,-0.0007,0.0036,0.0007
21.7250,0.0027,0.0056,0.0020
21.7330,0.0014,0.0015,-0.0014
21.7410,-0.0014,0.0042,0.0000
21.7490,0.0021,0.0022,0.0020
21.7570,-0.0020,0.0063,0.0034
21.7650,-0.0014,0.0036,0.0007
21.7730,-0.0027,0.0042,0.0028
21.7810,-0.0007,0.0049,0.0034
21.7890,-0.0027,0.0036,0.0007
21.7970,0.0007,0.0036,0.0007
21.8050,0.0014,0.0036,0.0020
21.8130,-0.0007,0.0042,0.0014
21.8210,-0.0014,0.0042,0.0007
21.8290,-0.0014,0.0070,0.0020
21.8370,0.0027,0.0036,0.0020
21.8450,-0.0014,0.0036,0.0007
21.8530,0.0014,0.0063,0.0007
21.8610,-0.0007,0.0036,0.0020
21.8690,-0.0007,0.0036,0.0014
21.8760,0.0007,0.0042,0.0000
